youngblood1998/my_ws/src/ur5_platform/ur5_platform_manipulation/wzq/test4_14_7.csv
j0,j1,j2,j3,j4,j5
-0.8222325483905237,-2.5176385084735315,-1.4401939550982874,-0.7134988943683069,-1.59629995027651,-3.1429665724383753
-0.8222325483905237,-2.5176265875445765,-1.4402058760272425,-0.7134631315814417,-1.5962279478656214,-3.142895046864645
-0.8221848646747034,-2.5176385084735315,-1.4401820341693323,-0.7134631315814417,-1.5962279478656214,-3.142895046864645
-0.8222325483905237,-2.5176385084735315,-1.440242115651266,-0.7134869734393519,-1.5962517897235315,-3.1429665724383753
-0.8222087065326136,-2.5176385084735315,-1.4401701132403772,-0.7134631315814417,-1.5962279478656214,-3.1429429689990442
-0.8222087065326136,-2.5176623503314417,-1.4402058760272425,-0.7134512106524866,-1.5962517897235315,-3.1429429689990442
-0.8222087065326136,-2.5176504294024866,-1.4402177969561976,-0.7134631315814417,-1.5962279478656214,-3.1429069677936
-0.8222087065326136,-2.5176265875445765,-1.4401581923114222,-0.7134750525103968,-1.5962517897235315,-3.142931048070089
-0.8222206274615687,-2.5176265875445765,-1.4401701132403772,-0.7134869734393519,-1.5962517897235315,-3.1429069677936
-0.8222087065326136,-2.5176146666156214,-1.4402058760272425,-0.7134869734393519,-1.5962398687945765,-3.142919127141134
-0.8221967856036585,-2.5176265875445765,-1.4401820341693323,-0.7134988943683069,-1.5962398687945765,-3.1429429689990442
-0.8222087065326136,-2.5176385084735315,-1.4401820341693323,-0.7134750525103968,-1.5962517897235315,-3.1429069677936
-0.8221605459796351,-2.5176504294024866,-1.4401820341693323,-0.7134750525103968,-1.5962756315814417,-3.142919127141134
-0.8221967856036585,-2.5176146666156214,-1.4402058760272425,-0.7134750525103968,-1.5962517897235315,-3.1429429689990442
-0.8222444693194788,-2.5176504294024866,-1.4401701132403772,-0.7134988943683069,-1.5962517897235315,-3.1429069677936
-0.8222325483905237,-2.5176265875445765,-1.4401701132403772,-0.7134750525103968,-1.5962160269366663,-3.1429906527148646
-0.8221848646747034,-2.5176265875445765,-1.4401939550982874,-0.7134750525103968,-1.5962398687945765,-3.1429429689990442
-0.8222087065326136,-2.517674271260397,-1.4402058760272425,-0.7134988943683069,-1.5962637106524866,-3.1429069677936
-0.8221967856036585,-2.5176265875445765,-1.4401581923114222,-0.7134869734393519,-1.5962756315814417,-3.1429429689990442
-0.8222563902484339,-2.5176385084735315,-1.4401701132403772,-0.7134750525103968,-1.5962756315814417,-3.1429429689990442
-0.8222444693194788,-2.5176385084735315,-1.4401581923114222,-0.7134631315814417,-1.5962398687945765,-3.1429429689990442
-0.8222206274615687,-2.5176265875445765,-1.4402058760272425,-0.7134631315814417,-1.5962756315814417,-3.1429069677936
-0.8221967856036585,-2.5176385084735315,-1.4402177969561976,-0.7134750525103968,-1.5962279478656214,-3.142931048070089
-0.8222325483905237,-2.5176385084735315,-1.440134350453512,-0.7134988943683069,-1.5962637106524866,-3.142931048070089
-0.8222087065326136,-2.5176265875445765,-1.440134350453512,-0.7134631315814417,-1.5962756315814417,-3.1429551283465784
-0.8221848646747034,-2.5176265875445765,-1.4402058760272425,-0.7134631315814417,-1.5962398687945765,-3.1429429689990442
-0.8222206274615687,-2.5176265875445765,-1.4402058760272425,-0.7134988943683069,-1.5962637106524866,-3.1429429689990442
-0.8222206274615687,-2.517686192189352,-1.4402058760272425,-0.7134512106524866,-1.5962517897235315,-3.142931048070089
-0.8221848646747034,-2.5176385084735315,-1.4402177969561976,-0.7134512106524866,-1.5962517897235315,-3.142919127141134
-0.8221967856036585,-2.5176385084735315,-1.4401939550982874,-0.7134392897235315,-1.5962398687945765,-3.142919127141134
-0.8221967856036585,-2.5176504294024866,-1.4401581923114222,-0.7134750525103968,-1.5962398687945765,-3.1429551283465784
-0.8221967856036585,-2.5176265875445765,-1.4401701132403772,-0.7134512106524866,-1.5962398687945765,-3.1429665724383753
-0.8222087065326136,-2.5176623503314417,-1.4401939550982874,-0.7134750525103968,-1.5962398687945765,-3.1429429689990442
-0.8222087065326136,-2.5176504294024866,-1.4402177969561976,-0.7134268919574183,-1.5962517897235315,-3.142931048070089
-0.8221848646747034,-2.5176504294024866,-1.4401701132403772,-0.7134512106524866,-1.5962756315814417,-3.142931048070089
-0.8221967856036585,-2.5176385084735315,-1.4402177969561976,-0.7134631315814417,-1.5962637106524866,-3.1429551283465784
-0.8221848646747034,-2.5176385084735315,-1.4401581923114222,-0.7134869734393519,-1.5962517897235315,-3.142919127141134
-0.8222087065326136,-2.5176385084735315,-1.4401820341693323,-0.7134512106524866,-1.5962398687945765,-3.142919127141134
-0.8221848646747034,-2.5176385084735315,-1.4401457945453089,-0.7134750525103968,-1.5962637106524866,-3.1429429689990442
-0.8222563902484339,-2.5176265875445765,-1.4401701132403772,-0.7134869734393519,-1.5962637106524866,-3.142919127141134
-0.8221967856036585,-2.5176385084735315,-1.4401939550982874,-0.7134750525103968,-1.5962398687945765,-3.1429429689990442
-0.8221848646747034,-2.5176385084735315,-1.4401820341693323,-0.7134750525103968,-1.5962756315814417,-3.142931048070089
-0.8222087065326136,-2.5176504294024866,-1.4401701132403772,-0.7134392897235315,-1.5962637106524866,-3.1429551283465784
-0.8221848646747034,-2.5176027456866663,-1.4401701132403772,-0.7134631315814417,-1.5962637106524866,-3.1429665724383753
-0.8222206274615687,-2.5176385084735315,-1.4401701132403772,-0.7134512106524866,-1.5962517897235315,-3.1429551283465784
-0.8221729437457483,-2.5176504294024866,-1.4401820341693323,-0.713510815297262,-1.5962279478656214,-3.1429429689990442
-0.8222087065326136,-2.5176504294024866,-1.4401939550982874,-0.7134869734393519,-1.5962517897235315,-3.142931048070089
-0.8221848646747034,-2.5176385084735315,-1.4401701132403772,-0.7134750525103968,-1.5962398687945765,-3.142919127141134
-0.8222325483905237,-2.5176265875445765,-1.4402058760272425,-0.7134750525103968,-1.5962398687945765,-3.142931048070089
-0.8221848646747034,-2.5176623503314417,-1.4401581923114222,-0.7134512106524866,-1.5962041060077112,-3.142931048070089
-0.8221967856036585,-2.517686192189352,-1.4401701132403772,-0.7134988943683069,-1.5962279478656214,-3.142931048070089
-0.8221967856036585,-2.5176265875445765,-1.4401581923114222,-0.7134988943683069,-1.5962398687945765,-3.1429069677936
-0.8221967856036585,-2.5176265875445765,-1.4401581923114222,-0.7134512106524866,-1.5962279478656214,-3.142919127141134
-0.8222206274615687,-2.5176504294024866,-1.440134350453512,-0.7134512106524866,-1.5962637106524866,-3.1429906527148646
-0.8222087065326136,-2.517686192189352,-1.4401820341693323,-0.7134512106524866,-1.5962756315814417,-3.142895046864645
-0.8222087065326136,-2.5176385084735315,-1.4402058760272425,-0.7134631315814417,-1.5962398687945765,-3.1429551283465784
-0.8222087065326136,-2.5176265875445765,-1.4402058760272425,-0.7134750525103968,-1.5962517897235315,-3.142931048070089
-0.8222087065326136,-2.5176146666156214,-1.4401820341693323,-0.7134750525103968,-1.5962279478656214,-3.142931048070089
-0.8221729437457483,-2.5176146666156214,-1.4402177969561976,-0.7134631315814417,-1.5962517897235315,-3.1429069677936
-0.8221848646747034,-2.5176385084735315,-1.4401701132403772,-0.7134512106524866,-1.5962398687945765,-3.142919127141134
-0.8222206274615687,-2.5176265875445765,-1.4401939550982874,-0.7134750525103968,-1.5962517897235315,-3.1429551283465784
-0.8221729437457483,-2.5176385084735315,-1.4402297178851526,-0.7134988943683069,-1.5962279478656214,-3.142931048070089
-0.8222087065326136,-2.5176265875445765,-1.4402177969561976,-0.7134869734393519,-1.5962517897235315,-3.142931048070089
-0.8221967856036585,-2.5176265875445765,-1.4401939550982874,-0.7134869734393519,-1.5962398687945765,-3.1429665724383753
-0.8221967856036585,-2.5176265875445765,-1.4401701132403772,-0.7134631315814417,-1.5962637106524866,-3.1429551283465784
-0.8221848646747034,-2.5176265875445765,-1.4401820341693323,-0.7134988943683069,-1.5962517897235315,-3.142931048070089
-0.8222087065326136,-2.5176385084735315,-1.4401701132403772,-0.7134750525103968,-1.5962398687945765,-3.142931048070089
-0.8222087065326136,-2.5176504294024866,-1.4401939550982874,-0.713510815297262,-1.5962398687945765,-3.142895046864645
-0.8221967856036585,-2.5176385084735315,-1.4401701132403772,-0.7134750525103968,-1.5962517897235315,-3.142931048070089
-0.8221848646747034,-2.5176623503314417,-1.4401581923114222,-0.7134631315814417,-1.5962756315814417,-3.1429429689990442
-0.8221729437457483,-2.5176385084735315,-1.4401939550982874,-0.7134512106524866,-1.5962517897235315,-3.1429429689990442
-0.8221848646747034,-2.5176385084735315,-1.4402058760272425,-0.7134392897235315,-1.5962637106524866,-3.1429906527148646
-0.8221967856036585,-2.5176504294024866,-1.4402177969561976,-0.7134750525103968,-1.5962279478656214,-3.1429429689990442
-0.8221848646747034,-2.5176504294024866,-1.4401939550982874,-0.7134512106524866,-1.5962756315814417,-3.142895046864645
-0.8222087065326136,-2.5176504294024866,-1.4401701132403772,-0.7134988943683069,-1.5962279478656214,-3.1429429689990442
-0.8222325483905237,-2.5176504294024866,-1.4401939550982874,-0.7134750525103968,-1.5962637106524866,-3.142919127141134
-0.8222087065326136,-2.5176265875445765,-1.4401820341693323,-0.7134750525103968,-1.5962517897235315,-3.142931048070089
-0.8222206274615687,-2.5176385084735315,-1.4401820341693323,-0.7134631315814417,-1.5962279478656214,-3.1429551283465784
-0.8222087065326136,-2.5176504294024866,-1.4401939550982874,-0.7134750525103968,-1.5962041060077112,-3.1429429689990442
-0.8221848646747034,-2.5176265875445765,-1.4401939550982874,-0.7134392897235315,-1.5962637106524866,-3.142931048070089
-0.8222087065326136,-2.5176385084735315,-1.4401939550982874,-0.7134631315814417,-1.5962637106524866,-3.142919127141134
-0.8222087065326136,-2.5176385084735315,-1.4401701132403772,-0.7134631315814417,-1.5962398687945765,-3.142919127141134
-0.8222087065326136,-2.5176146666156214,-1.4401820341693323,-0.7134750525103968,-1.5962517897235315,-3.142931048070089
-0.8221967856036585,-2.5176146666156214,-1.4402297178851526,-0.7134988943683069,-1.5962756315814417,-3.1429429689990442
-0.8221848646747034,-2.5176385084735315,-1.4401820341693323,-0.7134750525103968,-1.5962398687945765,-3.1429069677936
-0.8221967856036585,-2.5176504294024866,-1.4402177969561976,-0.7134988943683069,-1.5962279478656214,-3.1429429689990442
-0.8221848646747034,-2.5176623503314417,-1.4401939550982874,-0.7134750525103968,-1.5962279478656214,-3.142919127141134
-0.8221605459796351,-2.5176623503314417,-1.4402177969561976,-0.7134750525103968,-1.5962756315814417,-3.142931048070089
-0.8222087065326136,-2.5176504294024866,-1.4402177969561976,-0.7134750525103968,-1.5962160269366663,-3.1429429689990442
-0.8221967856036585,-2.5176146666156214,-1.4402177969561976,-0.7134631315814417,-1.5962398687945765,-3.142919127141134
-0.8221848646747034,-2.5176385084735315,-1.4401939550982874,-0.7134869734393519,-1.5962398687945765,-3.1429429689990442
-0.8221967856036585,-2.5176146666156214,-1.4401939550982874,-0.7134988943683069,-1.5962756315814417,-3.142895046864645
-0.8221605459796351,-2.5176385084735315,-1.4401939550982874,-0.7134750525103968,-1.5962756315814417,-3.142895046864645
-0.8221729437457483,-2.5176385084735315,-1.4402058760272425,-0.7134750525103968,-1.5962517897235315,-3.142919127141134
-0.8222087065326136,-2.5176385084735315,-1.4402177969561976,-0.7134512106524866,-1.5962756315814417,-3.142919127141134
-0.8222087065326136,-2.5176265875445765,-1.4401820341693323,-0.7134869734393519,-1.5962875525103968,-3.142931048070089
-0.8222206274615687,-2.5176385084735315,-1.4401939550982874,-0.7134988943683069,-1.5962398687945765,-3.1429429689990442
-0.8222325483905237,-2.5176385084735315,-1.4402177969561976,-0.7134631315814417,-1.5962637106524866,-3.142931048070089
-0.8221967856036585,-2.5176385084735315,-1.4402177969561976,-0.7134268919574183,-1.5962279478656214,-3.142931048070089
-0.8222087065326136,-2.5176265875445765,-1.4401581923114222,-0.713510815297262,-1.5962398687945765,-3.142919127141134
-0.8221967856036585,-2.5176385084735315,-1.4402058760272425,-0.7134631315814417,-1.5962637106524866,-3.142919127141134
-0.8222325483905237,-2.5176504294024866,-1.4401820341693323,-0.7134750525103968,-1.5962637106524866,-3.1429551283465784
-0.8221848646747034,-2.5176265875445765,-1.4401820341693323,-0.7134988943683069,-1.5962279478656214,-3.1429429689990442
-0.8221848646747034,-2.5176265875445765,-1.4402058760272425,-0.7134750525103968,-1.5962398687945765,-3.1429551283465784
-0.8221967856036585,-2.5176623503314417,-1.4401820341693323,-0.7134869734393519,-1.5962279478656214,-3.1429665724383753
-0.8222206274615687,-2.5176146666156214,-1.4402177969561976,-0.7134750525103968,-1.5962637106524866,-3.1429551283465784
-0.8222087065326136,-2.5176623503314417,-1.4401939550982874,-0.7134750525103968,-1.5962398687945765,-3.142931048070089
-0.8222206274615687,-2.5176385084735315,-1.4401701132403772,-0.7134631315814417,-1.5962756315814417,-3.142931048070089
-0.8221967856036585,-2.5176504294024866,-1.4402058760272425,-0.7134750525103968,-1.5962398687945765,-3.1429551283465784
-0.8221967856036585,-2.5176265875445765,-1.440134350453512,-0.7134392897235315,-1.5962041060077112,-3.1429551283465784
-0.8221967856036585,-2.517674271260397,-1.4401701132403772,-0.7134512106524866,-1.5962637106524866,-3.142931048070089
-0.8221605459796351,-2.5176265875445765,-1.4401939550982874,-0.7134631315814417,-1.5962398687945765,-3.142931048070089
-0.8222325483905237,-2.5176385084735315,-1.4401701132403772,-0.7134512106524866,-1.5962041060077112,-3.1429429689990442
-0.8221967856036585,-2.5176623503314417,-1.4401939550982874,-0.7134631315814417,-1.5962756315814417,-3.1429069677936
-0.8221848646747034,-2.5176265875445765,-1.4401820341693323,-0.7134631315814417,-1.5962398687945765,-3.142931048070089
-0.8222087065326136,-2.5176504294024866,-1.4401701132403772,-0.7134512106524866,-1.5962398687945765,-3.142895046864645
-0.8221967856036585,-2.5176265875445765,-1.4402058760272425,-0.7134512106524866,-1.5962398687945765,-3.142931048070089
-0.8221848646747034,-2.5176265875445765,-1.4402177969561976,-0.7134750525103968,-1.5962637106524866,-3.142919127141134
-0.8222087065326136,-2.5176385084735315,-1.4402177969561976,-0.7134631315814417,-1.5962637106524866,-3.1429551283465784
-0.8221967856036585,-2.5176146666156214,-1.4402058760272425,-0.7134631315814417,-1.5962637106524866,-3.142919127141134
-0.8221848646747034,-2.517674271260397,-1.4401701132403772,-0.7134512106524866,-1.5962398687945765,-3.1429551283465784
-0.8222206274615687,-2.5176265875445765,-1.4402058760272425,-0.7134392897235315,-1.5962279478656214,-3.1429665724383753
-0.8221967856036585,-2.5176504294024866,-1.4401581923114222,-0.7134512106524866,-1.5962398687945765,-3.142931048070089
-0.8221729437457483,-2.5176265875445765,-1.4401939550982874,-0.7134750525103968,-1.5962398687945765,-3.142931048070089
-0.8221967856036585,-2.5176146666156214,-1.4401820341693323,-0.7134869734393519,-1.5962517897235315,-3.142931048070089
-0.8222087065326136,-2.5176265875445765,-1.4401701132403772,-0.7134988943683069,-1.5962637106524866,-3.1429551283465784
-0.8221848646747034,-2.5176504294024866,-1.4402058760272425,-0.7134631315814417,-1.5962875525103968,-3.1429429689990442
-0.8222206274615687,-2.5176265875445765,-1.4401939550982874,-0.7134631315814417,-1.5962756315814417,-3.142931048070089
-0.8222087065326136,-2.5176504294024866,-1.4401701132403772,-0.7134512106524866,-1.5962637106524866,-3.1429429689990442
-0.8221729437457483,-2.5176385084735315,-1.4401939550982874,-0.7134631315814417,-1.5962160269366663,-3.142895046864645
-0.8221967856036585,-2.5176504294024866,-1.4401939550982874,-0.7134750525103968,-1.5962517897235315,-3.1429429689990442
-0.8221729437457483,-2.5176385084735315,-1.4401939550982874,-0.7134750525103968,-1.5962756315814417,-3.1428831259356897
-0.8222206274615687,-2.5176504294024866,-1.4401939550982874,-0.7134512106524866,-1.5962637106524866,-3.1429429689990442
-0.8221967856036585,-2.5176265875445765,-1.4401701132403772,-0.7134988943683069,-1.5962398687945765,-3.1429429689990442
-0.8222206274615687,-2.5176385084735315,-1.4401820341693323,-0.7134869734393519,-1.5962517897235315,-3.142919127141134
-0.8222206274615687,-2.5176385084735315,-1.4402177969561976,-0.7134750525103968,-1.5962756315814417,-3.1429665724383753
-0.8222087065326136,-2.5176623503314417,-1.4401820341693323,-0.7134512106524866,-1.5962875525103968,-3.1429429689990442
-0.8221729437457483,-2.517674271260397,-1.4401701132403772,-0.7134631315814417,-1.5962756315814417,-3.1429551283465784
-0.8222087065326136,-2.5176146666156214,-1.4401939550982874,-0.7134750525103968,-1.5962517897235315,-3.142931048070089
-0.8222325483905237,-2.5176265875445765,-1.4402177969561976,-0.7134988943683069,-1.5962398687945765,-3.1429429689990442
-0.8222325483905237,-2.5176623503314417,-1.4402058760272425,-0.7134750525103968,-1.5962398687945765,-3.142919127141134
-0.8222325483905237,-2.5176385084735315,-1.4401701132403772,-0.7134869734393519,-1.5962756315814417,-3.142919127141134
-0.8221967856036585,-2.5176146666156214,-1.4401820341693323,-0.7134631315814417,-1.5962517897235315,-3.142919127141134
-0.8222206274615687,-2.5176265875445765,-1.4401701132403772,-0.7134631315814417,-1.5962517897235315,-3.1429429689990442
-0.8222325483905237,-2.5176504294024866,-1.4402058760272425,-0.7134512106524866,-1.5962637106524866,-3.1429429689990442
-0.8221967856036585,-2.5176385084735315,-1.4401820341693323,-0.7134512106524866,-1.5962160269366663,-3.142931048070089
-0.8221605459796351,-2.5176623503314417,-1.4401820341693323,-0.7134750525103968,-1.5962517897235315,-3.1429069677936
-0.8222444693194788,-2.5176265875445765,-1.4401820341693323,-0.7134750525103968,-1.5962517897235315,-3.142919127141134
-0.8222444693194788,-2.517590347920553,-1.440242115651266,-0.7134631315814417,-1.5962637106524866,-3.1429429689990442
-0.8221848646747034,-2.5176265875445765,-1.4401820341693323,-0.7134631315814417,-1.5962517897235315,-3.142931048070089
-0.8222087065326136,-2.517686192189352,-1.4401939550982874,-0.7134869734393519,-1.5962398687945765,-3.142919127141134
-0.8221848646747034,-2.5176385084735315,-1.4401581923114222,-0.7134988943683069,-1.5962756315814417,-3.1429551283465784
-0.8222206274615687,-2.5176504294024866,-1.4402058760272425,-0.7134631315814417,-1.5962398687945765,-3.1429429689990442
-0.8222206274615687,-2.5176265875445765,-1.4401820341693323,-0.7134750525103968,-1.5962279478656214,-3.1429069677936
-0.8221848646747034,-2.5176504294024866,-1.4401939550982874,-0.7134631315814417,-1.5962517897235315,-3.1429429689990442
-0.8221967856036585,-2.5176623503314417,-1.4401820341693323,-0.7134512106524866,-1.5962517897235315,-3.1429665724383753
-0.8221848646747034,-2.5176265875445765,-1.440242115651266,-0.7134988943683069,-1.5962637106524866,-3.1429787317859095
-0.8222325483905237,-2.517590347920553,-1.4401820341693323,-0.7134392897235315,-1.5962517897235315,-3.1429429689990442
-0.8222087065326136,-2.5176146666156214,-1.4401939550982874,-0.7134869734393519,-1.5962517897235315,-3.142895046864645
-0.8222206274615687,-2.5176504294024866,-1.4401939550982874,-0.7134512106524866,-1.5962398687945765,-3.142931048070089
-0.8222206274615687,-2.5176385084735315,-1.4401701132403772,-0.7134988943683069,-1.5962398687945765,-3.1429069677936
-0.8221848646747034,-2.5176027456866663,-1.4401820341693323,-0.7134392897235315,-1.5962756315814417,-3.1429429689990442
-0.8222206274615687,-2.5176265875445765,-1.4401820341693323,-0.7134631315814417,-1.5962637106524866,-3.1429665724383753
-0.8222325483905237,-2.5176385084735315,-1.4401939550982874,-0.7134631315814417,-1.5962637106524866,-3.1429069677936
-0.8222325483905237,-2.5176385084735315,-1.4401581923114222,-0.7134631315814417,-1.5962398687945765,-3.1429551283465784
-0.8221729437457483,-2.5176385084735315,-1.4402177969561976,-0.7134512106524866,-1.5962279478656214,-3.1429429689990442
-0.8222325483905237,-2.5176385084735315,-1.440242115651266,-0.7134750525103968,-1.5962756315814417,-3.1429069677936
-0.8221848646747034,-2.5176385084735315,-1.4401939550982874,-0.7134750525103968,-1.5962517897235315,-3.142931048070089
-0.8221605459796351,-2.5176385084735315,-1.4401820341693323,-0.7134512106524866,-1.5962517897235315,-3.1429551283465784
-0.8222206274615687,-2.5176623503314417,-1.4401701132403772,-0.7134631315814417,-1.5962398687945765,-3.1429429689990442
-0.8221848646747034,-2.5176385084735315,-1.4401820341693323,-0.7134631315814417,-1.5962398687945765,-3.1429551283465784
-0.8222087065326136,-2.517674271260397,-1.4402177969561976,-0.7134750525103968,-1.5962637106524866,-3.1429787317859095
-0.8221848646747034,-2.5176146666156214,-1.4402177969561976,-0.7134750525103968,-1.5962279478656214,-3.142931048070089
-0.8221967856036585,-2.5176504294024866,-1.4401939550982874,-0.7134512106524866,-1.5962517897235315,-3.142931048070089
-0.8221967856036585,-2.5176385084735315,-1.440134350453512,-0.7134988943683069,-1.5962756315814417,-3.1429665724383753
-0.8221848646747034,-2.5176385084735315,-1.4402177969561976,-0.7134750525103968,-1.5962160269366663,-3.1429429689990442
-0.8222087065326136,-2.5176385084735315,-1.4401820341693323,-0.7134869734393519,-1.5962637106524866,-3.142919127141134
-0.8222087065326136,-2.5176265875445765,-1.4401939550982874,-0.7134631315814417,-1.5962637106524866,-3.1429665724383753
-0.8222325483905237,-2.5176265875445765,-1.4401939550982874,-0.7134512106524866,-1.5962398687945765,-3.142919127141134
-0.8221967856036585,-2.5176385084735315,-1.4401939550982874,-0.7134631315814417,-1.5962637106524866,-3.142931048070089
-0.8222087065326136,-2.5176504294024866,-1.4401820341693323,-0.7134750525103968,-1.5962637106524866,-3.1429429689990442
-0.8222444693194788,-2.5176265875445765,-1.4401457945453089,-0.7134750525103968,-1.5962637106524866,-3.1429551283465784
-0.8222563902484339,-2.5176504294024866,-1.4402058760272425,-0.7134750525103968,-1.5962517897235315,-3.1429665724383753
-0.8222325483905237,-2.5176504294024866,-1.4402058760272425,-0.7134750525103968,-1.5962398687945765,-3.142919127141134
-0.8222325483905237,-2.5176265875445765,-1.4401820341693323,-0.7134869734393519,-1.5962517897235315,-3.1429069677936
-0.8221967856036585,-2.5176385084735315,-1.4401820341693323,-0.7134750525103968,-1.5962398687945765,-3.1429551283465784
-0.8222206274615687,-2.5176265875445765,-1.4401939550982874,-0.7134392897235315,-1.5962517897235315,-3.142931048070089
-0.8222087065326136,-2.5176265875445765,-1.4402177969561976,-0.7134631315814417,-1.5962279478656214,-3.1429551283465784
-0.8222206274615687,-2.5176265875445765,-1.4401457945453089,-0.7134750525103968,-1.5962517897235315,-3.1429665724383753
-0.8221967856036585,-2.5176385084735315,-1.4402177969561976,-0.7134750525103968,-1.5962517897235315,-3.1429069677936
-0.8222087065326136,-2.5176265875445765,-1.4401939550982874,-0.7134750525103968,-1.5962517897235315,-3.142931048070089
-0.8221967856036585,-2.5176385084735315,-1.4401939550982874,-0.7134750525103968,-1.5962517897235315,-3.1429551283465784
-0.8222087065326136,-2.5176504294024866,-1.4401701132403772,-0.7134512106524866,-1.5962517897235315,-3.1429429689990442
-0.8221967856036585,-2.5176504294024866,-1.4401581923114222,-0.713510815297262,-1.5962279478656214,-3.142931048070089
-0.8221967856036585,-2.5176504294024866,-1.4401820341693323,-0.7134631315814417,-1.5962637106524866,-3.142931048070089
-0.8221848646747034,-2.5176623503314417,-1.4402058760272425,-0.7134631315814417,-1.5962160269366663,-3.1429665724383753
-0.8222087065326136,-2.5176504294024866,-1.440242115651266,-0.7134631315814417,-1.5962398687945765,-3.1429429689990442
-0.8222206274615687,-2.5176265875445765,-1.4401939550982874,-0.7134988943683069,-1.5962517897235315,-3.142931048070089
-0.8222087065326136,-2.5176385084735315,-1.4401457945453089,-0.7134988943683069,-1.5962517897235315,-3.142895046864645
-0.8221967856036585,-2.5176504294024866,-1.4401939550982874,-0.7134869734393519,-1.5962756315814417,-3.1429429689990442
-0.8222206274615687,-2.5176027456866663,-1.4401939550982874,-0.7134512106524866,-1.5962637106524866,-3.142919127141134
-0.8222087065326136,-2.5176385084735315,-1.4401939550982874,-0.7134631315814417,-1.5962517897235315,-3.142919127141134
-0.8222087065326136,-2.5176265875445765,-1.4401581923114222,-0.7134869734393519,-1.5962279478656214,-3.142919127141134
-0.8222206274615687,-2.5176623503314417,-1.4401701132403772,-0.7134631315814417,-1.5962756315814417,-3.142931048070089
-0.8221967856036585,-2.5176623503314417,-1.4402058760272425,-0.7134750525103968,-1.5962517897235315,-3.142919127141134
-0.8222206274615687,-2.5176385084735315,-1.4401939550982874,-0.7134750525103968,-1.5962517897235315,-3.1429429689990442
-0.8222206274615687,-2.5176265875445765,-1.4401820341693323,-0.7134631315814417,-1.5962637106524866,-3.142931048070089
-0.8222087065326136,-2.5176504294024866,-1.4402058760272425,-0.7134750525103968,-1.5962517897235315,-3.142931048070089
-0.8222206274615687,-2.5176385084735315,-1.4401939550982874,-0.7134750525103968,-1.5962398687945765,-3.1429551283465784
-0.8222087065326136,-2.5176146666156214,-1.4402058760272425,-0.7134512106524866,-1.5962517897235315,-3.1429429689990442
-0.8221967856036585,-2.5176265875445765,-1.4402177969561976,-0.7134750525103968,-1.5962517897235315,-3.142931048070089
-0.8222087065326136,-2.5176385084735315,-1.4401939550982874,-0.7134988943683069,-1.5962279478656214,-3.142931048070089
-0.8222087065326136,-2.5176146666156214,-1.4402058760272425,-0.7134512106524866,-1.5962637106524866,-3.142919127141134
-0.8222087065326136,-2.5176265875445765,-1.4402297178851526,-0.7134631315814417,-1.5962517897235315,-3.142919127141134
-0.8222087065326136,-2.5176146666156214,-1.4402177969561976,-0.7134750525103968,-1.5962398687945765,-3.1429429689990442
-0.8222325483905237,-2.5176504294024866,-1.4402177969561976,-0.7134869734393519,-1.5962637106524866,-3.1429906527148646
-0.8222087065326136,-2.5176265875445765,-1.4401939550982874,-0.7134631315814417,-1.5962637106524866,-3.1429665724383753
-0.8222087065326136,-2.5176504294024866,-1.4401820341693323,-0.7134988943683069,-1.5962637106524866,-3.142931048070089
-0.8222206274615687,-2.5176265875445765,-1.4401820341693323,-0.7134988943683069,-1.5962398687945765,-3.142919127141134
-0.8221729437457483,-2.5176504294024866,-1.4401701132403772,-0.7134988943683069,-1.5962398687945765,-3.1429429689990442
-0.8222206274615687,-2.5176504294024866,-1.4401820341693323,-0.7134750525103968,-1.5962517897235315,-3.1429429689990442
-0.8221967856036585,-2.5176385084735315,-1.4401939550982874,-0.7134512106524866,-1.5962756315814417,-3.1428831259356897
-0.8221967856036585,-2.5176265875445765,-1.4402177969561976,-0.7134988943683069,-1.5962756315814417,-3.1429429689990442
-0.8221729437457483,-2.5176385084735315,-1.4402058760272425,-0.7134750525103968,-1.5962756315814417,-3.1429429689990442
-0.8221848646747034,-2.5176265875445765,-1.4401701132403772,-0.7134988943683069,-1.5962756315814417,-3.142931048070089
-0.8222206274615687,-2.5176385084735315,-1.4402297178851526,-0.7134631315814417,-1.5962398687945765,-3.142931048070089
-0.8222325483905237,-2.5176385084735315,-1.4402058760272425,-0.7134869734393519,-1.5962517897235315,-3.1429551283465784
-0.8221967856036585,-2.5176027456866663,-1.4401701132403772,-0.7134750525103968,-1.5962279478656214,-3.142931048070089
-0.8222087065326136,-2.5176504294024866,-1.440242115651266,-0.7134392897235315,-1.5962756315814417,-3.142895046864645
-0.8221729437457483,-2.517698589955465,-1.4401701132403772,-0.7134750525103968,-1.5962756315814417,-3.1429429689990442
-0.8222087065326136,-2.5176265875445765,-1.4401820341693323,-0.7134512106524866,-1.5962398687945765,-3.1429429689990442
-0.8222087065326136,-2.5176385084735315,-1.4401939550982874,-0.7134631315814417,-1.5962756315814417,-3.1429665724383753
-0.8221848646747034,-2.5176504294024866,-1.4402177969561976,-0.7134750525103968,-1.5962517897235315,-3.1429429689990442
-0.8221848646747034,-2.5176504294024866,-1.4401939550982874,-0.7134869734393519,-1.5962398687945765,-3.1429551283465784
-0.8222087065326136,-2.5176385084735315,-1.4401939550982874,-0.7134631315814417,-1.5962637106524866,-3.142895046864645
-0.8221967856036585,-2.5176385084735315,-1.4401701132403772,-0.7134750525103968,-1.5962398687945765,-3.1429551283465784
-0.8221848646747034,-2.5176265875445765,-1.4402058760272425,-0.7134988943683069,-1.5962398687945765,-3.1429429689990442
-0.8222206274615687,-2.5176623503314417,-1.4401820341693323,-0.713510815297262,-1.5962517897235315,-3.142931048070089
-0.8221967856036585,-2.5176385084735315,-1.4401701132403772,-0.7134631315814417,-1.5962756315814417,-3.1429551283465784
-0.8222087065326136,-2.5176265875445765,-1.4401701132403772,-0.7134988943683069,-1.5962637106524866,-3.1429429689990442
-0.8221967856036585,-2.5176385084735315,-1.4401939550982874,-0.7134988943683069,-1.5962398687945765,-3.142931048070089
-0.8222087065326136,-2.5176265875445765,-1.4401581923114222,-0.7134869734393519,-1.5962279478656214,-3.1429551283465784
-0.8221848646747034,-2.5176265875445765,-1.4401939550982874,-0.7134750525103968,-1.5962517897235315,-3.142931048070089
-0.8221967856036585,-2.5176504294024866,-1.4401581923114222,-0.713510815297262,-1.5962517897235315,-3.1429429689990442
-0.8221848646747034,-2.5176146666156214,-1.4402177969561976,-0.7134750525103968,-1.5962875525103968,-3.1429429689990442
-0.8221967856036585,-2.5176385084735315,-1.4401820341693323,-0.7134512106524866,-1.5962398687945765,-3.142919127141134
-0.8222206274615687,-2.5176027456866663,-1.4401939550982874,-0.7134869734393519,-1.5962398687945765,-3.142919127141134
-0.8221848646747034,-2.5176265875445765,-1.4402297178851526,-0.7134512106524866,-1.5962398687945765,-3.1429429689990442
-0.8221967856036585,-2.5176265875445765,-1.4402058760272425,-0.7134988943683069,-1.5962637106524866,-3.1428831259356897
-0.8221967856036585,-2.5176265875445765,-1.4402177969561976,-0.7134631315814417,-1.5962398687945765,-3.1429551283465784
-0.8221605459796351,-2.5176504294024866,-1.4401701132403772,-0.7134869734393519,-1.5962517897235315,-3.1429551283465784
-0.8222206274615687,-2.5176385084735315,-1.4401701132403772,-0.7134512106524866,-1.5962637106524866,-3.1429429689990442
-0.8222206274615687,-2.5176265875445765,-1.4401457945453089,-0.7134750525103968,-1.5962160269366663,-3.1429429689990442
-0.8222325483905237,-2.5176385084735315,-1.440242115651266,-0.7134512106524866,-1.5962756315814417,-3.142931048070089
-0.8222325483905237,-2.517590347920553,-1.440254036580221,-0.7134869734393519,-1.5962398687945765,-3.1429429689990442
-0.8222206274615687,-2.517590347920553,-1.4402058760272425,-0.7134750525103968,-1.5962756315814417,-3.142931048070089
-0.8221848646747034,-2.5176146666156214,-1.4401939550982874,-0.7134750525103968,-1.5962398687945765,-3.1428831259356897
-0.8222206274615687,-2.5176385084735315,-1.4402058760272425,-0.7134869734393519,-1.5962279478656214,-3.142931048070089
-0.8222206274615687,-2.5176385084735315,-1.4402058760272425,-0.7134869734393519,-1.5962517897235315,-3.142919127141134
-0.8221967856036585,-2.5176385084735315,-1.4401701132403772,-0.7134869734393519,-1.5962279478656214,-3.1429551283465784
-0.8221967856036585,-2.5176504294024866,-1.4401939550982874,-0.7134869734393519,-1.5962279478656214,-3.142931048070089
-0.8222325483905237,-2.5176385084735315,-1.4401581923114222,-0.7134512106524866,-1.5962517897235315,-3.1429429689990442
-0.8221848646747034,-2.5176504294024866,-1.4402177969561976,-0.7134512106524866,-1.5962279478656214,-3.142931048070089
-0.8221848646747034,-2.5176027456866663,-1.4401701132403772,-0.7134869734393519,-1.5962517897235315,-3.142895046864645
-0.8221848646747034,-2.5176385084735315,-1.4401701132403772,-0.7134512106524866,-1.5962279478656214,-3.142931048070089
-0.8221848646747034,-2.5176385084735315,-1.4402177969561976,-0.7134750525103968,-1.5962637106524866,-3.1429551283465784
-0.8221967856036585,-2.5176265875445765,-1.4401939550982874,-0.7134631315814417,-1.5962637106524866,-3.1429429689990442
-0.8222325483905237,-2.5176385084735315,-1.4402177969561976,-0.7134988943683069,-1.5962517897235315,-3.1429429689990442
-0.8222206274615687,-2.5176385084735315,-1.4401820341693323,-0.7134750525103968,-1.5962398687945765,-3.142919127141134
-0.8222325483905237,-2.5176265875445765,-1.4401939550982874,-0.7134750525103968,-1.5962517897235315,-3.1429069677936
-0.8222206274615687,-2.5176265875445765,-1.4402058760272425,-0.7134869734393519,-1.5962875525103968,-3.142895046864645
-0.8222444693194788,-2.5176623503314417,-1.4402058760272425,-0.7135232130633753,-1.5962517897235315,-3.1429665724383753
-0.8221967856036585,-2.5176504294024866,-1.4401939550982874,-0.7134512106524866,-1.5962279478656214,-3.1429665724383753
-0.8222206274615687,-2.5176504294024866,-1.4401701132403772,-0.7134869734393519,-1.5962637106524866,-3.142919127141134
-0.8222206274615687,-2.5176385084735315,-1.4402058760272425,-0.7134512106524866,-1.5962637106524866,-3.142895046864645
-0.8222444693194788,-2.5176146666156214,-1.4401701132403772,-0.7134988943683069,-1.5962398687945765,-3.142919127141134
-0.8221848646747034,-2.5176265875445765,-1.4402177969561976,-0.7134750525103968,-1.5962637106524866,-3.142919127141134
-0.8221967856036585,-2.5176265875445765,-1.4401939550982874,-0.7134750525103968,-1.5962398687945765,-3.1429429689990442
-0.8222087065326136,-2.5176385084735315,-1.4402177969561976,-0.7134631315814417,-1.5962517897235315,-3.1429665724383753
-0.8221848646747034,-2.5176385084735315,-1.4401701132403772,-0.7134512106524866,-1.5962517897235315,-3.1429551283465784
-0.8222206274615687,-2.5176504294024866,-1.4401939550982874,-0.7134750525103968,-1.5962875525103968,-3.1429429689990442
-0.8221967856036585,-2.5176146666156214,-1.4402058760272425,-0.7134988943683069,-1.5962279478656214,-3.1429551283465784
-0.8221605459796351,-2.5176146666156214,-1.4401939550982874,-0.7134750525103968,-1.5962398687945765,-3.1429069677936
-0.8222087065326136,-2.5176385084735315,-1.4401939550982874,-0.7134512106524866,-1.5962756315814417,-3.1429429689990442
-0.8221967856036585,-2.5176027456866663,-1.440134350453512,-0.7134869734393519,-1.5962398687945765,-3.1429551283465784
-0.8222087065326136,-2.5176146666156214,-1.4401581923114222,-0.7134392897235315,-1.5962398687945765,-3.1429429689990442
-0.8222087065326136,-2.517674271260397,-1.4401820341693323,-0.7134750525103968,-1.5962517897235315,-3.1429429689990442
-0.8222325483905237,-2.5176385084735315,-1.4401939550982874,-0.7134750525103968,-1.5962160269366663,-3.142931048070089
-0.8222206274615687,-2.5176385084735315,-1.4401820341693323,-0.7134631315814417,-1.5962398687945765,-3.1429069677936
-0.8222087065326136,-2.5176385084735315,-1.4402058760272425,-0.7134750525103968,-1.5962398687945765,-3.142919127141134
-0.8221967856036585,-2.5176146666156214,-1.4402177969561976,-0.7134631315814417,-1.5962398687945765,-3.142931048070089
-0.8221967856036585,-2.5176504294024866,-1.4401820341693323,-0.7134750525103968,-1.5962756315814417,-3.142919127141134
-0.8222087065326136,-2.517674271260397,-1.4401820341693323,-0.7134988943683069,-1.5962517897235315,-3.1429551283465784
-0.8222087065326136,-2.5176146666156214,-1.4402058760272425,-0.7134988943683069,-1.5962517897235315,-3.142931048070089
-0.8222087065326136,-2.5176385084735315,-1.4401581923114222,-0.7134512106524866,-1.5962398687945765,-3.1429429689990442
-0.8222206274615687,-2.5176385084735315,-1.4401939550982874,-0.7134750525103968,-1.5962517897235315,-3.1429551283465784
-0.8222206274615687,-2.5176385084735315,-1.4401939550982874,-0.7134750525103968,-1.5962637106524866,-3.142919127141134
-0.8222087065326136,-2.5176027456866663,-1.4401939550982874,-0.7134392897235315,-1.5962756315814417,-3.1429429689990442
-0.8221967856036585,-2.5176265875445765,-1.4402177969561976,-0.7134750525103968,-1.5962398687945765,-3.142931048070089
-0.8222087065326136,-2.5176385084735315,-1.4402058760272425,-0.7134750525103968,-1.5962637106524866,-3.1429429689990442
-0.8221848646747034,-2.517674271260397,-1.4402058760272425,-0.7134988943683069,-1.5962398687945765,-3.142919127141134
-0.8221848646747034,-2.5176265875445765,-1.4401701132403772,-0.7134988943683069,-1.5962637106524866,-3.142931048070089
-0.8222206274615687,-2.5176385084735315,-1.4402177969561976,-0.7134750525103968,-1.5962398687945765,-3.1429429689990442
-0.8221729437457483,-2.5176504294024866,-1.4401820341693323,-0.7134392897235315,-1.5962517897235315,-3.1429429689990442
-0.8222444693194788,-2.5176385084735315,-1.4401820341693323,-0.7134631315814417,-1.5962517897235315,-3.1429665724383753
-0.8222087065326136,-2.5176385084735315,-1.4401820341693323,-0.7134750525103968,-1.5962279478656214,-3.1429906527148646
-0.8222087065326136,-2.5176265875445765,-1.4401939550982874,-0.7134631315814417,-1.5962517897235315,-3.142931048070089
-0.8222206274615687,-2.5176265875445765,-1.4402058760272425,-0.7134631315814417,-1.5962160269366663,-3.1429069677936
-0.8221967856036585,-2.5176385084735315,-1.4401701132403772,-0.7134392897235315,-1.5962637106524866,-3.1429551283465784
-0.8222206274615687,-2.5176146666156214,-1.4402058760272425,-0.7134750525103968,-1.5962398687945765,-3.142931048070089
-0.8222087065326136,-2.5176265875445765,-1.4402177969561976,-0.7134869734393519,-1.5962398687945765,-3.142931048070089
-0.8221848646747034,-2.5176146666156214,-1.4401701132403772,-0.7134988943683069,-1.5962398687945765,-3.142919127141134
-0.8221848646747034,-2.5176265875445765,-1.4401939550982874,-0.7134750525103968,-1.5962517897235315,-3.1429429689990442
-0.8222325483905237,-2.5176623503314417,-1.4402177969561976,-0.7134512106524866,-1.5962517897235315,-3.142931048070089
-0.8221729437457483,-2.5176504294024866,-1.4401939550982874,-0.7134512106524866,-1.5962398687945765,-3.142931048070089
-0.8221848646747034,-2.5176385084735315,-1.4402058760272425,-0.7134512106524866,-1.5962517897235315,-3.1429429689990442
-0.8221967856036585,-2.5176146666156214,-1.4401701132403772,-0.7134631315814417,-1.5962756315814417,-3.1429069677936
-0.8222206274615687,-2.5176504294024866,-1.4401820341693323,-0.7134750525103968,-1.5962160269366663,-3.142919127141134
-0.8222087065326136,-2.517674271260397,-1.4401820341693323,-0.7134869734393519,-1.5962517897235315,-3.142919127141134
-0.8221848646747034,-2.517674271260397,-1.4401939550982874,-0.7134392897235315,-1.5962637106524866,-3.142931048070089
-0.8221967856036585,-2.5176385084735315,-1.4401939550982874,-0.7134750525103968,-1.5962160269366663,-3.142919127141134
-0.8221967856036585,-2.5176385084735315,-1.4401581923114222,-0.7134631315814417,-1.5962160269366663,-3.142919127141134
-0.8222206274615687,-2.517590347920553,-1.4402177969561976,-0.7134512106524866,-1.5962279478656214,-3.1429551283465784
-0.8221967856036585,-2.5176504294024866,-1.4402058760272425,-0.7134750525103968,-1.5962398687945765,-3.1429665724383753
-0.8221967856036585,-2.5176504294024866,-1.4401939550982874,-0.7134869734393519,-1.5962279478656214,-3.1429429689990442
-0.8221848646747034,-2.5176385084735315,-1.4402058760272425,-0.7134869734393519,-1.5962517897235315,-3.1429429689990442
-0.8221967856036585,-2.5176265875445765,-1.4401939550982874,-0.7134631315814417,-1.5962756315814417,-3.1429069677936
-0.8222206274615687,-2.5176385084735315,-1.440134350453512,-0.7134869734393519,-1.5962637106524866,-3.1429429689990442
-0.8222206274615687,-2.5176504294024866,-1.4401820341693323,-0.7134750525103968,-1.5962517897235315,-3.142919127141134
-0.8222206274615687,-2.5176385084735315,-1.4402058760272425,-0.7134631315814417,-1.5962398687945765,-3.142931048070089
-0.8221967856036585,-2.5176265875445765,-1.4401939550982874,-0.7134869734393519,-1.5962637106524866,-3.1429429689990442
-0.8221729437457483,-2.5176265875445765,-1.4401820341693323,-0.7134631315814417,-1.5962398687945765,-3.142931048070089
-0.8222087065326136,-2.517674271260397,-1.4402297178851526,-0.7134750525103968,-1.5962160269366663,-3.142919127141134
-0.8221729437457483,-2.5176623503314417,-1.4402177969561976,-0.713510815297262,-1.5962637106524866,-3.142919127141134
-0.8221967856036585,-2.5176265875445765,-1.4401820341693323,-0.7134988943683069,-1.5962279478656214,-3.142919127141134
-0.8221729437457483,-2.5176265875445765,-1.4402177969561976,-0.7134750525103968,-1.5962279478656214,-3.1429551283465784
-0.8221729437457483,-2.517674271260397,-1.4401939550982874,-0.7134750525103968,-1.5962279478656214,-3.1429429689990442
-0.8221967856036585,-2.5176265875445765,-1.4401939550982874,-0.7134631315814417,-1.5962160269366663,-3.1429429689990442
-0.8221967856036585,-2.5176385084735315,-1.4402297178851526,-0.7134988943683069,-1.5962756315814417,-3.1429069677936
-0.8221729437457483,-2.5176504294024866,-1.4402177969561976,-0.7134988943683069,-1.5962279478656214,-3.1429429689990442
-0.8221848646747034,-2.5176027456866663,-1.4401939550982874,-0.7134869734393519,-1.5962517897235315,-3.142919127141134
-0.8221848646747034,-2.5176504294024866,-1.4401820341693323,-0.7134750525103968,-1.5962398687945765,-3.1429665724383753
-0.8222087065326136,-2.5176385084735315,-1.4401701132403772,-0.7134750525103968,-1.5962398687945765,-3.1429551283465784
-0.8221967856036585,-2.5176146666156214,-1.4402058760272425,-0.7134750525103968,-1.5962398687945765,-3.142919127141134
-0.8221848646747034,-2.5176385084735315,-1.4401939550982874,-0.7135232130633753,-1.5962517897235315,-3.1429665724383753
-0.8222206274615687,-2.5176623503314417,-1.4401820341693323,-0.7134631315814417,-1.5962279478656214,-3.142919127141134
-0.8221848646747034,-2.5176504294024866,-1.4401939550982874,-0.7134750525103968,-1.5962517897235315,-3.1429551283465784
-0.8221848646747034,-2.5176265875445765,-1.4401939550982874,-0.7134750525103968,-1.5962517897235315,-3.1429429689990442
-0.8222206274615687,-2.5176027456866663,-1.4402177969561976,-0.7134631315814417,-1.5962517897235315,-3.1429665724383753
-0.8221729437457483,-2.5176623503314417,-1.4402058760272425,-0.7134631315814417,-1.5962517897235315,-3.142919127141134
-0.8221967856036585,-2.5176265875445765,-1.4401581923114222,-0.7134750525103968,-1.5962756315814417,-3.1429429689990442
-0.8221848646747034,-2.5176265875445765,-1.4401939550982874,-0.7134631315814417,-1.5962279478656214,-3.1429787317859095
-0.8222087065326136,-2.5176027456866663,-1.4402297178851526,-0.7134750525103968,-1.5962637106524866,-3.1428831259356897
-0.8222206274615687,-2.5176265875445765,-1.4401820341693323,-0.7134750525103968,-1.5962279478656214,-3.142931048070089
-0.8221729437457483,-2.5176385084735315,-1.4401939550982874,-0.7134512106524866,-1.5962517897235315,-3.142919127141134
-0.8222206274615687,-2.5176385084735315,-1.4401701132403772,-0.7134750525103968,-1.5962398687945765,-3.1429551283465784
-0.8222206274615687,-2.5176623503314417,-1.4401939550982874,-0.7134988943683069,-1.5962637106524866,-3.1429787317859095
-0.8222087065326136,-2.5176265875445765,-1.4401581923114222,-0.7134750525103968,-1.5962279478656214,-3.142931048070089
-0.8221967856036585,-2.5176385084735315,-1.4401939550982874,-0.7134750525103968,-1.5962279478656214,-3.142919127141134
-0.8221848646747034,-2.5176265875445765,-1.4401701132403772,-0.7134392897235315,-1.5962517897235315,-3.1429429689990442
-0.8222206274615687,-2.5176265875445765,-1.4401701132403772,-0.7134750525103968,-1.5962517897235315,-3.1429665724383753
-0.8222206274615687,-2.5176623503314417,-1.4402058760272425,-0.7134988943683069,-1.5962517897235315,-3.142931048070089
-0.8222087065326136,-2.5176385084735315,-1.4402058760272425,-0.7134631315814417,-1.5962279478656214,-3.1429429689990442
-0.8222325483905237,-2.5176504294024866,-1.4401701132403772,-0.7134512106524866,-1.5962637106524866,-3.1429429689990442
-0.8222206274615687,-2.5176265875445765,-1.4402177969561976,-0.7134750525103968,-1.5962637106524866,-3.142931048070089
-0.8221729437457483,-2.5176385084735315,-1.4401457945453089,-0.7134750525103968,-1.5962517897235315,-3.142919127141134
-0.8221848646747034,-2.5176385084735315,-1.4402058760272425,-0.7134512106524866,-1.5962160269366663,-3.1429551283465784
-0.8222206274615687,-2.5176623503314417,-1.4401701132403772,-0.7134512106524866,-1.5962398687945765,-3.142931048070089
-0.8222325483905237,-2.5176027456866663,-1.4402058760272425,-0.7134512106524866,-1.5962398687945765,-3.1429551283465784
-0.8222206274615687,-2.5176385084735315,-1.4401701132403772,-0.7134988943683069,-1.5962160269366663,-3.1429429689990442
-0.8222444693194788,-2.5176504294024866,-1.4401581923114222,-0.7134512106524866,-1.5962398687945765,-3.142919127141134
-0.8221729437457483,-2.5176504294024866,-1.4401939550982874,-0.7134750525103968,-1.5962637106524866,-3.1429551283465784
-0.8222206274615687,-2.5176385084735315,-1.4402177969561976,-0.7134869734393519,-1.5962517897235315,-3.1429551283465784
-0.8222325483905237,-2.5176146666156214,-1.4401820341693323,-0.7134631315814417,-1.5962517897235315,-3.1429429689990442
-0.8221967856036585,-2.5176385084735315,-1.4402058760272425,-0.7134988943683069,-1.5962517897235315,-3.142931048070089
-0.8222206274615687,-2.5176265875445765,-1.4401701132403772,-0.7134988943683069,-1.5962756315814417,-3.142919127141134
-0.8222206274615687,-2.5176146666156214,-1.4401581923114222,-0.7134631315814417,-1.5962517897235315,-3.1429429689990442
-0.8221967856036585,-2.5176385084735315,-1.4402297178851526,-0.7134750525103968,-1.5962517897235315,-3.1429551283465784
-0.8222087065326136,-2.5176504294024866,-1.4401581923114222,-0.7134750525103968,-1.5962160269366663,-3.142919127141134
-0.8222206274615687,-2.5176385084735315,-1.4402058760272425,-0.7134750525103968,-1.5962517897235315,-3.142931048070089
-0.8222325483905237,-2.5176623503314417,-1.4402177969561976,-0.7134631315814417,-1.5962398687945765,-3.1429551283465784
-0.8221967856036585,-2.5176385084735315,-1.4401457945453089,-0.7134750525103968,-1.59629995027651,-3.1429429689990442
-0.8222444693194788,-2.5176623503314417,-1.4401701132403772,-0.7134869734393519,-1.5962756315814417,-3.142931048070089
-0.8222206274615687,-2.5176146666156214,-1.4401939550982874,-0.7134512106524866,-1.5962398687945765,-3.142919127141134
-0.8222206274615687,-2.5176265875445765,-1.4401701132403772,-0.7134512106524866,-1.5962279478656214,-3.142931048070089
-0.8221848646747034,-2.5176385084735315,-1.4401939550982874,-0.7134392897235315,-1.5962279478656214,-3.142919127141134
-0.8221729437457483,-2.5176623503314417,-1.4401939550982874,-0.7134631315814417,-1.5963118712054651,-3.1429069677936
-0.8221605459796351,-2.5176504294024866,-1.4401939550982874,-0.7134750525103968,-1.5962398687945765,-3.142895046864645
-0.8222087065326136,-2.5176504294024866,-1.4401939550982874,-0.7134750525103968,-1.5962398687945765,-3.1429429689990442
-0.8222087065326136,-2.5176623503314417,-1.4402058760272425,-0.713510815297262,-1.59629995027651,-3.1429665724383753
-0.8222325483905237,-2.5176146666156214,-1.4402177969561976,-0.7134750525103968,-1.5962756315814417,-3.1429429689990442
-0.8222325483905237,-2.5176146666156214,-1.4401820341693323,-0.7134750525103968,-1.5962398687945765,-3.1429069677936
-0.8222325483905237,-2.5176385084735315,-1.4402058760272425,-0.7134631315814417,-1.5962517897235315,-3.142919127141134
-0.8221967856036585,-2.5176265875445765,-1.4402058760272425,-0.7134512106524866,-1.5962279478656214,-3.142919127141134
-0.8222325483905237,-2.5176504294024866,-1.4402058760272425,-0.7134512106524866,-1.5962279478656214,-3.142931048070089
-0.8221967856036585,-2.5176265875445765,-1.4401939550982874,-0.7134631315814417,-1.5962875525103968,-3.1429429689990442
-0.8222206274615687,-2.5176146666156214,-1.4402177969561976,-0.7134631315814417,-1.5962756315814417,-3.1429665724383753
-0.8221967856036585,-2.5176027456866663,-1.4402058760272425,-0.7134631315814417,-1.5962756315814417,-3.142919127141134
-0.8222087065326136,-2.5176385084735315,-1.4402058760272425,-0.7134988943683069,-1.5962517897235315,-3.1429551283465784
-0.8221967856036585,-2.517674271260397,-1.4401939550982874,-0.7134750525103968,-1.5962398687945765,-3.1429551283465784
-0.8222206274615687,-2.5176623503314417,-1.4402177969561976,-0.7134750525103968,-1.5962398687945765,-3.1429069677936
-0.8222087065326136,-2.5176385084735315,-1.4402297178851526,-0.7134750525103968,-1.5962398687945765,-3.1429665724383753
-0.8221967856036585,-2.5176623503314417,-1.4401219526873987,-0.7134631315814417,-1.5962517897235315,-3.142919127141134
-0.8222206274615687,-2.5176265875445765,-1.4402177969561976,-0.7134869734393519,-1.5962398687945765,-3.1429429689990442
-0.8222444693194788,-2.5176385084735315,-1.4402177969561976,-0.7134750525103968,-1.5962279478656214,-3.1429069677936
-0.8221967856036585,-2.5176504294024866,-1.4401939550982874,-0.7134631315814417,-1.5962398687945765,-3.1429551283465784
-0.8221848646747034,-2.5176385084735315,-1.4401820341693323,-0.7134268919574183,-1.5962517897235315,-3.1429429689990442
-0.8222206274615687,-2.5176385084735315,-1.4401701132403772,-0.7134988943683069,-1.5962517897235315,-3.1429429689990442
-0.8221967856036585,-2.5176385084735315,-1.4402177969561976,-0.7134750525103968,-1.5962517897235315,-3.142931048070089
-0.8222087065326136,-2.5176385084735315,-1.4401820341693323,-0.7134988943683069,-1.5962637106524866,-3.1429429689990442
-0.8222087065326136,-2.5176504294024866,-1.4402297178851526,-0.7134750525103968,-1.5962398687945765,-3.1429069677936
-0.8221729437457483,-2.5176265875445765,-1.4401457945453089,-0.7134631315814417,-1.5962398687945765,-3.1429429689990442
-0.8221967856036585,-2.5176385084735315,-1.4401457945453089,-0.7134750525103968,-1.5962756315814417,-3.142919127141134
-0.8222087065326136,-2.5176265875445765,-1.4402058760272425,-0.7134869734393519,-1.5962279478656214,-3.142919127141134
-0.8222087065326136,-2.5176504294024866,-1.4401820341693323,-0.7134750525103968,-1.5962517897235315,-3.142919127141134
-0.8221967856036585,-2.5176146666156214,-1.4401701132403772,-0.7134988943683069,-1.5962160269366663,-3.1429429689990442
-0.8221967856036585,-2.5176027456866663,-1.440134350453512,-0.7134988943683069,-1.5962398687945765,-3.142919127141134
-0.8221729437457483,-2.5176504294024866,-1.4401820341693323,-0.7134988943683069,-1.5962517897235315,-3.1429069677936
-0.8222087065326136,-2.5176504294024866,-1.4401939550982874,-0.7134750525103968,-1.5962637106524866,-3.1429429689990442
-0.8221729437457483,-2.5176146666156214,-1.4402058760272425,-0.7134869734393519,-1.5962637106524866,-3.1429069677936
-0.8221729437457483,-2.5176385084735315,-1.4401939550982874,-0.7134750525103968,-1.5962398687945765,-3.1429429689990442
-0.8221967856036585,-2.5176385084735315,-1.4401939550982874,-0.713510815297262,-1.5962398687945765,-3.1429429689990442
-0.8222325483905237,-2.5176504294024866,-1.4401939550982874,-0.7134750525103968,-1.5962398687945765,-3.142931048070089
-0.8222087065326136,-2.5176265875445765,-1.4401581923114222,-0.7134869734393519,-1.5962637106524866,-3.1429429689990442
-0.8221967856036585,-2.5176385084735315,-1.4401820341693323,-0.7134631315814417,-1.5962517897235315,-3.142931048070089
-0.8221848646747034,-2.5176265875445765,-1.4402058760272425,-0.7134268919574183,-1.5962160269366663,-3.142919127141134
-0.8221729437457483,-2.5176385084735315,-1.4402058760272425,-0.7134512106524866,-1.5962517897235315,-3.142931048070089
-0.8221605459796351,-2.5176265875445765,-1.4401939550982874,-0.7134750525103968,-1.5962160269366663,-3.1429429689990442
-0.8221848646747034,-2.5176385084735315,-1.4401820341693323,-0.7134512106524866,-1.5962756315814417,-3.142919127141134
-0.8221848646747034,-2.5176385084735315,-1.4401701132403772,-0.7134631315814417,-1.5962398687945765,-3.142895046864645
-0.8222087065326136,-2.5176504294024866,-1.4401939550982874,-0.7134869734393519,-1.5962517897235315,-3.142931048070089
-0.8222325483905237,-2.5176504294024866,-1.4401820341693323,-0.7134869734393519,-1.5962637106524866,-3.1429429689990442
-0.8222087065326136,-2.5176385084735315,-1.4401701132403772,-0.7134988943683069,-1.5962517897235315,-3.1429551283465784
-0.8222087065326136,-2.5176504294024866,-1.4402177969561976,-0.7134750525103968,-1.5962279478656214,-3.142919127141134
-0.8222087065326136,-2.5176265875445765,-1.4402058760272425,-0.7134750525103968,-1.5962398687945765,-3.142919127141134
-0.8222206274615687,-2.5176265875445765,-1.4401701132403772,-0.7134512106524866,-1.5962279478656214,-3.1429429689990442
-0.8222206274615687,-2.5176385084735315,-1.4401939550982874,-0.7134631315814417,-1.5962756315814417,-3.1429429689990442
-0.8221967856036585,-2.5176265875445765,-1.4401939550982874,-0.7134392897235315,-1.5962756315814417,-3.1429665724383753
-0.8222206274615687,-2.5176265875445765,-1.4401939550982874,-0.7134750525103968,-1.5962517897235315,-3.1429551283465784
-0.8221848646747034,-2.5176504294024866,-1.4402177969561976,-0.7134392897235315,-1.5962517897235315,-3.142931048070089
-0.8222087065326136,-2.5176385084735315,-1.4401939550982874,-0.7134750525103968,-1.5962756315814417,-3.142931048070089
-0.8221967856036585,-2.5176623503314417,-1.4401939550982874,-0.7134750525103968,-1.5962398687945765,-3.142895046864645
-0.8221967856036585,-2.5176385084735315,-1.4401939550982874,-0.7134631315814417,-1.5962398687945765,-3.1429665724383753
-0.8221967856036585,-2.5176385084735315,-1.4401701132403772,-0.7134750525103968,-1.5962756315814417,-3.1429069677936
-0.8222325483905237,-2.517674271260397,-1.4401820341693323,-0.7134750525103968,-1.5962637106524866,-3.1429551283465784
-0.8222087065326136,-2.5176504294024866,-1.4401939550982874,-0.7134750525103968,-1.5962160269366663,-3.1429069677936
-0.8222444693194788,-2.5176385084735315,-1.4402058760272425,-0.7134631315814417,-1.5962756315814417,-3.1429429689990442
-0.8221967856036585,-2.5176385084735315,-1.4402177969561976,-0.7134988943683069,-1.5962517897235315,-3.142931048070089
-0.8221729437457483,-2.5176504294024866,-1.4401820341693323,-0.7134750525103968,-1.5962517897235315,-3.142931048070089
-0.8222444693194788,-2.5176027456866663,-1.4401820341693323,-0.7134750525103968,-1.5962398687945765,-3.1429551283465784
-0.8222087065326136,-2.5176504294024866,-1.4401581923114222,-0.7134631315814417,-1.5962279478656214,-3.1429069677936
-0.8221967856036585,-2.5176504294024866,-1.440134350453512,-0.7134869734393519,-1.5962160269366663,-3.1429069677936
-0.8221967856036585,-2.5176385084735315,-1.4401939550982874,-0.7134869734393519,-1.5962637106524866,-3.1429551283465784
-0.8222206274615687,-2.5176385084735315,-1.4402058760272425,-0.7134512106524866,-1.5962398687945765,-3.1428831259356897
-0.8221848646747034,-2.517686192189352,-1.4401701132403772,-0.7134512106524866,-1.5962517897235315,-3.1429429689990442
-0.8221848646747034,-2.5176504294024866,-1.440242115651266,-0.7134631315814417,-1.5962875525103968,-3.142919127141134
-0.8222087065326136,-2.5176385084735315,-1.4402058760272425,-0.7134869734393519,-1.5962517897235315,-3.142931048070089
-0.8222206274615687,-2.5176265875445765,-1.4402177969561976,-0.7134750525103968,-1.5962398687945765,-3.1429787317859095
-0.8221967856036585,-2.5176385084735315,-1.4402177969561976,-0.7134750525103968,-1.5962517897235315,-3.142931048070089
-0.8222206274615687,-2.5176385084735315,-1.4401820341693323,-0.7134869734393519,-1.5962756315814417,-3.142931048070089
-0.8222206274615687,-2.5176623503314417,-1.4401701132403772,-0.7134988943683069,-1.5962398687945765,-3.1429429689990442
-0.8221967856036585,-2.5176265875445765,-1.4402177969561976,-0.7134750525103968,-1.5962756315814417,-3.142919127141134
-0.8221967856036585,-2.5176504294024866,-1.4402058760272425,-0.7134750525103968,-1.5962398687945765,-3.1429429689990442
-0.8222087065326136,-2.5176146666156214,-1.4401701132403772,-0.7134750525103968,-1.5962279478656214,-3.1429551283465784
-0.8222325483905237,-2.5176385084735315,-1.4402177969561976,-0.7134869734393519,-1.5962398687945765,-3.1429551283465784
-0.82214862505068,-2.5176504294024866,-1.4402058760272425,-0.7134750525103968,-1.5962517897235315,-3.142895046864645
-0.8222325483905237,-2.5176385084735315,-1.4401701132403772,-0.7134512106524866,-1.5962637106524866,-3.1429069677936
-0.8222087065326136,-2.5176027456866663,-1.4402058760272425,-0.7134512106524866,-1.5962517897235315,-3.1429551283465784
-0.8222087065326136,-2.5176504294024866,-1.4402297178851526,-0.7134750525103968,-1.5962398687945765,-3.142931048070089
-0.8222087065326136,-2.5176504294024866,-1.4401820341693323,-0.7134869734393519,-1.5962517897235315,-3.142931048070089
-0.8221848646747034,-2.5176385084735315,-1.4401820341693323,-0.7134988943683069,-1.5962517897235315,-3.142931048070089
-0.8221848646747034,-2.5176504294024866,-1.4402058760272425,-0.7134750525103968,-1.5962279478656214,-3.1429429689990442
-0.8222444693194788,-2.5176265875445765,-1.4401939550982874,-0.7134512106524866,-1.5962756315814417,-3.1429551283465784
-0.8221967856036585,-2.5176385084735315,-1.4401939550982874,-0.7134869734393519,-1.5962517897235315,-3.142931048070089
-0.8222087065326136,-2.5176385084735315,-1.4401939550982874,-0.7134750525103968,-1.5962756315814417,-3.142931048070089
-0.8221729437457483,-2.5176623503314417,-1.4402297178851526,-0.7134869734393519,-1.5962756315814417,-3.1429665724383753
-0.8222444693194788,-2.5176623503314417,-1.4401939550982874,-0.7134869734393519,-1.5962398687945765,-3.1429551283465784
-0.8222087065326136,-2.5176146666156214,-1.4401820341693323,-0.7134750525103968,-1.5962398687945765,-3.1429429689990442
-0.8222206274615687,-2.5176146666156214,-1.4402058760272425,-0.7134631315814417,-1.5962160269366663,-3.142931048070089
-0.8222206274615687,-2.5176146666156214,-1.4401820341693323,-0.7134512106524866,-1.5962398687945765,-3.142931048070089
-0.8222087065326136,-2.5176623503314417,-1.4401939550982874,-0.7134512106524866,-1.5962279478656214,-3.1429665724383753
-0.8222206274615687,-2.5176265875445765,-1.4401820341693323,-0.7134750525103968,-1.5962517897235315,-3.1429665724383753
-0.8222087065326136,-2.5176146666156214,-1.4401939550982874,-0.7134750525103968,-1.5962279478656214,-3.142931048070089
-0.8222206274615687,-2.5176265875445765,-1.4401939550982874,-0.7134512106524866,-1.5962279478656214,-3.1429551283465784
-0.8222087065326136,-2.5176385084735315,-1.4402058760272425,-0.7134750525103968,-1.5962279478656214,-3.1429069677936
-0.8221967856036585,-2.5176504294024866,-1.4401820341693323,-0.7134631315814417,-1.5962517897235315,-3.142919127141134
-0.8221729437457483,-2.5176265875445765,-1.4402058760272425,-0.7134869734393519,-1.5962517897235315,-3.1429551283465784
-0.8221967856036585,-2.5176265875445765,-1.4402058760272425,-0.7134750525103968,-1.5962637106524866,-3.142919127141134
-0.8222087065326136,-2.5176504294024866,-1.4401939550982874,-0.7134512106524866,-1.5962756315814417,-3.1429665724383753
-0.8222325483905237,-2.5176146666156214,-1.4401701132403772,-0.7134988943683069,-1.5962279478656214,-3.142931048070089
-0.8222087065326136,-2.5176504294024866,-1.4401820341693323,-0.7134750525103968,-1.5962160269366663,-3.142931048070089
-0.8221605459796351,-2.5176265875445765,-1.4402177969561976,-0.7134512106524866,-1.5962041060077112,-3.142919127141134
-0.8221848646747034,-2.5176146666156214,-1.4401820341693323,-0.7134392897235315,-1.5962517897235315,-3.142931048070089
-0.8221967856036585,-2.5176385084735315,-1.4401701132403772,-0.7134750525103968,-1.5962398687945765,-3.142931048070089
-0.8221848646747034,-2.5176146666156214,-1.4402177969561976,-0.7134750525103968,-1.5962517897235315,-3.1429665724383753
-0.8221967856036585,-2.5176385084735315,-1.4402058760272425,-0.7134392897235315,-1.5962398687945765,-3.142931048070089
-0.8221967856036585,-2.5176265875445765,-1.4401939550982874,-0.713510815297262,-1.5962398687945765,-3.142919127141134
-0.8222206274615687,-2.5176146666156214,-1.4401939550982874,-0.7134631315814417,-1.5962398687945765,-3.1429069677936
-0.8221967856036585,-2.5176385084735315,-1.4402058760272425,-0.7134750525103968,-1.5962517897235315,-3.142895046864645
-0.8221848646747034,-2.5176265875445765,-1.4401820341693323,-0.7134988943683069,-1.5962637106524866,-3.142919127141134
-0.8221967856036585,-2.5176265875445765,-1.4402058760272425,-0.7134750525103968,-1.5962517897235315,-3.1429429689990442
-0.8222206274615687,-2.5176265875445765,-1.4401820341693323,-0.7134750525103968,-1.5962517897235315,-3.142919127141134
-0.8222087065326136,-2.5176504294024866,-1.4401939550982874,-0.7134988943683069,-1.5962398687945765,-3.1429429689990442
-0.8221967856036585,-2.5176504294024866,-1.4401581923114222,-0.7134512106524866,-1.5962637106524866,-3.142919127141134
-0.8221605459796351,-2.5176623503314417,-1.4401581923114222,-0.7134631315814417,-1.5962279478656214,-3.1429429689990442
-0.8221967856036585,-2.5176385084735315,-1.4401820341693323,-0.7134750525103968,-1.5962637106524866,-3.142931048070089
-0.8221848646747034,-2.5176146666156214,-1.4401939550982874,-0.7134631315814417,-1.5962756315814417,-3.1429551283465784
-0.8221848646747034,-2.5176385084735315,-1.4401457945453089,-0.7134750525103968,-1.5962517897235315,-3.1429069677936
-0.8222325483905237,-2.5176385084735315,-1.4401581923114222,-0.7134631315814417,-1.5962398687945765,-3.1429551283465784
-0.8222087065326136,-2.5176385084735315,-1.4401939550982874,-0.7134869734393519,-1.5962398687945765,-3.142919127141134
-0.8221967856036585,-2.5176265875445765,-1.4401939550982874,-0.7134631315814417,-1.5962398687945765,-3.142919127141134
-0.8222087065326136,-2.5176265875445765,-1.4401581923114222,-0.7134149710284632,-1.5962041060077112,-3.142919127141134
-0.8222087065326136,-2.5176265875445765,-1.4401939550982874,-0.7134750525103968,-1.5962637106524866,-3.1429551283465784
-0.8221848646747034,-2.5176146666156214,-1.4401939550982874,-0.7134750525103968,-1.5962398687945765,-3.1429069677936
-0.8222087065326136,-2.5176504294024866,-1.4402177969561976,-0.7134750525103968,-1.5962398687945765,-3.1429069677936
-0.8221729437457483,-2.5176385084735315,-1.4401701132403772,-0.7134512106524866,-1.5962398687945765,-3.142895046864645
-0.8222325483905237,-2.517590347920553,-1.4402058760272425,-0.7134988943683069,-1.5962398687945765,-3.142919127141134
-0.8222087065326136,-2.5176385084735315,-1.4401701132403772,-0.7134512106524866,-1.5962517897235315,-3.1429069677936
-0.8222206274615687,-2.5176504294024866,-1.4401939550982874,-0.7134512106524866,-1.5962517897235315,-3.142931048070089
-0.8222206274615687,-2.5176385084735315,-1.4401820341693323,-0.7134631315814417,-1.5962756315814417,-3.1429787317859095
-0.8221848646747034,-2.5176146666156214,-1.4401581923114222,-0.7134750525103968,-1.5962517897235315,-3.142931048070089
-0.8221848646747034,-2.5176623503314417,-1.4402177969561976,-0.713510815297262,-1.5962756315814417,-3.1429787317859095
-0.8222325483905237,-2.5176146666156214,-1.4401820341693323,-0.7134512106524866,-1.5962756315814417,-3.1429429689990442
-0.8221848646747034,-2.5176265875445765,-1.4402297178851526,-0.7134631315814417,-1.5962398687945765,-3.142931048070089
-0.8221967856036585,-2.5176623503314417,-1.4401457945453089,-0.7134512106524866,-1.5962398687945765,-3.1429551283465784
-0.8222087065326136,-2.5176385084735315,-1.4402177969561976,-0.7134512106524866,-1.5962756315814417,-3.1429551283465784
-0.8221967856036585,-2.5176265875445765,-1.4401701132403772,-0.7134750525103968,-1.5962279478656214,-3.142931048070089
-0.8222444693194788,-2.5176146666156214,-1.4402058760272425,-0.7134750525103968,-1.5962041060077112,-3.142931048070089
-0.8222087065326136,-2.5176385084735315,-1.4401457945453089,-0.7134750525103968,-1.5962398687945765,-3.142931048070089
-0.8222444693194788,-2.5176385084735315,-1.4401820341693323,-0.7134750525103968,-1.5962279478656214,-3.1429551283465784
-0.8222206274615687,-2.5176504294024866,-1.4401939550982874,-0.7134750525103968,-1.59629995027651,-3.142931048070089
-0.8222206274615687,-2.517674271260397,-1.4402177969561976,-0.7134988943683069,-1.5962160269366663,-3.142919127141134
-0.8222444693194788,-2.5176265875445765,-1.4401820341693323,-0.7134988943683069,-1.5962160269366663,-3.1429429689990442
-0.8222087065326136,-2.5176385084735315,-1.4402058760272425,-0.7134512106524866,-1.5962398687945765,-3.142931048070089
-0.8222325483905237,-2.5176504294024866,-1.4401939550982874,-0.7134750525103968,-1.5962398687945765,-3.1429551283465784
-0.8222206274615687,-2.5176623503314417,-1.4401701132403772,-0.7134750525103968,-1.5962160269366663,-3.142931048070089
-0.8221967856036585,-2.5176027456866663,-1.4401820341693323,-0.7134631315814417,-1.5962279478656214,-3.1429429689990442
-0.8221967856036585,-2.5176265875445765,-1.4401701132403772,-0.7134750525103968,-1.5962398687945765,-3.142919127141134
-0.8221848646747034,-2.5176385084735315,-1.4401939550982874,-0.7134750525103968,-1.5962637106524866,-3.1429787317859095
-0.8222087065326136,-2.5176623503314417,-1.4401820341693323,-0.7134750525103968,-1.5962637106524866,-3.142931048070089
-0.8221967856036585,-2.5176504294024866,-1.4402177969561976,-0.7134869734393519,-1.5962279478656214,-3.142931048070089
-0.8221848646747034,-2.5176265875445765,-1.4401820341693323,-0.7134512106524866,-1.5962398687945765,-3.1429551283465784
-0.8221729437457483,-2.5176504294024866,-1.4401820341693323,-0.7134750525103968,-1.5962517897235315,-3.1429429689990442
-0.8221967856036585,-2.5176504294024866,-1.4401820341693323,-0.7134631315814417,-1.5962756315814417,-3.142931048070089
-0.8221967856036585,-2.5176385084735315,-1.4401457945453089,-0.7134512106524866,-1.5962398687945765,-3.1429069677936
-0.8221967856036585,-2.5176385084735315,-1.4401939550982874,-0.7134869734393519,-1.5962279478656214,-3.1429551283465784
-0.8222325483905237,-2.5176265875445765,-1.4401581923114222,-0.7134750525103968,-1.5962517897235315,-3.1429429689990442
-0.8221967856036585,-2.5176385084735315,-1.4401939550982874,-0.7134988943683069,-1.5962756315814417,-3.1429551283465784
-0.8222087065326136,-2.5176265875445765,-1.4401701132403772,-0.7134631315814417,-1.5962398687945765,-3.142931048070089
-0.8222087065326136,-2.5176146666156214,-1.4402058760272425,-0.7134750525103968,-1.5962398687945765,-3.1429069677936
-0.8221848646747034,-2.5176623503314417,-1.4401701132403772,-0.7134988943683069,-1.5962398687945765,-3.142919127141134
-0.8222206274615687,-2.5176146666156214,-1.4401939550982874,-0.713510815297262,-1.5962517897235315,-3.142919127141134
-0.8222563902484339,-2.5176265875445765,-1.4401939550982874,-0.7134631315814417,-1.5962279478656214,-3.142931048070089
-0.8221967856036585,-2.5176385084735315,-1.4401820341693323,-0.7134631315814417,-1.5962279478656214,-3.142931048070089
-0.8221729437457483,-2.5176265875445765,-1.4401939550982874,-0.7134988943683069,-1.5962398687945765,-3.142919127141134
-0.8222087065326136,-2.5176504294024866,-1.4401701132403772,-0.7134988943683069,-1.5962517897235315,-3.1429429689990442
-0.8221848646747034,-2.5176385084735315,-1.4401820341693323,-0.7134512106524866,-1.5962279478656214,-3.1429429689990442
-0.8222325483905237,-2.5176385084735315,-1.4401820341693323,-0.7134750525103968,-1.5962517897235315,-3.142919127141134
-0.8222206274615687,-2.5176504294024866,-1.4402058760272425,-0.7134631315814417,-1.5962398687945765,-3.1429551283465784
-0.8221729437457483,-2.5176504294024866,-1.4401939550982874,-0.7134988943683069,-1.5962637106524866,-3.142919127141134
-0.8221967856036585,-2.5176623503314417,-1.4401701132403772,-0.7134512106524866,-1.5962517897235315,-3.1429069677936
-0.8221967856036585,-2.5176623503314417,-1.4402177969561976,-0.7134750525103968,-1.5962398687945765,-3.142919127141134
-0.8221967856036585,-2.5176146666156214,-1.4401939550982874,-0.7134988943683069,-1.5962517897235315,-3.142931048070089
-0.8222087065326136,-2.5176385084735315,-1.4401701132403772,-0.7134631315814417,-1.5962279478656214,-3.142931048070089
-0.8221848646747034,-2.5176504294024866,-1.4401820341693323,-0.7134869734393519,-1.5962637106524866,-3.142931048070089
-0.8222444693194788,-2.5176385084735315,-1.4401939550982874,-0.7134869734393519,-1.5962160269366663,-3.142919127141134
-0.8221848646747034,-2.5176385084735315,-1.4401820341693323,-0.7134988943683069,-1.5962637106524866,-3.142895046864645
-0.8221605459796351,-2.5176146666156214,-1.4402177969561976,-0.7134631315814417,-1.5962637106524866,-3.1429429689990442
-0.8221967856036585,-2.5176027456866663,-1.4401820341693323,-0.7134869734393519,-1.5962398687945765,-3.1429429689990442
-0.8221848646747034,-2.5176623503314417,-1.4401939550982874,-0.7134750525103968,-1.5962637106524866,-3.1429429689990442
-0.8221848646747034,-2.5176385084735315,-1.4401701132403772,-0.7134512106524866,-1.5962398687945765,-3.1429069677936
-0.8221848646747034,-2.5176504294024866,-1.4402058760272425,-0.7134392897235315,-1.5962398687945765,-3.1429787317859095
-0.8222206274615687,-2.5176385084735315,-1.4402058760272425,-0.7134750525103968,-1.5962398687945765,-3.1429429689990442
-0.8222087065326136,-2.5176385084735315,-1.4401701132403772,-0.7134750525103968,-1.5962637106524866,-3.1429429689990442
-0.8221729437457483,-2.5176265875445765,-1.4401701132403772,-0.7134869734393519,-1.5962756315814417,-3.1429429689990442
-0.8221967856036585,-2.517674271260397,-1.4401701132403772,-0.7134631315814417,-1.5962517897235315,-3.142931048070089
-0.8221848646747034,-2.5176146666156214,-1.4401939550982874,-0.7134392897235315,-1.5962279478656214,-3.142931048070089
-0.8221848646747034,-2.5176504294024866,-1.4401939550982874,-0.7134750525103968,-1.5962279478656214,-3.142919127141134
-0.8221967856036585,-2.5176385084735315,-1.4401701132403772,-0.7134392897235315,-1.5962517897235315,-3.1428831259356897
-0.8221967856036585,-2.5176385084735315,-1.4401939550982874,-0.7134512106524866,-1.5962756315814417,-3.142919127141134
-0.8222206274615687,-2.5176385084735315,-1.4402177969561976,-0.7134750525103968,-1.5962756315814417,-3.142919127141134
-0.8222087065326136,-2.5176623503314417,-1.4401581923114222,-0.7134750525103968,-1.5962279478656214,-3.1429665724383753
-0.8222087065326136,-2.5176504294024866,-1.4402297178851526,-0.7134631315814417,-1.5962517897235315,-3.142931048070089
-0.8222087065326136,-2.5176623503314417,-1.4402058760272425,-0.7134750525103968,-1.5962517897235315,-3.1429429689990442
-0.8221967856036585,-2.517686192189352,-1.4401820341693323,-0.713510815297262,-1.5962517897235315,-3.1429665724383753
-0.8222325483905237,-2.51771051088442,-1.4400137106524866,-0.7135947386371058,-1.5962637106524866,-3.142919127141134
-0.8222325483905237,-2.5177224318133753,-1.4399178663836878,-0.7136309782611292,-1.5962517897235315,-3.142919127141134
-0.8221729437457483,-2.5177701155291956,-1.4397862593280237,-0.7137625853167933,-1.5962637106524866,-3.1429429689990442
-0.8222325483905237,-2.517830197011129,-1.4396536985980433,-0.7137745062457483,-1.5962637106524866,-3.1429551283465784
-0.8221967856036585,-2.517949883137838,-1.439270321522848,-0.7140381971942347,-1.59629995027651,-3.1429665724383753
-0.8222087065326136,-2.5180934111224573,-1.439066235219137,-0.7139785925494593,-1.5962279478656214,-3.1429665724383753
-0.8221729437457483,-2.5182011763202112,-1.438838307057516,-0.7142060438739222,-1.5962517897235315,-3.1429551283465784
-0.8221848646747034,-2.5183332602130335,-1.4385502974139612,-0.7141702810870569,-1.5962160269366663,-3.142919127141134
-0.8221729437457483,-2.5185607115374964,-1.4379141966449183,-0.7144940535174769,-1.5962756315814417,-3.1429551283465784
-0.8221967856036585,-2.5187047163592737,-1.4376142660724085,-0.7147577444659632,-1.5962398687945765,-3.1429551283465784
-0.8221967856036585,-2.518848721181051,-1.437230412160055,-0.7149136702166956,-1.5962398687945765,-3.1429429689990442
-0.8221605459796351,-2.51899224916567,-1.4367621580706995,-0.7151654402362269,-1.5962637106524866,-3.1429429689990442
-0.8221967856036585,-2.5193637053119105,-1.4359467665301722,-0.7156327406512659,-1.5962517897235315,-3.1429551283465784
-0.8221729437457483,-2.519543472920553,-1.4355385939227503,-0.7158849875079554,-1.5962517897235315,-3.1429429689990442
-0.8221729437457483,-2.519759003316061,-1.4350107351886194,-0.7161129156695765,-1.5962398687945765,-3.142931048070089
-0.8221967856036585,-2.5199745337115687,-1.4345548788653772,-0.7163522879229944,-1.5962517897235315,-3.142931048070089
-0.8222087065326136,-2.5204299131976526,-1.4335950056659144,-0.7170241514789026,-1.5962637106524866,-3.142919127141134
-0.8222325483905237,-2.5206812063800257,-1.433103386555807,-0.717299763356344,-1.5962637106524866,-3.1429551283465784
-0.8222206274615687,-2.520921055470602,-1.4325993696795862,-0.7175629774676722,-1.5962517897235315,-3.1429665724383753
-0.8222325483905237,-2.521184746419088,-1.4320715109454554,-0.7178509871112269,-1.5962637106524866,-3.1429665724383753
-0.8221967856036585,-2.5216878096209925,-1.4310396353351038,-0.7184985319720667,-1.5962398687945765,-3.1429429689990442
-0.8222087065326136,-2.521999184285299,-1.430511776600973,-0.7187984625445765,-1.5962517897235315,-3.1429551283465784
-0.8221967856036585,-2.522202793751852,-1.4299595991717737,-0.719097916279928,-1.5962517897235315,-3.142931048070089
-0.8221848646747034,-2.5224784056292933,-1.4294078985797327,-0.7193978468524378,-1.5962517897235315,-3.1429551283465784
-0.8222206274615687,-2.5230420271502894,-1.4282682577716272,-0.7200573126422327,-1.5962875525103968,-3.1429665724383753
-0.8221967856036585,-2.523245636616842,-1.4277284781085413,-0.7204049269305628,-1.5962517897235315,-3.1429429689990442
-0.8221848646747034,-2.5235207716571253,-1.4271405378924769,-0.7207167784320276,-1.5962279478656214,-3.1430025736438196
-0.8222206274615687,-2.5237725416766565,-1.4265645186053675,-0.7210405508624476,-1.5962398687945765,-3.1429787317859095
-0.8222087065326136,-2.524287525807516,-1.425412956868307,-0.721651856099264,-1.5962517897235315,-3.1429665724383753
-0.8222087065326136,-2.5245512167560022,-1.4247649351703089,-0.7220357100116175,-1.5962756315814417,-3.1429429689990442
-0.8222206274615687,-2.5247910658465784,-1.4242127577411097,-0.7223594824420374,-1.5962517897235315,-3.1429665724383753
-0.8221605459796351,-2.5250542799579065,-1.423600975667135,-0.722670857106344,-1.5962637106524866,-3.1430025736438196
-0.8221729437457483,-2.5255935827838343,-1.4223411718951624,-0.7232707182513636,-1.5962756315814417,-3.1429787317859095
-0.8221729437457483,-2.5258572737323206,-1.4217293898211878,-0.7237022558795374,-1.5962398687945765,-3.143062416707174
-0.8221967856036585,-2.5260966459857386,-1.4211538473712366,-0.7240985075580042,-1.5962637106524866,-3.1430745760547083
-0.8222325483905237,-2.526384178792135,-1.4205058256732386,-0.7243860403644007,-1.5962398687945765,-3.143038574849264
-0.8221848646747034,-2.526947323475973,-1.4192341009723108,-0.7250331083880823,-1.59629995027651,-3.1430984179126185
-0.8221605459796351,-2.5272348562823694,-1.4185741583453577,-0.7254288832293909,-1.5962875525103968,-3.1430864969836634
-0.8221967856036585,-2.527534310017721,-1.4178784529315394,-0.725776497517721,-1.5962756315814417,-3.1430745760547083
-0.8221729437457483,-2.527858082448141,-1.4171822706805628,-0.7261245886432093,-1.5962756315814417,-3.1430745760547083
-0.8222206274615687,-2.5284693876849573,-1.4157307783709925,-0.726999584828512,-1.5963118712054651,-3.1431103388415735
-0.8221729437457483,-2.528816048298971,-1.4150107542621058,-0.7274072805987757,-1.5963357130633753,-3.1430984179126185
-0.8221729437457483,-2.5290916601764124,-1.4143269697772425,-0.7278268972979944,-1.5962756315814417,-3.143062416707174
-0.8221848646747034,-2.5294392744647425,-1.4135950247394007,-0.7282102743731897,-1.5962637106524866,-3.1431103388415735
-0.8221605459796351,-2.530086342488424,-1.4120829741107386,-0.7290619055377405,-1.5962875525103968,-3.1431224981891077
-0.8221848646747034,-2.530410114918844,-1.4112914244281214,-0.7294934431659144,-1.5962875525103968,-3.1430864969836634
-0.8221848646747034,-2.530769650136129,-1.4105475584613245,-0.7298768202411097,-1.59629995027651,-3.1430984179126185
-0.82214862505068,-2.5311649481402796,-1.4097555319415491,-0.7303207556353968,-1.59629995027651,-3.1431224981891077
-0.8221247831927698,-2.5317991415606897,-1.4081838766681116,-0.7312205473529261,-1.5962875525103968,-3.143158260975973
-0.8221367041217249,-2.5321949164019983,-1.4074161688434046,-0.7316396872149866,-1.5963237921344202,-3.1431942621814173
-0.8221367041217249,-2.5325663725482386,-1.406611744557516,-0.7320712248431605,-1.5962756315814417,-3.1432064215289515
-0.82214862505068,-2.532961670552389,-1.4057963530169886,-0.7325394789325159,-1.5963237921344202,-3.1432183424579065
-0.8221247831927698,-2.5337403456317347,-1.4041522184955042,-0.7334860006915491,-1.5963357130633753,-3.143170420323507
-0.8220890204059046,-2.5340879599200647,-1.4032767454730433,-0.7339900175677698,-1.5963237921344202,-3.1432421843158167
-0.8220890204059046,-2.53449517885317,-1.402508560811178,-0.7344930807696741,-1.5963595549212855,-3.1432183424579065
-0.8221247831927698,-2.5349023977862757,-1.4015372435199183,-0.7349970976458948,-1.5963357130633753,-3.1432183424579065
-0.8221367041217249,-2.535717312489645,-1.3998330275165003,-0.7359202543841761,-1.5963476339923304,-3.1432302633868616
-0.8221009413348597,-2.5361488501178187,-1.3989575544940394,-0.736363712941305,-1.5963476339923304,-3.1432421843158167
-0.8220890204059046,-2.536556069050924,-1.3981054464923304,-0.7368071714984339,-1.5963714758502405,-3.143254343663351
-0.8221009413348597,-2.5369632879840296,-1.3972294966327112,-0.7372754255877894,-1.5963595549212855,-3.143266264592306
-0.8221009413348597,-2.5377658049212855,-1.3955019156085413,-0.7383063475238245,-1.5963595549212855,-3.143254343663351
-0.8220527807818812,-2.5381253401385706,-1.3946378866778772,-0.7387498060809534,-1.5963714758502405,-3.1432183424579065
-0.8220647017108362,-2.5384848753558558,-1.393761936818258,-0.7392056624041956,-1.5963714758502405,-3.1432302633868616
-0.8220527807818812,-2.5389402548419397,-1.3928621451007288,-0.7397573629962366,-1.5963838736163538,-3.1432421843158167
-0.8220408598529261,-2.5396950880633753,-1.3910625616656702,-0.7407282034503382,-1.5964673201190394,-3.143278185521261
-0.822028938923971,-2.5401023069964808,-1.3901622931109827,-0.7412799040423792,-1.5964315573321741,-3.143266264592306
-0.8220647017108362,-2.540485684071676,-1.3892868200885218,-0.7417834440814417,-1.5964673201190394,-3.143254343663351
-0.8220890204059046,-2.5408809820758265,-1.3883631865130823,-0.7422750631915491,-1.5964434782611292,-3.143254343663351
-0.822028938923971,-2.5417197386371058,-1.3865512053119105,-0.7432821432696741,-1.5964434782611292,-3.143266264592306
-0.8220050970660608,-2.542103115712301,-1.3856514135943812,-0.7437618414508265,-1.5964434782611292,-3.143278185521261
-0.8219807783709925,-2.5425103346454065,-1.384787384663717,-0.7442534605609339,-1.5963957945453089,-3.1433141867267054
-0.8219450155841272,-2.5429418722735804,-1.3838637510882776,-0.7448166052447718,-1.5963957945453089,-3.143266264592306
-0.8220170179950159,-2.5437925497638147,-1.382099453602926,-0.7457640806781214,-1.5963957945453089,-3.1433022657977503
-0.8219569365130823,-2.5442236105548304,-1.381200138722555,-0.7462437788592737,-1.596407715474264,-3.1433141867267054
-0.8219807783709925,-2.544655148183004,-1.3803122679339808,-0.7467954794513147,-1.596407715474264,-3.143397633229391
-0.8219688574420374,-2.545110527669088,-1.379376236592428,-0.7472747007953089,-1.5964434782611292,-3.1433737913714808
-0.8219807783709925,-2.545936886464254,-1.3775289694415491,-0.7483299414264124,-1.5964315573321741,-3.143385712300436
-0.8219450155841272,-2.546344582234518,-1.3765929380999964,-0.7487977186786097,-1.5964315573321741,-3.1433497110949915
-0.8219211737262171,-2.546788040791647,-1.3756092230426233,-0.7492893377887171,-1.5964434782611292,-3.1433380285846155
-0.8219931761371058,-2.5472429434405726,-1.3746851126300257,-0.7498405615435999,-1.5964553991900843,-3.1433616320239466
-0.8219330946551722,-2.548129383717672,-1.372777287160055,-0.7508118788348597,-1.5964797178851526,-3.1433737913714808
-0.821909252797262,-2.548560921345846,-1.3718536535846155,-0.7513993422137659,-1.5964434782611292,-3.143397633229391
-0.821909252797262,-2.5489681402789515,-1.370941464100973,-0.7519505659686487,-1.5964553991900843,-3.1433737913714808
-0.8218849341021937,-2.5494235197650355,-1.3699820677386683,-0.7524789015399378,-1.5964315573321741,-3.14342171350588
-0.8219211737262171,-2.55029803911318,-1.3681100050555628,-0.7535336653338831,-1.5964673201190394,-3.1434336344348353
-0.8218968550311487,-2.5506933371173304,-1.367162052785055,-0.7540252844439905,-1.5964797178851526,-3.14342171350588
-0.8218730131732386,-2.5510767141925257,-1.3661301771747034,-0.7545650641070765,-1.5964797178851526,-3.14342171350588
-0.8218968550311487,-2.551460091267721,-1.3651583830462855,-0.7551525274859827,-1.5965035597430628,-3.1434455553637903
-0.8218372503863733,-2.5523112455951136,-1.3632028738604944,-0.7561715284930628,-1.596527401600973,-3.1434336344348353
-0.8218610922442835,-2.5526703039752405,-1.362206761037008,-0.7566989103900355,-1.5965035597430628,-3.1434577147113245
-0.8218730131732386,-2.5531137625323694,-1.3612473646747034,-0.7572506109820765,-1.5965035597430628,-3.1434815565692347
-0.8218610922442835,-2.55353290239443,-1.360251251851217,-0.7577183882342737,-1.5965154806720179,-3.1434815565692347
-0.8218491713153284,-2.5543716589557093,-1.358199421559469,-0.7588933149920862,-1.596551243458883,-3.1434934774981897
-0.8218730131732386,-2.5548389593707483,-1.3571794668780726,-0.7595050970660608,-1.5965154806720179,-3.1434815565692347
-0.8218134085284632,-2.555258576069967,-1.356147591267721,-0.7600682417498987,-1.5965636412249964,-3.1434577147113245
-0.8218372503863733,-2.555725399647848,-1.3550198713885706,-0.7606676260577601,-1.5965154806720179,-3.1434577147113245
-0.8218134085284632,-2.556660000477926,-1.3527877966510218,-0.7619746367083948,-1.5965154806720179,-3.1434934774981897
-0.8218491713153284,-2.5571749846087855,-1.3516481558429163,-0.7624900976764124,-1.5965755621539515,-3.1434934774981897
-0.8218253294574183,-2.557690445576803,-1.3504965941058558,-0.7631858030902308,-1.5965755621539515,-3.143517557774679
-0.8218134085284632,-2.5582178274737757,-1.3493683973895472,-0.7638333479510706,-1.5965874830829065,-3.143529478703634
-0.8217890898333948,-2.559307877217428,-1.3468850294696253,-0.7652843634234827,-1.5966113249408167,-3.1435535589801233
-0.8217890898333948,-2.5598467032061976,-1.3456733862506312,-0.7659319082843226,-1.5966113249408167,-3.1435535589801233
-0.8217890898333948,-2.5603984037982386,-1.344485108052389,-0.7666509787188929,-1.5965874830829065,-3.1435774008380335
-0.8217533270465296,-2.561009232197897,-1.3432014624225062,-0.7673824469195765,-1.5966232458697718,-3.1435893217669886
-0.8217414061175745,-2.562183205281393,-1.3405135313617151,-0.768904987965719,-1.5965874830829065,-3.143625322972433
-0.8217533270465296,-2.562782112752096,-1.3391698042498987,-0.7696483770953577,-1.5966113249408167,-3.1435654799090784
-0.8217414061175745,-2.5633814970599573,-1.337801758443014,-0.7703917662249964,-1.5965874830829065,-3.143637482319967
-0.8217652479754847,-2.564004723225729,-1.336397949849264,-0.7712071577655237,-1.5965994040118616,-3.1436732451068323
-0.8217175642596644,-2.56521445909609,-1.3336146513568323,-0.7727902571307581,-1.5965874830829065,-3.1437092463122767
-0.8217051664935511,-2.565873448048727,-1.3321626822101038,-0.7735212484942835,-1.5965994040118616,-3.1436732451068323
-0.8217051664935511,-2.5665085951434534,-1.3307707945453089,-0.7742889563189905,-1.5965874830829065,-3.1436854044543665
-0.8217652479754847,-2.5671313444720667,-1.3293069044696253,-0.7751043478595179,-1.5966351667987269,-3.1436973253833216
-0.8217414061175745,-2.568437401448385,-1.3264029661761683,-0.7767227331744593,-1.5966113249408167,-3.1437092463122767
-0.8216813246356409,-2.569132630025045,-1.324951473866598,-0.7775381247149866,-1.5966594854937952,-3.1437092463122767
-0.8217294851886194,-2.5697911421405237,-1.3235352675067347,-0.7782815138446253,-1.5966232458697718,-3.1436973253833216
-0.8217294851886194,-2.570474449788229,-1.3220480124102991,-0.779024902974264,-1.5966594854937952,-3.143733326588766
-0.8216574827777308,-2.5718043486224573,-1.3192880789386194,-0.7804997603045862,-1.5966351667987269,-3.1436854044543665
-0.8216574827777308,-2.572439495717184,-1.3179319540606897,-0.7813151518451136,-1.596647087727682,-3.143757168446676
-0.8216455618487757,-2.573134247456686,-1.3164566198932093,-0.7820585409747522,-1.5966833273517054,-3.143733326588766
-0.8216336409198206,-2.573840920125143,-1.3150885740863245,-0.7828620115863245,-1.5966351667987269,-3.143769089375631
-0.821693245564596,-2.575123135243551,-1.3122685591327112,-0.7844203154193323,-1.596647087727682,-3.1437931696521204
-0.8216694037066858,-2.5757816473590296,-1.3109248320208948,-0.7851999441729944,-1.5966594854937952,-3.1437931696521204
-0.821693245564596,-2.5764291922198694,-1.30955678621401,-0.7859552542315882,-1.5966714064227503,-3.1438050905810755
-0.8216813246356409,-2.5770400206195276,-1.3081653753863733,-0.7867105642901819,-1.5966594854937952,-3.1438291708575647
-0.8216093222247522,-2.578237835560934,-1.3054536024676722,-0.7881377379046839,-1.5966232458697718,-3.143865172063009
-0.8215497175799769,-2.5788610617267054,-1.3040736357318323,-0.7888568083392542,-1.5967071692096155,-3.1438291708575647
-0.8216093222247522,-2.579496208821432,-1.3027055899249476,-0.7896841208087366,-1.5966833273517054,-3.143853012715475
-0.8215974012957972,-2.580071274434225,-1.301338020955221,-0.7903435865985315,-1.5966714064227503,-3.143853012715475
-0.8215621153460901,-2.5812576452838343,-1.2986262480365198,-0.7918785254107874,-1.5966714064227503,-3.14384109178652
-0.8215497175799769,-2.5818684736834925,-1.2972820440875452,-0.7925618330584925,-1.5967672506915491,-3.143877092991964
-0.8215621153460901,-2.5824316183673304,-1.2959983984576624,-0.7933653036700647,-1.596755329762594,-3.1439130941974085
-0.8215740362750452,-2.582959000264303,-1.294762913380758,-0.7940247694598597,-1.5967429319964808,-3.1439245382892054
-0.8215258757220667,-2.584109131489889,-1.292170826588766,-0.7954996267901819,-1.5967429319964808,-3.1439245382892054
-0.8215258757220667,-2.584672276173727,-1.2909110228167933,-0.7962668577777308,-1.5967429319964808,-3.143972460423605
-0.8215377966510218,-2.5852349440204065,-1.2896745840655726,-0.7969625631915491,-1.5967791716205042,-3.143972460423605
-0.8215139547931116,-2.5857985655414026,-1.2884514967547815,-0.7976577917682093,-1.5967429319964808,-3.1439605394946497
-0.8215258757220667,-2.5868766943561,-1.2859552542315882,-0.7990248839007776,-1.5967672506915491,-3.143972460423605
-0.8215139547931116,-2.5874159971820276,-1.2847431341754358,-0.7997325102435511,-1.5968030134784144,-3.143972460423605
-0.8214901129352015,-2.5879791418658655,-1.2835677305804651,-0.8004754225360315,-1.5967791716205042,-3.144008461629049
-0.8215020338641565,-2.5884583632098597,-1.282368008290426,-0.801086727772848,-1.5968030134784144,-3.1440325419055384
-0.8214662710772913,-2.5894644896136683,-1.2799800078021448,-0.8024538199054163,-1.5968268553363245,-3.143996540700094
-0.8214662710772913,-2.5899675528155726,-1.2788994948016565,-0.8031252066241663,-1.5968030134784144,-3.1440325419055384
-0.821441952382223,-2.59048301378359,-1.2775920073138636,-0.803833309804098,-1.5968268553363245,-3.1440325419055384
-0.8214901129352015,-2.5909865538226526,-1.276332203541891,-0.804539982472555,-1.5968030134784144,-3.144020382558004
-0.8215020338641565,-2.5920289198504847,-1.2738965193377894,-0.8058713118182581,-1.596863094960348,-3.144080464039938
-0.8214662710772913,-2.5925801436053675,-1.2726481596576136,-0.8065426985370081,-1.596863094960348,-3.144092384968893
-0.8214662710772913,-2.5930712858783167,-1.2713764349566858,-0.8072503248797815,-1.5968392531024378,-3.144104305897848
-0.8214781920062464,-2.5936582724200647,-1.270212475453512,-0.8078611532794397,-1.596875015889303,-3.144116465245382
-0.8215020338641565,-2.594724480305807,-1.2677047888385218,-0.8092525641070765,-1.5968511740313929,-3.144104305897848
-0.8214781920062464,-2.5952995459186,-1.2663968245135706,-0.8099234739886683,-1.5968511740313929,-3.144116465245382
-0.821441952382223,-2.595875088368551,-1.2652090231524866,-0.810643498097555,-1.5968392531024378,-3.144116465245382
-0.821453873311178,-2.596473995839254,-1.263949219380514,-0.8112910429583948,-1.5968511740313929,-3.144116465245382
-0.8213823477374476,-2.5976718107806605,-1.261392895375387,-0.8126815001117151,-1.5968511740313929,-3.1441882292376917
-0.8214181105243128,-2.598295036946432,-1.2601454893695276,-0.8133528868304651,-1.5968268553363245,-3.144128386174337
-0.8213823477374476,-2.5989063421832483,-1.2588971296893519,-0.814096752797262,-1.5968392531024378,-3.1441763083087366
-0.8213942686664026,-2.5994814077960413,-1.2576974073993128,-0.814768139516012,-1.596863094960348,-3.1441643873797815
-0.8213823477374476,-2.6006792227374476,-1.255141560231344,-0.8162549177752894,-1.596886936818258,-3.1441882292376917
-0.8213942686664026,-2.601266686116354,-1.253845516835348,-0.8169382254229944,-1.596863094960348,-3.144236151372091
-0.8213461081134241,-2.601841751729147,-1.2525737921344202,-0.8176935354815882,-1.5968392531024378,-3.144200150166647
-0.8213580290423792,-2.6024163405047815,-1.2513020674334925,-0.8183892408954065,-1.596875015889303,-3.1442483107196253
-0.8213461081134241,-2.6035307089435022,-1.2487099806415003,-0.8197076956378382,-1.596875015889303,-3.144236151372091
-0.821322266255514,-2.6041539351092737,-1.2474382559405726,-0.8204157988177698,-1.5969226996051233,-3.1442483107196253
-0.821322266255514,-2.6047051588641565,-1.2461422125445765,-0.8211711088763636,-1.5969350973712366,-3.144224230443136
-0.821322266255514,-2.6053040663348597,-1.2448461691485804,-0.8218539396869105,-1.5969350973712366,-3.144224230443136
-0.821334187184469,-2.6064308325396937,-1.2423260847674769,-0.8232572714435022,-1.596982781087057,-3.14430815378298
-0.8213823477374476,-2.607029740010397,-1.2410543600665491,-0.8240121046649378,-1.5969470183001917,-3.1443679968463343
-0.821334187184469,-2.6075928846942347,-1.239746395741598,-0.8247440497027796,-1.5969350973712366,-3.1443799177752894
-0.8213103453265589,-2.608203713093893,-1.2384865919696253,-0.8254273573504847,-1.5969350973712366,-3.14433199564089
-0.821322266255514,-2.6093900839435022,-1.235870663319723,-0.8268302122699183,-1.596982781087057,-3.14433199564089
-0.8213103453265589,-2.60995322862734,-1.2346590201007288,-0.8275616804706019,-1.5969470183001917,-3.144320074711935
-0.8212865034686487,-2.610516373311178,-1.2334230581866663,-0.8282688299762171,-1.596982781087057,-3.144356075917379
-0.8212741057025355,-2.6111395994769495,-1.2321150938617151,-0.8289406935321253,-1.5969589392291468,-3.14433199564089
-0.8212383429156702,-2.6123254934894007,-1.2296789328204554,-0.830355469380514,-1.596982781087057,-3.144344154988424
-0.8212741057025355,-2.6128886381732386,-1.2284191290484827,-0.831158463154928,-1.597006622944967,-3.144320074711935
-0.8212741057025355,-2.613427464162008,-1.2271469275103968,-0.831794563923971,-1.5969708601581019,-3.1443920771228235
-0.8212741057025355,-2.6139548460589808,-1.2258871237384241,-0.8324897925006312,-1.596982781087057,-3.1444278399096888
-0.8212383429156702,-2.6150334517108362,-1.2234156767474573,-0.8338330427752894,-1.5969589392291468,-3.1443799177752894
-0.8212264219867151,-2.6155369917498987,-1.22219163576235,-0.8346360365497034,-1.5969708601581019,-3.144439999257223
-0.8212145010577601,-2.616051975880758,-1.2209556738482874,-0.8352597395526331,-1.597006622944967,-3.1444760004626673
-0.8211544195758265,-2.616603199635641,-1.2196958700763147,-0.8359311262713831,-1.597006622944967,-3.1444760004626673
-0.8211663405047815,-2.617681328450338,-1.2172358671771448,-0.8373459021197718,-1.597006622944967,-3.144463841115133
-0.8211782614337366,-2.618220631276266,-1.2159517447101038,-0.8381131331073206,-1.5970190207110804,-3.144463841115133
-0.8211782614337366,-2.6187356154071253,-1.2147038618670862,-0.8387845198260706,-1.5970428625689905,-3.1444879213916224
-0.821202580128805,-2.619298760090963,-1.2134559790240687,-0.8395040670977991,-1.597006622944967,-3.1444879213916224
-0.8211782614337366,-2.6203892866717737,-1.210912052785055,-0.8407748381244105,-1.5970190207110804,-3.1445234457599085
-0.8211544195758265,-2.620880905781881,-1.2095797697650355,-0.8415187040912073,-1.5970428625689905,-3.1445115248309534
-0.8211663405047815,-2.621467415486471,-1.2082961241351526,-0.8422020117389124,-1.5970428625689905,-3.1445475260363978
-0.8211544195758265,-2.6219947973834437,-1.2070124785052698,-0.8428252379046839,-1.5970547834979456,-3.1445353666888636
-0.8211424986468714,-2.6231687704669397,-1.204456631337301,-0.8441684881793421,-1.5970667044269007,-3.1446192900287073
-0.8211305777179163,-2.6236723105060022,-1.2031720320331019,-0.8449237982379358,-1.5970667044269007,-3.1446312109576624
-0.8211067358600062,-2.624247376118795,-1.2019122282611292,-0.8456433455096644,-1.597102467213766,-3.144595448170797
-0.8211663405047815,-2.6248582045184534,-1.2006400267230433,-0.8463271299945276,-1.5970547834979456,-3.144595448170797
-0.8211305777179163,-2.625936810170309,-1.198132340108053,-0.8477533499347132,-1.5970905462848108,-3.1446192900287073
-0.8211067358600062,-2.62653619447817,-1.19682485262026,-0.8484733740435999,-1.597102467213766,-3.1446192900287073
-0.8211544195758265,-2.6270511786090296,-1.1956008116351526,-0.8490966002093714,-1.5971148649798792,-3.1446312109576624
-0.8211186567889612,-2.6276024023639124,-1.1944006125079554,-0.8497679869281214,-1.597102467213766,-3.1446672121631067
-0.8211186567889612,-2.6287882963763636,-1.1919167677508753,-0.8511469999896448,-1.5971267859088343,-3.1446433703051966
-0.8211305777179163,-2.6293275992022913,-1.1907289663897913,-0.8518660704242151,-1.5971387068377894,-3.144715134297506
-0.8211067358600062,-2.6299265066729944,-1.1894691626178187,-0.8525856176959437,-1.5971625486956995,-3.144679371510641
-0.8210943380938929,-2.630549732838766,-1.1882208029376429,-0.8532689253436487,-1.5971267859088343,-3.1446552912341517
-0.8210704962359827,-2.63170034090151,-1.1857488791095179,-0.8547080198871058,-1.5971267859088343,-3.144703213368551
-0.8210824171649378,-2.6323111693011683,-1.1845009962665003,-0.8554752508746546,-1.5971625486956995,-3.144703213368551
-0.8210704962359827,-2.6328862349139612,-1.1832287947284144,-0.8560989538775843,-1.5971506277667444,-3.1447630564319056
-0.8211067358600062,-2.633449379597799,-1.1819689909564417,-0.8568661848651331,-1.597102467213766,-3.1447752157794397
-0.8210228125201624,-2.634648148213522,-1.1793893019305628,-0.8582571188556116,-1.5971625486956995,-3.144787136708395
-0.8210104147540491,-2.63525897661318,-1.1780570189105433,-0.8590243498431605,-1.5971625486956995,-3.1447752157794397
-0.8210104147540491,-2.63584548631777,-1.1768091360675257,-0.8597200552569788,-1.5971625486956995,-3.144810978566305
-0.8210104147540491,-2.636409107838766,-1.1755369345294397,-0.8604276815997522,-1.5971625486956995,-3.144787136708395
-0.8210104147540491,-2.637606922780172,-1.1729453245746058,-0.8617585341082972,-1.5971863905536097,-3.144823137913839
-0.8210104147540491,-2.6381943861590784,-1.1716254393206995,-0.8625376860248011,-1.5971744696246546,-3.144823137913839
-0.820998493825094,-2.6387575308429163,-1.1704495588885706,-0.8632090727435511,-1.597198788319723,-3.1448589007007044
-0.8209860960589808,-2.639272991810934,-1.1691530386554163,-0.8639047781573694,-1.5971863905536097,-3.1448350588427942
-0.8209622542010706,-2.6403988043414515,-1.166621510182516,-0.865307633076803,-1.597222630177633,-3.1448949019061487
-0.8209384123431605,-2.640998188649313,-1.1653011480914515,-0.8660629431353968,-1.597210709248678,-3.1448469797717493
-0.8209622542010706,-2.6415613333331507,-1.1640413443194788,-0.8667100111590784,-1.5972345511065882,-3.1448469797717493
-0.8209622542010706,-2.6421363989459437,-1.1628416220294397,-0.8674538771258753,-1.597222630177633,-3.1448829809771937
-0.8209384123431605,-2.6432626883136194,-1.1603215376483362,-0.8688090483294886,-1.5971863905536097,-3.1448829809771937
-0.8209384123431605,-2.643801514302389,-1.1590617338763636,-0.8696239630328577,-1.5972345511065882,-3.144918982182638
-0.8209503332721155,-2.6444008986102503,-1.1578133741961878,-0.8702476660357874,-1.5972345511065882,-3.1448949019061487
-0.8208902517901819,-2.644952122365133,-1.1566012541400355,-0.8709314505206507,-1.5972464720355433,-3.1448829809771937
-0.8208783308612269,-2.646078411732809,-1.1540692488299769,-0.8722861448871058,-1.5972345511065882,-3.144907061253683
-0.8208783308612269,-2.6466177145587366,-1.1527975241290491,-0.8730056921588343,-1.5972464720355433,-3.144918982182638
-0.8208902517901819,-2.6471927801715296,-1.1515620390521448,-0.8737009207354944,-1.5972345511065882,-3.1449669043170374
-0.8208783308612269,-2.6477320829974573,-1.1502655188189905,-0.8743484655963343,-1.5972703138934534,-3.1449905077563685
-0.8208783308612269,-2.648858372365133,-1.1477940718280237,-0.8757150808917444,-1.5972946325885218,-3.1450024286853235
-0.8208783308612269,-2.6494572798358362,-1.1465218702899378,-0.876446549092428,-1.5972822348224085,-3.145038429890768
-0.8208664099322718,-2.649972740803854,-1.1452496687518519,-0.8771422545062464,-1.5972822348224085,-3.1450024286853235
-0.820902172719137,-2.650547806416647,-1.1439898649798792,-0.8778613249408167,-1.5972583929644983,-3.1450024286853235
-0.8208306471454065,-2.651614491139547,-1.1414817015277308,-0.8792765776263636,-1.597330395375387,-3.145026508961813
-0.8208544890033167,-2.6521413961993616,-1.1401856581317347,-0.8800204435931605,-1.5972703138934534,-3.1449785868274134
-0.8208664099322718,-2.652656857167379,-1.138913933430807,-0.8806794325457972,-1.5972946325885218,-3.1450143496142786
-0.8208664099322718,-2.653207604085104,-1.1376898924456995,-0.8814347426043909,-1.597342316304342,-3.145038429890768
-0.8208544890033167,-2.654273811970846,-1.1351936499225062,-0.8827179113971155,-1.5972822348224085,-3.1450143496142786
-0.8208425680743616,-2.654837433491842,-1.1339338461505335,-0.8834613005267542,-1.597330395375387,-3.1449905077563685
-0.8207944075213831,-2.6553648153888147,-1.1326621214496058,-0.8841207663165491,-1.597330395375387,-3.1450143496142786
-0.8208187262164515,-2.655879799519674,-1.1314500013934534,-0.884887997304098,-1.597330395375387,-3.145038429890768
-0.8208187262164515,-2.65700608888735,-1.1290138403521937,-0.8862789312945765,-1.5972946325885218,-3.145050350819723
-0.8208063284503382,-2.657593075429098,-1.127765957509176,-0.8869622389422815,-1.5973542372332972,-3.1450863520251673
-0.8207944075213831,-2.658156696950094,-1.1264823118792933,-0.8876579443560999,-1.5973661581622522,-3.145074431096212
-0.8207944075213831,-2.6586836020099085,-1.1252334753619593,-0.8883774916278284,-1.597342316304342,-3.145074431096212
-0.820782486592428,-2.6598461310016077,-1.1227496306048792,-0.889780346547262,-1.5973785559283655,-3.145170275365011
-0.8208306471454065,-2.660468880330221,-1.1214655081378382,-0.8904994169818323,-1.5973785559283655,-3.1451223532306116
-0.8208063284503382,-2.6610682646380823,-1.1202777067767542,-0.8912070433246058,-1.5973542372332972,-3.145146195088522
-0.820770565663473,-2.6616676489459437,-1.1190536657916468,-0.8919022719012659,-1.5973661581622522,-3.145170275365011
-0.8207467238055628,-2.6628897825824183,-1.1165221373187464,-0.8933776060687464,-1.5974262396441858,-3.145158354436056
-0.8207224051104944,-2.663441006337301,-1.115201775227682,-0.894012753163473,-1.597438160573141,-3.145170275365011
-0.8207224051104944,-2.664027992879049,-1.1140015761004847,-0.8947323004352015,-1.597450081502096,-3.145158354436056
-0.8207467238055628,-2.664591137562887,-1.1127293745623987,-0.8954637686358851,-1.597438160573141,-3.145170275365011
-0.8207104841815394,-2.665729347859518,-1.1101139227496546,-0.8968542257892054,-1.597450081502096,-3.145182196293966
-0.8207224051104944,-2.6662567297564905,-1.1088898817645472,-0.8975980917560022,-1.597462002431051,-3.145158354436056
-0.8206747213946741,-2.666856114064352,-1.107581917439596,-0.8981974760638636,-1.597462002431051,-3.145170275365011
-0.820662800465719,-2.6674426237689417,-1.1062858740436,-0.8989527861224573,-1.597462002431051,-3.1451342741595667
-0.8206866423236292,-2.668617073689596,-1.1037901083575647,-0.9003918806659144,-1.5974023977862757,-3.1452062765704554
-0.8207224051104944,-2.669168297444479,-1.1025174299823206,-0.901123348866598,-1.597450081502096,-3.1452301184283655
-0.820662800465719,-2.669767204915182,-1.1012337843524378,-0.9017942587481897,-1.5974863211261194,-3.14526611963381
