youngblood1998/my_ws/src/ur5_platform/ur5_platform_manipulation/wzq/test4_13_1.csv
j0,j1,j2,j3,j4,j5
-0.8180387655841272,-2.6298187414752405,-1.1908486525165003,-0.8506673018084925,-1.595640007649557,-3.1456731001483362
-0.8180025259601038,-2.6303938070880335,-1.1896007696734827,-0.8513267675982874,-1.5957239309894007,-3.1456731001483362
-0.8180506865130823,-2.63100511232485,-1.1883767286883753,-0.8520577589618128,-1.5957000891314905,-3.145637337361471
-0.8180144468890589,-2.6316044966327112,-1.1871407667743128,-0.8527534643756312,-1.5956161657916468,-3.1457091013537806
-0.8179548422442835,-2.632179085408346,-1.1858328024493616,-0.8534610907184046,-1.5957120100604456,-3.145649258290426
-0.8178947607623499,-2.6333535353290003,-1.1833251158343714,-0.8548396269427698,-1.595640007649557,-3.1457811037646692
-0.8178828398333948,-2.6339171568499964,-1.1821015516864222,-0.8555954138385218,-1.5955684820758265,-3.14573318163027
-0.8178947607623499,-2.6345279852496546,-1.180840794240133,-0.8562186400042933,-1.595520321522848,-3.1458409468280237
-0.8178589979754847,-2.6351149717914026,-1.179544750844137,-0.8569620291339319,-1.5956762472735804,-3.1458409468280237
-0.8178108374225062,-2.636325184498922,-1.1769774595843714,-0.8583410421954554,-1.5956042448626917,-3.145865027104513
-0.8178346792804163,-2.636900250111715,-1.1756814161883753,-0.8591082731830042,-1.595520321522848,-3.145769182835714
-0.817786995564596,-2.6374877134906214,-1.174372975026266,-0.8598158995257776,-1.5954726378070276,-3.1457930246936243
-0.8177388350116175,-2.638050381337301,-1.1731131712542933,-0.8604992071734827,-1.595640007649557,-3.1459367910968226
-0.8176792303668421,-2.63918906847109,-1.1705697218524378,-0.8618424574481409,-1.5956524054156702,-3.145876948033468
-0.8176668326007288,-2.639776055012838,-1.1692851225482386,-0.8625858465777796,-1.5955565611468714,-3.145888868962423
-0.8176310698138636,-2.6403148810016077,-1.1679652372943323,-0.8632214705096644,-1.5955684820758265,-3.1458409468280237
-0.8176310698138636,-2.640878502522604,-1.16675311723818,-0.8639887014972132,-1.595640007649557,-3.145972792302267
-0.8175829092608851,-2.6420286337481897,-1.1642215887652796,-0.8653677145587366,-1.5957000891314905,-3.1459248701678675
-0.8175471464740198,-2.642628018056051,-1.1630218664752405,-0.8661230246173304,-1.595520321522848,-3.1460326353656214
-0.81757098833193,-2.643202606831686,-1.1617253462420862,-0.8667824904071253,-1.5955684820758265,-3.1459489504443567
-0.8174994627581995,-2.6437538305865687,-1.160525147114889,-0.8674300352679651,-1.5955565611468714,-3.1460326353656214
-0.8174870649920862,-2.6448562780963343,-1.1579936186419886,-0.8688209692584437,-1.5956161657916468,-3.1460087935077112
-0.8174274603473108,-2.645419422780172,-1.1567695776568812,-0.8696120421039026,-1.5954363981830042,-3.146080557500021
-0.8174036184894007,-2.6459582487689417,-1.1556294600116175,-0.8702119032489222,-1.5955565611468714,-3.1460447947131556
-0.8174274603473108,-2.646557633076803,-1.154285732899801,-0.8709195295916956,-1.5954964796649378,-3.1461761633502405
-0.8173435370074671,-2.6476481596576136,-1.1517537275897425,-0.8722623030291956,-1.5955923239337366,-3.1460686365710657
-0.8173792997943323,-2.6481874624835413,-1.15051776567568,-0.8729818503009241,-1.595412556325094,-3.146140162144796
-0.817331616078512,-2.6487625280963343,-1.1492341200457972,-0.8736050764666956,-1.5955684820758265,-3.146092716847555
-0.8173072973834437,-2.649397675191061,-1.1479619185077112,-0.8743365446673792,-1.5954607168780726,-3.1461880842791956
-0.8172715345965784,-2.6504042784320276,-1.145466152821676,-0.875655476246969,-1.5955565611468714,-3.146140162144796
-0.8172238508807581,-2.650919739400045,-1.1442540327655237,-0.876434628163473,-1.595400635396139,-3.14620024362673
-0.8172238508807581,-2.651506249104635,-1.1429813543902796,-0.8770821730243128,-1.5955565611468714,-3.1461642424212855
-0.8172114531146448,-2.652045551930563,-1.141733471547262,-0.8778017202960413,-1.5954483191119593,-3.14620024362673
-0.8171518484698694,-2.6530759970294397,-1.1391661802874964,-0.8791807333575647,-1.5955084005938929,-3.14620024362673
-0.8171275297748011,-2.6536272207843226,-1.137965504323141,-0.8799241224872034,-1.5953643957721155,-3.1463080088244837
-0.8170917669879358,-2.6541898886310022,-1.1366217772113245,-0.88055926958193,-1.5954726378070276,-3.1462960878955286
-0.8170679251300257,-2.654717270527975,-1.1353495756732386,-0.8812907377826136,-1.5954244772540491,-3.146248165761129
-0.8170560042010706,-2.6557839552508753,-1.1329134146319788,-0.8825739065753382,-1.5954964796649378,-3.1462960878955286
-0.816995922719137,-2.656347099934713,-1.131641689931051,-0.8833172957049769,-1.5953524748431605,-3.146355930958883
-0.8170078436480921,-2.656910244618551,-1.1303938070880335,-0.8839405218707483,-1.5954845587359827,-3.1464038530932825
-0.8170440832721155,-2.657473389302389,-1.129169766102926,-0.8846843878375452,-1.5953887144671839,-3.146355930958883
-0.8169358412372034,-2.6585758368121546,-1.1266377607928675,-0.8860634008990687,-1.5954363981830042,-3.1463919321643274
-0.8169477621661585,-2.659199062977926,-1.12538987794985,-0.886794392262594,-1.59528094926943,-3.1463199297534388
-0.8169358412372034,-2.659786049519674,-1.1241415182696741,-0.8874419371234339,-1.5954607168780726,-3.146451775227682
-0.8168523947345179,-2.6604092756854456,-1.1228697935687464,-0.8881977240191858,-1.5953167120562952,-3.146367851887838
-0.8168404738055628,-2.661571804677145,-1.1203978697406214,-0.8895762602435511,-1.5954244772540491,-3.1465116182910364
-0.8168285528766077,-2.6621463934527796,-1.1191619078265589,-0.8903558889972132,-1.59528094926943,-3.1463919321643274
-0.8167684713946741,-2.662757698689596,-1.1178539435016077,-0.8909075895892542,-1.5954244772540491,-3.1464877764331263
-0.8167684713946741,-2.6633690039264124,-1.1166179815875452,-0.8916743437396448,-1.5953167120562952,-3.146451775227682
-0.8166964689837855,-2.664495293294088,-1.1140616575824183,-0.8930895964251917,-1.5953887144671839,-3.1465356985675257
-0.8166845480548304,-2.665070358906881,-1.112753693257467,-0.8937729040728968,-1.5953047911273401,-3.146475855504171
-0.8166726271258753,-2.665645424519674,-1.1115177313434046,-0.8944442907916468,-1.5954363981830042,-3.1465356985675257
-0.816624943410055,-2.6662209669696253,-1.110257927571432,-0.8951523939715784,-1.5953047911273401,-3.146559540425436
-0.8166130224810999,-2.667334858571188,-1.107701603566305,-0.8965547720538538,-1.5953047911273401,-3.1466196219073694
-0.816624943410055,-2.6679938475238245,-1.1064541975604456,-0.8973224798785608,-1.5954363981830042,-3.14659554163088
-0.8165648619281214,-2.6685689131366175,-1.1051819960223597,-0.8979581038104456,-1.5953767935382288,-3.14657169977297
-0.8165529409991663,-2.6691201368915003,-1.1038859526263636,-0.8986528555499476,-1.595292870198385,-3.1466434637652796
-0.8165047804461878,-2.6703065077411097,-1.101377312337057,-0.9000442663775843,-1.595292870198385,-3.146679464970724
-0.8164928595172327,-2.670905415211813,-1.100069824849264,-0.9007871786700647,-1.5954607168780726,-3.146691385899679
-0.816420857106344,-2.671516720448629,-1.098809544240133,-0.9015186468707483,-1.5953167120562952,-3.1466556231128138
-0.8163970152484339,-2.672091786061422,-1.0975735823260706,-0.9021905104266565,-1.5953524748431605,-3.1467509905444544
-0.816408936177389,-2.6732662359820765,-1.0950897375689905,-0.903473202382223,-1.59528094926943,-3.146703068410055
-0.8163850943194788,-2.6738651434527796,-1.0938776175128382,-0.9041927496539515,-1.5954363981830042,-3.146798912678854
-0.8163493315326136,-2.6744163672076624,-1.0926535765277308,-0.9048288504229944,-1.5952208677874964,-3.14671498933901
-0.8163369337665003,-2.6749919096576136,-1.0913813749896448,-0.9054759184466761,-1.5953405539142054,-3.146810833607809
-0.8162654081927698,-2.676117722188131,-1.088921848927633,-0.9068668524371546,-1.5952208677874964,-3.1467271486865442
-0.8162654081927698,-2.6767171064959925,-1.0875657240497034,-0.9075983206378382,-1.5953887144671839,-3.1468468348132532
-0.8162053267108362,-2.677220646535055,-1.0863059202777308,-0.908245865498678,-1.5952447096454065,-3.1467509905444544
-0.8161814848529261,-2.6777475515948694,-1.084985081349508,-0.9089530150042933,-1.5953524748431605,-3.146798912678854
-0.816169563923971,-2.6788018385516565,-1.0825374762164515,-0.9103439489947718,-1.59528094926943,-3.1467629114734095
-0.8161452452289026,-2.6793773810016077,-1.0812414328204554,-0.9110515753375452,-1.5953887144671839,-3.1468589941607874
-0.8161333242999476,-2.679892365132467,-1.0799697081195276,-0.9117348829852503,-1.5952566305743616,-3.1469667593585413
-0.8160494009601038,-2.680431667958395,-1.0786731878863733,-0.9124062697040003,-1.5953524748431605,-3.146822992955343
-0.8160613218890589,-2.6815341154681605,-1.0761411825763147,-0.9137495199786585,-1.5953643957721155,-3.146930758153097
-0.8160613218890589,-2.6820853392230433,-1.0749056974994105,-0.9144566694842737,-1.5953405539142054,-3.146942679082052
-0.8159773985492151,-2.6825884024249476,-1.0736692587481897,-0.9150922934161585,-1.5952685515033167,-3.1469667593585413
-0.8159773985492151,-2.6831401030169886,-1.072397534047262,-0.9158237616168421,-1.5954244772540491,-3.146918837224142
-0.8159773985492151,-2.684242073689596,-1.069960896168844,-0.9171784559832972,-1.5953524748431605,-3.14703876176943
-0.8158934752093714,-2.6847813765155237,-1.06874925294985,-0.9179580847369593,-1.5952327887164515,-3.1469667593585413
-0.8159416357623499,-2.68539268175234,-1.0675132910357874,-0.918593708668844,-1.5952566305743616,-3.1470866839038294
-0.8158934752093714,-2.6859076658831995,-1.06628925005068,-0.919372860585348,-1.59528094926943,-3.147026602421896
-0.815857235585348,-2.68702203432192,-1.063721005116598,-0.9207757155047815,-1.5953524748431605,-3.1471224466906946
-0.8157976309405726,-2.687573258076803,-1.0624731222735804,-0.9215195814715784,-1.5951607863055628,-3.14706260362734
-0.8158095518695276,-2.688136402760641,-1.0611770788775843,-0.9221904913531702,-1.5952327887164515,-3.1471105257617396
-0.8157857100116175,-2.688700024281637,-1.0599530378924769,-0.9228981176959437,-1.5952685515033167,-3.147170368825094
-0.8157613913165491,-2.689742390309469,-1.057397190724508,-0.9243009726153772,-1.595292870198385,-3.14718205133547
-0.815749470387594,-2.6903298536883753,-1.0560525099383753,-0.9249962011920374,-1.5951488653766077,-3.1470866839038294
-0.8156655470477503,-2.690892998372213,-1.0547564665423792,-0.9256561438189905,-1.5951011816607874,-3.1471224466906946
-0.8156417051898401,-2.691468063985006,-1.0534489790545862,-0.926375691090719,-1.5951970259295862,-3.1472180525409144
-0.81561786333193,-2.692702118550436,-1.0509169737445276,-0.9277666250811976,-1.5951250235186976,-3.147193972264425
-0.81561786333193,-2.6932652632342737,-1.0496323744403284,-0.9285338560687464,-1.5951131025897425,-3.1472418943988245
-0.8155935446368616,-2.69387656847109,-1.0483606497394007,-0.9292052427874964,-1.5950172583209437,-3.147146526967184
-0.8155697027789515,-2.6944754759417933,-1.0470646063434046,-0.9299004713641565,-1.5952089468585413,-3.1472540537463587
-0.8155577818499964,-2.6956380049334925,-1.044544521962301,-0.9313038031207483,-1.595076862965719,-3.1472299734698694
-0.8155220190631312,-2.6962130705462855,-1.0433204809771937,-0.9320109526263636,-1.595076862965719,-3.1473258177386683
-0.8154857794391077,-2.696848217641012,-1.042072598134176,-0.9326704184161585,-1.594945255910055,-3.147193972264425
-0.8154380957232874,-2.69743520418276,-1.0408003965960901,-0.9333542029010218,-1.595064942036764,-3.1472659746753138
-0.8153899351703089,-2.6986215750323694,-1.0382683912860315,-0.9346964995013636,-1.5949929396258753,-3.1472299734698694
-0.8154261747943323,-2.6992209593402308,-1.0370085875140589,-0.9354279677020472,-1.5950887838946741,-3.1473498980151575
-0.8153660933123987,-2.699819866810934,-1.0357726255999964,-0.9360759894000452,-1.5949090162860315,-3.1473737398730677
-0.815401856099264,-2.700394932423727,-1.0345843474017542,-0.9367836157428187,-1.5951011816607874,-3.1473498980151575
-0.8152826468097132,-2.7015093008624476,-1.0320637861834925,-0.9380901495562952,-1.5949690977679651,-3.1474457422839563
-0.8152707258807581,-2.7020605246173304,-1.030816380177633,-0.9387858549701136,-1.5951369444476526,-3.1473498980151575
-0.815258804951803,-2.7026355902301233,-1.0295441786395472,-0.9394572416888636,-1.5949810186969202,-3.1474817434894007
-0.8152106443988245,-2.7032468954669397,-1.0282962957965296,-0.9401887098895472,-1.5951011816607874,-3.1474576632129114
-0.8151868025409144,-2.7043731848346155,-1.0258119742022913,-0.9416158835040491,-1.5950411001788538,-3.1475895086871546
-0.8151748816119593,-2.704960648213522,-1.0245159308062952,-0.942298714314596,-1.5951607863055628,-3.1474817434894007
-0.8151505629168909,-2.7055352369891565,-1.0232437292682093,-0.9429944197284144,-1.5950291792498987,-3.1475535074817103
-0.8151148001300257,-2.706134621297018,-1.0220196882831019,-0.9436782042132776,-1.5951369444476526,-3.1475775877581995
-0.8151028792010706,-2.7072256247149866,-1.0194757620440882,-0.9449728170977991,-1.5950411001788538,-3.1476014296161097
-0.8150666395770472,-2.7077768484698694,-1.0182274023639124,-0.9457524458514612,-1.5951131025897425,-3.1475775877581995
-0.8150547186480921,-2.708303753529684,-1.0169199148761194,-0.9463642279254358,-1.5949810186969202,-3.1475775877581995
-0.8150070349322718,-2.70889121690859,-1.01561147371401,-0.9470589796649378,-1.5951607863055628,-3.147649351750509
-0.8149588743792933,-2.710005585347311,-1.0130913893329065,-0.9484861532794397,-1.5950530211078089,-3.1476014296161097
-0.8149350325213831,-2.7105444113360804,-1.0118191877948206,-0.9491818586932581,-1.5951131025897425,-3.1476975123034876
-0.8149350325213831,-2.711095635090963,-1.010559384022848,-0.9498890081988733,-1.5949810186969202,-3.1475895086871546
-0.8149469534503382,-2.711658779774801,-1.0092876593219202,-0.9505484739886683,-1.5951131025897425,-3.1476734320269983
-0.814911190663473,-2.71277362505068,-1.0067675749408167,-0.9519875685321253,-1.595064942036764,-3.147625509892599
-0.8148749510394495,-2.7133005301104944,-1.0055435339557093,-0.9527066389666956,-1.595076862965719,-3.1477213541613978
-0.8147910276996058,-2.713839832936422,-1.0042594114886683,-0.9533904234515589,-1.5949214140521448,-3.147756878529684
-0.8147791067706507,-2.714391056691305,-1.0030353705035608,-0.9540498892413538,-1.5951369444476526,-3.1476853529559534
-0.8147791067706507,-2.7154458204852503,-1.0005510489093226,-0.9555123488055628,-1.5950530211078089,-3.1477213541613978
-0.8147433439837855,-2.7159364859210413,-0.9992550055133265,-0.9561961332904261,-1.595064942036764,-3.1477213541613978
-0.8146832625018519,-2.716499630604879,-0.998030964528219,-0.9568675200091761,-1.5949214140521448,-3.1477928797351282
-0.8146594206439417,-2.71705133119692,-0.9967950026141565,-0.9576471487628382,-1.595076862965719,-3.1476853529559534
-0.8146832625018519,-2.7181418577777308,-0.9943106810199183,-0.9590018431292933,-1.5950172583209437,-3.1477928797351282
-0.814587418233053,-2.7187283674823206,-0.9930265585528772,-0.9597094694720667,-1.5950291792498987,-3.147769037877218
-0.814587418233053,-2.7192557493792933,-0.991791073475973,-0.9603689352618616,-1.5948732534991663,-3.147900644932882
-0.8145993391620081,-2.719818894063131,-0.9905307928668421,-0.9611123243915003,-1.5949929396258753,-3.1478048006640833
-0.8145273367511194,-2.720921818410055,-0.9879630247699183,-0.9624913374530237,-1.5948970953570765,-3.147900644932882
-0.8145273367511194,-2.721532646809713,-0.9867027441607874,-0.963198486958639,-1.5950530211078089,-3.1478408018695276
-0.814467732106344,-2.7220595518695276,-0.9854186216937464,-0.9639061133014124,-1.5948494116412562,-3.1479366461383265
-0.8144915739642542,-2.7226713339435022,-0.9842785040484827,-0.9646132628070276,-1.5949214140521448,-3.1479488054858606
-0.8144314924823206,-2.72390586534609,-0.981722656880514,-0.9658845106707972,-1.594837490712301,-3.14799672762026
-0.8144314924823206,-2.7245047728167933,-0.9804142157184046,-0.9665921370135706,-1.59495717683901,-3.1479607264148157
-0.8143838087665003,-2.7250917593585413,-0.9791539351092737,-0.9672992865191858,-1.594837490712301,-3.1479128042804163
-0.8143957296954554,-2.7256911436664026,-0.9779418150531214,-0.9679353872882288,-1.5948613325702112,-3.1480446497546595
-0.8142998854266565,-2.7268651167498987,-0.9753983656512659,-0.9692900816546839,-1.5947893301593226,-3.148008648549215
-0.8142641226397913,-2.727452103291647,-0.9741500059710901,-0.9700091520892542,-1.5949810186969202,-3.1480684916125696
-0.8142760435687464,-2.728039566670553,-0.9729021231280726,-0.9706810156451624,-1.5948851744281214,-3.14802056947817
-0.8142760435687464,-2.728614632283346,-0.9716656843768519,-0.9714005629168909,-1.5948131720172327,-3.1480446497546595
-0.8142159620868128,-2.7297890822040003,-0.9691818396197718,-0.9728034178363245,-1.5947416464435022,-3.1480324904071253
-0.8142040411578577,-2.730352226887838,-0.9679573217975062,-0.9735348860370081,-1.5949090162860315,-3.148116413746969
-0.8141678015338343,-2.7309511343585413,-0.9666975180255335,-0.9741581122027796,-1.5948613325702112,-3.1481285730945032
-0.8141801992999476,-2.731490437184469,-0.9654014746295374,-0.974865738545553,-1.5947416464435022,-3.1480804125415247
-0.8141081968890589,-2.7326772848712366,-0.9628694693194788,-0.976196591054098,-1.5947774092303675,-3.148092571889059
-0.814120117818014,-2.7332285086261194,-0.9616215864764612,-0.9769280592547815,-1.5947893301593226,-3.148200337086813
-0.8140481154071253,-2.7338154951678675,-0.9603374640094202,-0.977539364491598,-1.5948970953570765,-3.148200337086813
-0.8140719572650355,-2.734414879475729,-0.9590771834002894,-0.9782832304583948,-1.594729248677389,-3.1481524149524134
-0.814000431691305,-2.735588852559225,-0.9565213362323206,-0.9796860853778284,-1.5948613325702112,-3.148212258015768
-0.8140123526202601,-2.7362001577960413,-0.9552729765521448,-0.9803813139544886,-1.594729248677389,-3.148212258015768
-0.8139761129962366,-2.736763302479879,-0.9539645353900355,-0.9810288588153284,-1.5948494116412562,-3.148308340703146
-0.8139165083514612,-2.737314526234762,-0.9526804129229944,-0.9817960898028772,-1.5947774092303675,-3.148224417363302
-0.8138564268695276,-2.738452736531393,-0.9501846472369593,-0.9831989447223108,-1.594837490712301,-3.148355786000387
-0.8138206640826624,-2.7390158812152308,-0.9488766829120081,-0.9838946501361292,-1.594729248677389,-3.1482961813556116
-0.8138445059405726,-2.7395551840411585,-0.9476645628558558,-0.9845779577838343,-1.5947774092303675,-3.148367706929342
-0.8137729803668421,-2.7401068846331995,-0.9463685194598597,-0.9853451887713831,-1.5948250929461878,-3.1483798662768763
-0.813761059437887,-2.7411730925189417,-0.9439204374896448,-0.9866884390460413,-1.5948494116412562,-3.1484277884112757
-0.813761059437887,-2.7417362372027796,-0.9426606337176722,-0.9873960653888147,-1.5947654883014124,-3.1483798662768763
-0.8137128988849085,-2.7422874609576624,-0.9414241949664515,-0.9880431334124964,-1.5947654883014124,-3.1484156290637415
-0.8137128988849085,-2.7428630034076136,-0.9402239958392542,-0.9888346830951136,-1.594837490712301,-3.14848763147463
-0.8136170546161097,-2.7439172903644007,-0.937728230153219,-0.9901898542987269,-1.5947416464435022,-3.14848763147463
-0.8136289755450647,-2.7444565931903284,-0.9364679495440882,-0.9909089247332972,-1.5947893301593226,-3.14848763147463
-0.8135569731341761,-2.744983975087301,-0.9352319876300257,-0.9916046301471155,-1.5946577231036585,-3.148343865071432
-0.8135693709002894,-2.7454989592181605,-0.933972183858053,-0.9922760168658655,-1.5948131720172327,-3.1485114733325403
-0.8134973684894007,-2.7466371695147913,-0.9314516226397913,-0.9937151114093226,-1.5946577231036585,-3.148451630269186
-0.813545052205221,-2.7471888701068323,-0.9301560560809534,-0.9943626562701624,-1.5948250929461878,-3.148475710545675
-0.8134854475604456,-2.74775201479067,-0.9289076964007776,-0.9950698057757776,-1.594621483479635,-3.148451630269186
-0.8134854475604456,-2.7483275572406214,-0.9276116530047815,-0.9957898298846644,-1.5947535673724573,-3.1485236326800745
-0.8134015242206019,-2.7494176069842737,-0.925079647694723,-0.9971683661090296,-1.5946577231036585,-3.1485114733325403
-0.8134015242206019,-2.7499926725970667,-0.9237473646747034,-0.9978516737567347,-1.5947893301593226,-3.148595396672384
-0.8133533636676233,-2.750496212636129,-0.9224875609027308,-0.9985235373126429,-1.5946696440326136,-3.148583475743429
-0.8133652845965784,-2.751071278248922,-0.9211671988116663,-0.999218765889303,-1.5946815649615687,-3.148595396672384
-0.8132932821856897,-2.752173725758688,-0.9186227957354944,-1.0005973021136683,-1.594621483479635,-3.1486554781543177
-0.8133052031146448,-2.752737347279684,-0.9173153082477015,-1.0013049284564417,-1.5947774092303675,-3.148679320012228
-0.8132932821856897,-2.753336254750387,-0.9159711042987269,-1.0020125547992151,-1.5946815649615687,-3.148787323628561
-0.8132570425616663,-2.753923241292135,-0.9146750609027308,-1.0027440229998987,-1.594621483479635,-3.148715321217672
-0.8131974379168909,-2.7551453749286097,-0.9120343367206019,-1.004230801259176,-1.59460956255068,-3.1488826910602015
-0.8132212797748011,-2.755744759236471,-0.9107144514666956,-1.004986588154928,-1.5946696440326136,-3.1487272421466272
-0.8131492773639124,-2.7563799063311976,-0.9094184080706995,-1.0057175795184534,-1.5947054068194788,-3.1488707701312464
-0.8131492773639124,-2.757014576588766,-0.9080622831927698,-1.0064366499530237,-1.5945857206927698,-3.148834768925802
-0.8131015936480921,-2.7582972685443323,-0.9053743521319788,-1.0079243818866175,-1.5946577231036585,-3.1488946119891565
-0.8130295912372034,-2.758932415639059,-0.903994385396139,-1.0086553732501429,-1.5946453253375452,-3.148846689854757
-0.8130295912372034,-2.7596152464496058,-0.9026144186602991,-1.0094226042376917,-1.594729248677389,-3.148810927067892
-0.8130057493792933,-2.7602866331683558,-0.9012215773211878,-1.0101788679706019,-1.5945375601397913,-3.148918692265646
-0.8129456678973597,-2.7616165320025843,-0.8984263578998011,-1.0117247740374964,-1.5946334044085901,-3.1488588492022913
-0.8129337469684046,-2.7622397581683558,-0.8970578352557581,-1.0124924818622034,-1.5945618788348597,-3.148930613194601
-0.8128975073443812,-2.762850586568014,-0.8956416288958948,-1.0133078734027308,-1.594729248677389,-3.1488707701312464
-0.8128379026996058,-2.763521973286764,-0.8942497412310999,-1.0140512625323694,-1.5945618788348597,-3.148942534123556
-0.8128259817706507,-2.764780346547262,-0.8914530912982386,-1.0155976454364222,-1.594621483479635,-3.1488588492022913
-0.8128379026996058,-2.765451256428854,-0.889989201222555,-1.0164015928851526,-1.5945494810687464,-3.1489785353290003
-0.8127420584308069,-2.766050640736715,-0.8886449972735804,-1.0171330610858362,-1.5947054068194788,-3.148966614400045
-0.8127659002887171,-2.766697708760397,-0.8872049490558069,-1.0179842154132288,-1.5945857206927698,-3.1489785353290003
-0.812753979359762,-2.7679198423968714,-0.8844807783709925,-1.019459072743551,-1.5946934858905237,-3.1490264574633997
-0.8127058188067835,-2.768554989491598,-0.8831728140460413,-1.0202744642840784,-1.594489876423971,-3.1489785353290003
-0.8126819769488733,-2.769142452870504,-0.8818047682391565,-1.0209820906268519,-1.5946453253375452,-3.1490865389453333
-0.8126581350909632,-2.7697656790362757,-0.8804605642901819,-1.0218094030963343,-1.5945618788348597,-3.1489785353290003
-0.8125861326800745,-2.7709878126727503,-0.8778207937823694,-1.023224178944723,-1.59460956255068,-3.149074379597799
-0.8125622908221644,-2.7715747992144983,-0.8764885107623499,-1.0239794890033167,-1.5945256392108362,-3.1490026156054896
-0.812537972127096,-2.7721622625934046,-0.875228230153219,-1.0246995131122034,-1.5945375601397913,-3.149146382008688
-0.8125141302691858,-2.7727492491351526,-0.8739803473102015,-1.0254185835467737,-1.594621483479635,-3.1490865389453333
-0.8125141302691858,-2.7738636175738733,-0.871460262929098,-1.0268333593951624,-1.594597641621725,-3.1492183844195765
-0.8124421278582972,-2.774402920399801,-0.8702119032489222,-1.027445141469137,-1.594501797352926,-3.1491223017321985
-0.8124783674823206,-2.774954620991842,-0.8689878622638147,-1.028116528187887,-1.594382111226217,-3.1492062250720423
-0.8124302069293421,-2.7754696051227015,-0.8678119818316858,-1.0288117567645472,-1.5945857206927698,-3.1492062250720423
-0.8124302069293421,-2.776439968739645,-0.8653758207904261,-1.030011002217428,-1.594477955495016,-3.149266306553976
-0.8123582045184534,-2.776907269154684,-0.864176098500387,-1.030670468007223,-1.5945256392108362,-3.149278227482931
-0.8123706022845667,-2.777375046406881,-0.8630955854998987,-1.031222168599264,-1.5943940321551722,-3.1492183844195765
-0.812298599873678,-2.7778666655169886,-0.86194354692568,-1.0318458716021937,-1.5945857206927698,-3.1493499914752405
-0.8123224417315882,-2.7787769476519983,-0.859687630330221,-1.0329964796649378,-1.5944536367999476,-3.1493261496173304
-0.812286678944723,-2.7792442480670374,-0.8586795965777796,-1.0335848967181605,-1.5945494810687464,-3.149409596120016
-0.8122747580157679,-2.7796877066241663,-0.8575752417193812,-1.0341957251178187,-1.594382111226217,-3.1493621508227747
-0.8123105208026331,-2.780131165181295,-0.8565791288958948,-1.034687344227926,-1.5945375601397913,-3.149433676396505
-0.8122389952289026,-2.781041447316305,-0.8545993010150355,-1.0358503500567835,-1.5944417158709925,-3.1493142286883753
-0.8121908346759241,-2.781389061604635,-0.8536389509784144,-1.0362818876849573,-1.5945256392108362,-3.149409596120016
-0.812178913746969,-2.781809155141012,-0.8527148405658167,-1.0368097464190882,-1.5943577925311487,-3.149433676396505
-0.8121193091021937,-2.7822163740741175,-0.851778809224264,-1.0373252073871058,-1.594501797352926,-3.14937407175173
-0.8121312300311487,-2.7830432097064417,-0.8499911467181605,-1.0383208433734339,-1.5943339506732386,-3.1493621508227747
-0.8121550718890589,-2.7834509054767054,-0.8491385618792933,-1.0388482252704065,-1.5945256392108362,-3.149433676396505
-0.8121069113360804,-2.783870045338766,-0.8483346144305628,-1.0392316023456019,-1.5943339506732386,-3.1494815985309046
-0.812178913746969,-2.7842653433429163,-0.8474944273578089,-1.0396879355060022,-1.5944417158709925,-3.14937407175173
-0.8120592276202601,-2.78504449525942,-0.845898453389303,-1.0406830946551722,-1.5943101088153284,-3.149421517048971
-0.8120353857623499,-2.785476032887594,-0.8450225035296839,-1.041102711354391,-1.5945137182818812,-3.149421517048971
-0.8120229879962366,-2.7858474890338343,-0.8441346327411097,-1.041558090840475,-1.5943339506732386,-3.149541441594259
-0.812047306691305,-2.786279026662008,-0.8432944456683558,-1.0420735518084925,-1.5943940321551722,-3.1494696776019495
-0.8119991461383265,-2.7870457808123987,-0.8416503111468714,-1.0429251829730433,-1.5943339506732386,-3.1495893637286585
-0.8119753042804163,-2.787441078816549,-0.8408101240741175,-1.0434287230121058,-1.594501797352926,-3.1494935194598597
-0.8119395414935511,-2.7878249327289026,-0.8399222532855433,-1.0439203421222132,-1.5943220297442835,-3.1495655218707483
-0.8119033018695276,-2.788220230733053,-0.8390701452838343,-1.0443757216082972,-1.5944536367999476,-3.149517599736349
-0.8118913809405726,-2.7889869848834437,-0.8373301664935511,-1.0454071203814905,-1.5943339506732386,-3.149649445210592
-0.8118913809405726,-2.789406124745504,-0.8364060560809534,-1.0459349791156214,-1.594501797352926,-3.149529520665304
-0.8118794600116175,-2.7897899786578577,-0.8355901877032679,-1.0463545958148401,-1.59426194826235,-3.1496134440051478
-0.8118794600116175,-2.7902215162860315,-0.8346298376666468,-1.0468462149249476,-1.5943940321551722,-3.149637285863058
-0.811831299458639,-2.7910364309894007,-0.83282977739443,-1.0478294531451624,-1.59428579012026,-3.1496732870685022
-0.811831299458639,-2.791419808064596,-0.8318818251239222,-1.0482967535602015,-1.5944417158709925,-3.1495655218707483
-0.811843220387594,-2.79187518755068,-0.8309696356402796,-1.0488727728473108,-1.594273869191305,-3.149661366139547
-0.811831299458639,-2.7922824064837855,-0.8300216833697718,-1.04936391512026,-1.5944178740130823,-3.149661366139547
-0.8117716948138636,-2.7930615584002894,-0.8282459417926233,-1.050323788319723,-1.594273869191305,-3.1497092882739466
-0.8117836157428187,-2.7934568564044397,-0.8272855917560022,-1.0508626143084925,-1.5943577925311487,-3.149625364934103
-0.8117235342608851,-2.7938769499408167,-0.8264215628253382,-1.0513785521136683,-1.5942023436175745,-3.149781052266256
-0.8117235342608851,-2.7942960898028772,-0.8254373709308069,-1.0518701712237757,-1.5943458716021937,-3.149757210408346
-0.8116996924029749,-2.7951229254352015,-0.8236611525165003,-1.052913014088766,-1.59426194826235,-3.1498292128192347
-0.8116877714740198,-2.795542065297262,-0.8227608839618128,-1.0534170309649866,-1.5943940321551722,-3.1497212092029017
-0.8116634527789515,-2.7959616819964808,-0.8218968550311487,-1.0538609663592737,-1.5942381064044397,-3.1498170534717005
-0.8116758505450647,-2.7963812986956995,-0.8209970633136194,-1.054364029561178,-1.5944059530841272,-3.149864737187521
-0.8116157690631312,-2.797243897114889,-0.819244686757223,-1.055323902760641,-1.5942981878863733,-3.149888579045431
-0.8116396109210413,-2.7976515928851526,-0.8184168974505823,-1.0558512846576136,-1.5943697134601038,-3.1498292128192347
-0.8116038481341761,-2.798046890889303,-0.8175886313067835,-1.0563305060016077,-1.5942142645465296,-3.1498051325427454
-0.8116157690631312,-2.7984302679644983,-0.816784683858053,-1.0567024389850062,-1.5943220297442835,-3.1499365011798304
-0.8115437666522425,-2.7991374174701136,-0.8151047865497034,-1.0576255957232874,-1.5942261854754847,-3.149876658116476
-0.8115199247943323,-2.7994850317584437,-0.8143246809588831,-1.058117691670553,-1.5943339506732386,-3.14991265932192
-0.8115199247943323,-2.7997964064227503,-0.8134964148150843,-1.0585129896747034,-1.594154183064596,-3.1498170534717005
-0.8114598433123987,-2.800143543873922,-0.812728230153219,-1.0589450041400355,-1.5943577925311487,-3.1499365011798304
-0.8114598433123987,-2.8008392492877405,-0.8112166563617151,-1.0597956816302698,-1.5942500273333948,-3.149888579045431
-0.8114479223834437,-2.8011630217181605,-0.8104723135577601,-1.0601800123797815,-1.5943577925311487,-3.14998442331423
-0.8114360014544886,-2.8014982382403772,-0.809727970753805,-1.0606110731707972,-1.5942500273333948,-3.149864737187521
-0.8114002386676233,-2.801810089741842,-0.8089841047870081,-1.061019245778219,-1.5943458716021937,-3.1499245802508753
-0.8113520781146448,-2.8024209181415003,-0.8075559774981897,-1.0617745558368128,-1.594273869191305,-3.149876658116476
-0.8114121595965784,-2.802744213734762,-0.806835953389303,-1.0621464888202112,-1.5942981878863733,-3.1499725023852747
-0.8113878409015101,-2.803056065236227,-0.806068245564596,-1.06256610551943,-1.5941780249225062,-3.149900738392965
-0.8114002386676233,-2.8033073584186,-0.8053839842425745,-1.0629494825946253,-1.5943458716021937,-3.1499486605273646
-0.8113639990435999,-2.8039429823504847,-0.8039920965777796,-1.0636451880084437,-1.5942981878863733,-3.149876658116476
-0.8113282362567347,-2.804230515156881,-0.8033321539508265,-1.0639804045306605,-1.59426194826235,-3.1499365011798304
-0.8113043943988245,-2.8045066038714808,-0.8026359716998499,-1.0644009749041956,-1.5941303412066858,-3.149900738392965
-0.8113043943988245,-2.8048418203936976,-0.8019998709308069,-1.064784351979391,-1.59428579012026,-3.1499365011798304
-0.8112919966327112,-2.8053930441485804,-0.8006795088397425,-1.0654919783221644,-1.5942261854754847,-3.149853054677145
-0.8112919966327112,-2.805680576954977,-0.8000434080706995,-1.0658872763263147,-1.5942023436175745,-3.1499486605273646
-0.8112443129168909,-2.805944267903463,-0.7994321028338831,-1.066235367451803,-1.5941303412066858,-3.1499365011798304
-0.811256233845846,-2.80625564256777,-0.7988198439227503,-1.06659442583193,-1.59426194826235,-3.149888579045431
-0.8112323919879358,-2.806734863911764,-0.797619644795553,-1.0672429243670862,-1.5942023436175745,-3.149888579045431
-0.8111961523639124,-2.8069985548602503,-0.7970073858844202,-1.067566219960348,-1.594273869191305,-3.149996582661764
-0.8111961523639124,-2.8072622458087366,-0.7964194456683558,-1.0679143110858362,-1.5940941015826624,-3.1499365011798304
-0.8111961523639124,-2.807526413594381,-0.7958434263812464,-1.0682500044452112,-1.5942381064044397,-3.14998442331423
-0.8111723105060022,-2.808101479207174,-0.7946432272540491,-1.0687654654132288,-1.5942500273333948,-3.149900738392965
-0.8112080732928675,-2.808305088673727,-0.7941153685199183,-1.0690529982196253,-1.59426194826235,-3.150008503590719
-0.8111842314349573,-2.8085807005511683,-0.793551270161764,-1.0694244543658655,-1.594154183064596,-3.1499486605273646
-0.811136547719137,-2.808796230946676,-0.7930110136615198,-1.0697482267962855,-1.59426194826235,-3.1499725023852747
-0.811136547719137,-2.8092759291278284,-0.7919672171222132,-1.0702880064593714,-1.5942381064044397,-3.1499486605273646
-0.8111246267901819,-2.8095153013812464,-0.7914870421039026,-1.0705402533160608,-1.5942381064044397,-3.1500805060016077
-0.811136547719137,-2.8097313086139124,-0.7909711042987269,-1.0707915464984339,-1.594142262135641,-3.1500805060016077
-0.8110883871661585,-2.80994683900942,-0.7904551664935511,-1.0710914770709437,-1.594273869191305,-3.150032345448629
-0.8110764662372034,-2.810378376637594,-0.7895310560809534,-1.0716193358050745,-1.5942261854754847,-3.1500683466540735
-0.8110526243792933,-2.810606304799215,-0.7890270392047327,-1.071894947682516,-1.594142262135641,-3.150092426930563
-0.8110526243792933,-2.8107860724078577,-0.7886307875262659,-1.072110954915182,-1.5940941015826624,-3.150140349064962
-0.8110645453082483,-2.8110135237323206,-0.7881868521319788,-1.0723746458636683,-1.594273869191305,-3.1500564257251185
-0.8110283056842249,-2.8113368193255823,-0.7873471418963831,-1.0728538672076624,-1.594166103993551,-3.1500805060016077
-0.8110526243792933,-2.81150466600527,-0.7870104948626917,-1.073141876851217,-1.5941303412066858,-3.1500564257251185
-0.8110407034503382,-2.8116725126849573,-0.7866385618792933,-1.0733454863177698,-1.5941064993487757,-3.1501882711993616
-0.8110764662372034,-2.8118165175067347,-0.7863147894488733,-1.0735133329974573,-1.5941780249225062,-3.1500683466540735
-0.8109925428973597,-2.81217605272402,-0.7856305281268519,-1.073897663746969,-1.5941780249225062,-3.150116268788473
-0.8110645453082483,-2.8122599760638636,-0.7852948347674769,-1.074029270802633,-1.5941064993487757,-3.1500805060016077
-0.8110407034503382,-2.8124035040484827,-0.7849705854998987,-1.0742209593402308,-1.5941303412066858,-3.1501641909228724
-0.8110163847552698,-2.812535587941305,-0.784682575856344,-1.0743172804461878,-1.5942142645465296,-3.1500445047961634
-0.8110283056842249,-2.812763039265768,-0.7841427961932581,-1.0746644178973597,-1.594273869191305,-3.150212113057272
-0.8109448591815394,-2.812870804463522,-0.7838905493365687,-1.0748570601092737,-1.594142262135641,-3.1500805060016077
-0.8110044638263147,-2.813002888356344,-0.7836507002459925,-1.0749405066119593,-1.5942142645465296,-3.1501763502704065
-0.8109806219684046,-2.813134495412008,-0.7834342161761683,-1.0750845114337366,-1.5942381064044397,-3.1502001921283167
-0.8109687010394495,-2.8133023420916956,-0.7829063574420374,-1.0752161184894007,-1.5943101088153284,-3.150248114262716
-0.8109806219684046,-2.8134101072894495,-0.7827261129962366,-1.075479809437887,-1.5941184202777308,-3.150140349064962
-0.8109567801104944,-2.8134940306292933,-0.7825706640826624,-1.0754321257220667,-1.594142262135641,-3.150140349064962
-0.8109448591815394,-2.813566033040182,-0.7823665777789515,-1.075564209614889,-1.594273869191305,-3.150212113057272
-0.8109687010394495,-2.813685719166891,-0.782114330922262,-1.0756600538836878,-1.594273869191305,-3.1501763502704065
-0.8109806219684046,-2.8137577215777796,-0.7819703261004847,-1.075780216847555,-1.5941064993487757,-3.1501641909228724
-0.8109687010394495,-2.813793961201803,-0.7818382422076624,-1.0757916609393519,-1.5942261854754847,-3.1501641909228724
-0.8109324614154261,-2.8138297239886683,-0.7817905584918421,-1.075780216847555,-1.5942023436175745,-3.150248114262716
-0.8109806219684046,-2.8138654867755335,-0.7815983931170862,-1.075911823903219,-1.5942381064044397,-3.150140349064962
-0.8109687010394495,-2.8138535658465784,-0.781562630330221,-1.075911823903219,-1.5940941015826624,-3.1501882711993616
-0.8109687010394495,-2.813901726399557,-0.781562630330221,-1.0758517424212855,-1.59426194826235,-3.150128428136007
-0.8109567801104944,-2.813877884541647,-0.7816227118121546,-1.0757916609393519,-1.5942142645465296,-3.1502721945392054
-0.8109448591815394,-2.813925568257467,-0.7816227118121546,-1.0758279005633753,-1.594273869191305,-3.1502001921283167
-0.8109567801104944,-2.813877884541647,-0.7816465536700647,-1.0757916609393519,-1.594273869191305,-3.1502721945392054
-0.8109687010394495,-2.813877884541647,-0.7816465536700647,-1.0758040587054651,-1.5942261854754847,-3.1502602736102503
-0.8109567801104944,-2.8138654867755335,-0.7816465536700647,-1.0758040587054651,-1.5942381064044397,-3.1502001921283167
-0.8109448591815394,-2.813877884541647,-0.7816584745990198,-1.075780216847555,-1.59426194826235,-3.150224272404806
-0.8109687010394495,-2.813925568257467,-0.7816346327411097,-1.075780216847555,-1.5942500273333948,-3.150236193333761
-0.8109925428973597,-2.813901726399557,-0.7816465536700647,-1.0758159796344202,-1.5942261854754847,-3.150212113057272
-0.8109567801104944,-2.8138654867755335,-0.7816227118121546,-1.0758159796344202,-1.5942500273333948,-3.1502001921283167
-0.8109806219684046,-2.813925568257467,-0.7816227118121546,-1.0757916609393519,-1.594273869191305,-3.150224272404806
-0.8109567801104944,-2.813901726399557,-0.7816346327411097,-1.0758040587054651,-1.59426194826235,-3.1502001921283167
-0.8109567801104944,-2.813901726399557,-0.7816346327411097,-1.0758279005633753,-1.59426194826235,-3.150224272404806
-0.8109567801104944,-2.813877884541647,-0.7815983931170862,-1.0758279005633753,-1.59426194826235,-3.1502001921283167
-0.8109448591815394,-2.813913647328512,-0.7816107908831995,-1.0758517424212855,-1.5942381064044397,-3.150248114262716
-0.8109687010394495,-2.813901726399557,-0.7816107908831995,-1.0758159796344202,-1.594273869191305,-3.150248114262716
-0.8109925428973597,-2.813913647328512,-0.7816107908831995,-1.0758517424212855,-1.59426194826235,-3.150224272404806
-0.8109324614154261,-2.813913647328512,-0.7816346327411097,-1.0758517424212855,-1.594273869191305,-3.150212113057272
-0.810920540486471,-2.813901726399557,-0.7816227118121546,-1.075899902974264,-1.59426194826235,-3.150212113057272
-0.8109687010394495,-2.813889805470602,-0.7816584745990198,-1.0759475866900843,-1.5942500273333948,-3.150236193333761
-0.8109687010394495,-2.813901726399557,-0.7816227118121546,-1.0759595076190394,-1.594273869191305,-3.150236193333761
-0.8109567801104944,-2.813913647328512,-0.7816465536700647,-1.0759595076190394,-1.5942261854754847,-3.150236193333761
-0.8109567801104944,-2.813889805470602,-0.7816465536700647,-1.076019589100973,-1.5942500273333948,-3.150224272404806
-0.8109448591815394,-2.813937489186422,-0.7816465536700647,-1.0760076681720179,-1.59426194826235,-3.150224272404806
-0.8109448591815394,-2.813937489186422,-0.7816346327411097,-1.0760076681720179,-1.5942381064044397,-3.150236193333761
-0.8109925428973597,-2.8139494101153772,-0.7816465536700647,-1.076019589100973,-1.5942261854754847,-3.150212113057272
-0.8109448591815394,-2.8139494101153772,-0.7816227118121546,-1.076031510029928,-1.594273869191305,-3.150212113057272
-0.8109567801104944,-2.8139613310443323,-0.7816346327411097,-1.0759957472430628,-1.5942500273333948,-3.150212113057272
-0.810920540486471,-2.814009491597311,-0.7816346327411097,-1.076031510029928,-1.5942381064044397,-3.150212113057272
-0.8109567801104944,-2.8139975706683558,-0.7816227118121546,-1.076019589100973,-1.5942381064044397,-3.1502001921283167
-0.8109324614154261,-2.814009491597311,-0.7816465536700647,-1.0760076681720179,-1.5942381064044397,-3.1502721945392054
-0.8108966986285608,-2.814021412526266,-0.7816465536700647,-1.076031510029928,-1.5942500273333948,-3.1501763502704065
-0.8109448591815394,-2.8139975706683558,-0.7816227118121546,-1.076043430958883,-1.5942261854754847,-3.1502001921283167
-0.8109567801104944,-2.8139737288104456,-0.7816227118121546,-1.076019589100973,-1.5942500273333948,-3.1501763502704065
-0.8109687010394495,-2.8139613310443323,-0.7816584745990198,-1.076031510029928,-1.59426194826235,-3.150236193333761
-0.8109687010394495,-2.8139856497394007,-0.7816346327411097,-1.076019589100973,-1.59426194826235,-3.1502602736102503
-0.8109324614154261,-2.8139737288104456,-0.7816346327411097,-1.076043430958883,-1.59426194826235,-3.150224272404806
-0.8109324614154261,-2.814009491597311,-0.7816584745990198,-1.076019589100973,-1.5942500273333948,-3.1502721945392054
-0.8109567801104944,-2.8139737288104456,-0.7817423979388636,-1.0759356657611292,-1.5942500273333948,-3.150248114262716
-0.8109806219684046,-2.814009491597311,-0.7818144003497522,-1.0758879820453089,-1.5942500273333948,-3.150248114262716
-0.8109567801104944,-2.8139856497394007,-0.7818263212787073,-1.075780216847555,-1.5942500273333948,-3.150212113057272
-0.8109448591815394,-2.813937489186422,-0.7820065657245081,-1.075780216847555,-1.5942500273333948,-3.150212113057272
-0.8109448591815394,-2.813817803059713,-0.7823064962970179,-1.0755398909198206,-1.5942261854754847,-3.150236193333761
-0.8109806219684046,-2.8136614004718226,-0.782534424458639,-1.0755036512957972,-1.5942500273333948,-3.150224272404806
-0.8109324614154261,-2.8135302702533167,-0.7827866713153284,-1.0752881209002894,-1.5942381064044397,-3.150236193333761
-0.8109448591815394,-2.8133862654315394,-0.7830022017108362,-1.0752523581134241,-1.59428579012026,-3.150224272404806
-0.810920540486471,-2.8130505720721644,-0.7835906187640589,-1.0749166647540491,-1.59428579012026,-3.1502001921283167
-0.8109324614154261,-2.8128350416766565,-0.7839024702655237,-1.0746644178973597,-1.59428579012026,-3.150224272404806
-0.8109324614154261,-2.812655274068014,-0.7843344847308558,-1.074472729359762,-1.5942981878863733,-3.150212113057272
-0.8109687010394495,-2.812427822743551,-0.7847307364093226,-1.0742571989642542,-1.594273869191305,-3.1501882711993616
-0.8109806219684046,-2.8120558897601526,-0.7856305281268519,-1.073681656514303,-1.594273869191305,-3.1502001921283167
-0.8109687010394495,-2.81187612215151,-0.7861345450030726,-1.073357884083883,-1.5943101088153284,-3.150212113057272
-0.8109567801104944,-2.8116844336139124,-0.7866142431842249,-1.073141876851217,-1.5942500273333948,-3.150224272404806
-0.8109567801104944,-2.8114450613604944,-0.7871664206134241,-1.0728419462787073,-1.59428579012026,-3.1501882711993616
-0.8109448591815394,-2.8110373655902308,-0.7882946173297327,-1.0722187201129358,-1.5942981878863733,-3.1500805060016077
-0.8109324614154261,-2.810809914265768,-0.7887628714190882,-1.0718711058246058,-1.5943101088153284,-3.150140349064962
-0.8109567801104944,-2.8105581442462366,-0.7893989721881312,-1.071571175252096,-1.5942981878863733,-3.150116268788473
-0.8109806219684046,-2.8102944532977503,-0.7899873892413538,-1.0712350050555628,-1.5943101088153284,-3.150140349064962
-0.8109925428973597,-2.809815231953756,-0.7911747137652796,-1.0705159346209925,-1.5942981878863733,-3.150092426930563
-0.8109925428973597,-2.80955154100527,-0.7918112913714808,-1.0701797644244593,-1.594273869191305,-3.150116268788473
-0.8109925428973597,-2.8092878500567835,-0.7923873106585901,-1.0698564688311976,-1.594273869191305,-3.150104347859518
-0.8109925428973597,-2.8090360800372522,-0.7930710951434534,-1.0695446173297327,-1.59426194826235,-3.150128428136007
-0.8109925428973597,-2.8084610144244593,-0.7943070570575159,-1.068789307271139,-1.594273869191305,-3.149996582661764
-0.8110163847552698,-2.8081491629229944,-0.7949312368976038,-1.068369213734762,-1.5942981878863733,-3.150020424519674
-0.8110283056842249,-2.807837788258688,-0.7956393400775355,-1.0680459181415003,-1.5942981878863733,-3.150032345448629
-0.8110407034503382,-2.8075502554522913,-0.7962873617755335,-1.0676863829242151,-1.594273869191305,-3.150020424519674
-0.8110526243792933,-2.8068907896624964,-0.7976678053485315,-1.066894833241598,-1.5943101088153284,-3.1499725023852747
-0.8110883871661585,-2.8066032568561,-0.7983873526202601,-1.0664752165423792,-1.59428579012026,-3.150008503590719
-0.8111246267901819,-2.806267563496725,-0.7990592161761683,-1.066127125416891,-1.59426194826235,-3.1499365011798304
-0.8110883871661585,-2.8059800306903284,-0.7998040358172815,-1.0657075087176722,-1.594273869191305,-3.1499725023852747
-0.8111003080951136,-2.8053811232196253,-0.801147762929098,-1.0648563543902796,-1.594273869191305,-3.1498292128192347
-0.811136547719137,-2.8050816694842737,-0.8018677870379847,-1.0644848982440394,-1.594273869191305,-3.149864737187521
-0.8111484686480921,-2.8048060576068323,-0.8025639692889612,-1.0640648047076624,-1.59428579012026,-3.1498411337481897
-0.8111603895770472,-2.8044822851764124,-0.8032954374896448,-1.0636208693133753,-1.594273869191305,-3.149781052266256
-0.8112080732928675,-2.8038228193866175,-0.8048198858844202,-1.062794033681051,-1.59426194826235,-3.149769131337301
-0.8111603895770472,-2.8034513632403772,-0.8055999914752405,-1.0624221006976526,-1.59428579012026,-3.149757210408346
-0.8112080732928675,-2.8031280676471155,-0.8063676992999476,-1.0619424025165003,-1.594273869191305,-3.1497331301318567
-0.8112204710589808,-2.8027685324298304,-0.8071721235858362,-1.061462704335348,-1.59428579012026,-3.1497331301318567
-0.8112204710589808,-2.802061382924215,-0.8088277021991175,-1.0605514685260218,-1.5942981878863733,-3.1497212092029017
-0.8112323919879358,-2.8017261664019983,-0.8096202055560511,-1.0600722471820276,-1.5943101088153284,-3.1496973673449915
-0.8112800757037562,-2.8013065497027796,-0.8105080763446253,-1.059580151234762,-1.5942981878863733,-3.1496852079974573
-0.8113043943988245,-2.8009350935565394,-0.8113601843463343,-1.0591490904437464,-1.59428579012026,-3.1496732870685022
-0.8113639990435999,-2.800143543873922,-0.8131244818316858,-1.058129612599508,-1.5943220297442835,-3.149649445210592
-0.8113639990435999,-2.79974872270693,-0.814000431691305,-1.0576255957232874,-1.59428579012026,-3.1495893637286585
-0.8113401571856897,-2.7993291060077112,-0.814864460621969,-1.057122055684225,-1.5942981878863733,-3.1496012846576136
-0.8114240805255335,-2.798933808003561,-0.8158248106585901,-1.0565226713763636,-1.5942981878863733,-3.1495893637286585
-0.8114360014544886,-2.7981188933001917,-0.8176129500018519,-1.055551830922262,-1.5943101088153284,-3.149541441594259
-0.8114717642413538,-2.7977355162249964,-0.8185485045062464,-1.0549758116351526,-1.5942981878863733,-3.1494935194598597
-0.8114960829364222,-2.797351662312643,-0.8195446173297327,-1.0544241110431116,-1.5942981878863733,-3.1494935194598597
-0.8114841620074671,-2.796896282826559,-0.8205168882953089,-1.053896729146139,-1.5943101088153284,-3.1494935194598597
-0.8115318457232874,-2.7960813681231897,-0.8224728743182581,-1.0527694861041468,-1.594273869191305,-3.1494575182544153
-0.8115556875811976,-2.7956140677081507,-0.8234446684466761,-1.0522421042071741,-1.5943339506732386,-3.149433676396505
-0.8116038481341761,-2.7951586882220667,-0.8245013395892542,-1.0517028013812464,-1.5943101088153284,-3.1494455973254603
-0.8115800062762659,-2.7947033087359827,-0.8254731337176722,-1.0510667006122034,-1.5942981878863733,-3.1493857542621058
-0.8116634527789515,-2.7937687079059046,-0.8274653593646448,-1.0499995390521448,-1.5943220297442835,-3.1493621508227747
-0.8116758505450647,-2.7933133284198206,-0.8284853140460413,-1.04936391512026,-1.5943101088153284,-3.1493380705462855
-0.8116515318499964,-2.7928336302386683,-0.8294690291034144,-1.0488608519183558,-1.5943697134601038,-3.149290148411886
-0.8116758505450647,-2.792426411305563,-0.8305257002459925,-1.0483325163470667,-1.5943220297442835,-3.1493142286883753
-0.8117473761187952,-2.791539971028463,-0.8325536886798304,-1.0471699873553675,-1.5943220297442835,-3.1492062250720423
-0.8117473761187952,-2.7910965124713343,-0.8335736433612269,-1.046593968068258,-1.5943101088153284,-3.149194304143087
-0.8117473761187952,-2.790629212056295,-0.8346298376666468,-1.045995060597555,-1.5943577925311487,-3.1492303053485315
-0.8117473761187952,-2.7901857534991663,-0.8356621901141565,-1.0454190413104456,-1.5943339506732386,-3.149182383214132
-0.8117955366717737,-2.78927451768984,-0.8377984205829065,-1.044232193623678,-1.5943458716021937,-3.1491344610797327
-0.811831299458639,-2.7888196150409144,-0.8387940565692347,-1.0437043348895472,-1.594382111226217,-3.1491223017321985
-0.8118794600116175,-2.7883880774127405,-0.8398020903216761,-1.0430448690997522,-1.5943458716021937,-3.1490865389453333
-0.8119152227984827,-2.7879326979266565,-0.8408339659320276,-1.0424335638629358,-1.5943940321551722,-3.1490865389453333
-0.8119395414935511,-2.78699762025942,-0.8429468313800257,-1.04124623933901,-1.5943577925311487,-3.1490264574633997
-0.8119633833514612,-2.7865422407733362,-0.8439543882953089,-1.0406349341021937,-1.5943577925311487,-3.1489906946765345
-0.8119753042804163,-2.7860873381244105,-0.845034424458639,-1.0400474707232874,-1.594382111226217,-3.14895469347109
-0.8119753042804163,-2.7856314818011683,-0.8461507002459925,-1.0394356886493128,-1.594382111226217,-3.148966614400045
-0.8120353857623499,-2.78469688097109,-0.8482745329486292,-1.038248364125387,-1.594382111226217,-3.148930613194601
-0.8120229879962366,-2.784229580556051,-0.8493669668780726,-1.0376489798175257,-1.5944059530841272,-3.1488707701312464
-0.812047306691305,-2.7837980429278772,-0.850494686757223,-1.0370257536517542,-1.5943940321551722,-3.148846689854757
-0.8120592276202601,-2.7832592169391077,-0.8515751997577112,-1.0363901297198694,-1.594382111226217,-3.1488588492022913
-0.8121193091021937,-2.782276455556051,-0.8537948767291468,-1.0351670424090784,-1.5943577925311487,-3.148799244557516
-0.8121550718890589,-2.7817848364459437,-0.8549588362323206,-1.0344956556903284,-1.5943940321551722,-3.1487751642810267
-0.8121193091021937,-2.781269375477926,-0.8559911886798304,-1.0338242689715784,-1.5943940321551722,-3.1487272421466272
-0.812178913746969,-2.7808144728290003,-0.8571913878070276,-1.033236328755514,-1.5944178740130823,-3.1487394014941614
-0.8122270742999476,-2.77979547182192,-0.8594592253314417,-1.0319536367999476,-1.5944059530841272,-3.148703400288717
-0.8122628370868128,-2.779292408620016,-0.8606117407428187,-1.0313900152789515,-1.594382111226217,-3.148691240941183
-0.8122628370868128,-2.778848950062887,-0.861739460621969,-1.030694309865133,-1.5944059530841272,-3.148583475743429
-0.8123105208026331,-2.7783573309527796,-0.8628314177142542,-1.0301430861102503,-1.5943940321551722,-3.148595396672384
-0.8123105208026331,-2.7774108091937464,-0.8650758902179163,-1.0288241545306605,-1.5943697134601038,-3.1486075560199183
-0.8123706022845667,-2.776907269154684,-0.8661678473102015,-1.0282247702227991,-1.5943940321551722,-3.148571554814474
-0.8123582045184534,-2.7763803640948694,-0.867284123097555,-1.0275653044330042,-1.5944059530841272,-3.1484995524035853
-0.8123706022845667,-2.7759249846087855,-0.8684237639056605,-1.026881519948141,-1.5944536367999476,-3.1484397093402308
-0.812418286000387,-2.7748826185809534,-0.8706443945514124,-1.0255864302264612,-1.5943940321551722,-3.1483917872058313
-0.8124421278582972,-2.7744153181659144,-0.8717358748065394,-1.0249269644366663,-1.5944417158709925,-3.148367706929342
-0.8124540487872522,-2.773923699055807,-0.872864071522848,-1.0243271032916468,-1.5943940321551722,-3.1483798662768763
-0.8124902884112757,-2.773444477711813,-0.8739684263812464,-1.0236075560199183,-1.5944297949420374,-3.148308340703146
-0.8125260511981409,-2.7725094000445765,-0.8762248198138636,-1.0223010222064417,-1.5944178740130823,-3.1482601801501673
-0.8125622908221644,-2.7720301787005823,-0.8772929350482386,-1.0216534773456019,-1.5944417158709925,-3.148212258015768
-0.8125260511981409,-2.771527115498678,-0.878432575856344,-1.0210898558246058,-1.5943940321551722,-3.1481884161578577
-0.8125980536090296,-2.7710354963885706,-0.8795726935016077,-1.0204065481769007,-1.5944059530841272,-3.1481764952289026
-0.8125861326800745,-2.770052735005514,-0.8818166891681116,-1.0190871397601526,-1.5944297949420374,-3.148116413746969
-0.8125861326800745,-2.7695377508746546,-0.8829086462603968,-1.0184395948993128,-1.5944178740130823,-3.148092571889059
-0.8126462141620081,-2.76901084581484,-0.8840249220477503,-1.0178163687335413,-1.5944536367999476,-3.1480565706836146
-0.8126700560199183,-2.7684829870807093,-0.8852251211749476,-1.01721698442568,-1.5944178740130823,-3.1480565706836146
-0.8127301375018519,-2.7674883047686976,-0.8874571959124964,-1.0159342924701136,-1.5944297949420374,-3.1480446497546595
-0.812753979359762,-2.767033402119772,-0.888585392628805,-1.0152619520770472,-1.5944297949420374,-3.147984568272726
-0.8127778212176722,-2.7665417830096644,-0.8897374312030237,-1.014651123677389,-1.5943940321551722,-3.147972647343771
-0.8127301375018519,-2.76606256166567,-0.8907936255084437,-1.014099423085348,-1.5944178740130823,-3.1479247252093714
-0.8127659002887171,-2.765115563069479,-0.8928816954242151,-1.01280385652651,-1.5944178740130823,-3.147900644932882
-0.8128135840045374,-2.7646005789386194,-0.8941176573382776,-1.012216869984762,-1.5944536367999476,-3.147900644932882
-0.8128259817706507,-2.7641332785235804,-0.8952339331256312,-1.0115931669818323,-1.5944059530841272,-3.147888724003927
-0.8128498236285608,-2.763653580342428,-0.896313492451803,-1.0109456221209925,-1.5944536367999476,-3.1478527227984827
-0.8128617445575159,-2.762730900441305,-0.8984859625445765,-1.0097821394549769,-1.5944297949420374,-3.1478169600116175
-0.8128855864154261,-2.7622273604022425,-0.8995659987079065,-1.0091946760760706,-1.5944536367999476,-3.147769037877218
-0.8129218260394495,-2.7617486158954065,-0.9006579558001917,-1.0086553732501429,-1.5944297949420374,-3.1477928797351282
-0.8129218260394495,-2.7612813154803675,-0.9016178289996546,-1.0079839865313929,-1.5944536367999476,-3.147769037877218
-0.8129456678973597,-2.7603824774371546,-0.9037302176104944,-1.0068686644183558,-1.5944417158709925,-3.1476853529559534
-0.8129695097552698,-2.7599509398089808,-0.9047263304339808,-1.0062091986285608,-1.5944536367999476,-3.1476975123034876
-0.8130176703082483,-2.7594836393939417,-0.9058058897601526,-1.0056818167315882,-1.5944655577289026,-3.1476853529559534
-0.8130534330951136,-2.759064499531881,-0.9068263212787073,-1.0050824324237269,-1.5944536367999476,-3.1476853529559534
-0.813089672719137,-2.7581413427936,-0.9089143911944788,-1.0038593451129358,-1.594477955495016,-3.147613588963644
-0.8130415121661585,-2.757685963307516,-0.9100068251239222,-1.0032475630389612,-1.5944059530841272,-3.1475656668292444
-0.8131135145770472,-2.757230583821432,-0.9110625425921839,-1.0026481787311,-1.5944178740130823,-3.1475535074817103
-0.8131373564349573,-2.756763283406393,-0.9120824972735804,-1.0020368734942835,-1.5944536367999476,-3.1475535074817103
-0.8131492773639124,-2.75584060350527,-0.9141109625445765,-1.0008013884173792,-1.5944417158709925,-3.147541586552755
-0.8131731192218226,-2.7553251425372522,-0.9151909987079065,-1.0002740065204065,-1.5944655577289026,-3.147517744694845
-0.8132212797748011,-2.7548940817462366,-0.9162591139422815,-0.9996627012835901,-1.594477955495016,-3.1474576632129114
-0.813209358845846,-2.7544267813311976,-0.9172909895526331,-0.9990747610675257,-1.5944536367999476,-3.1474338213550013
-0.8132570425616663,-2.7535041014300745,-0.9194391409503382,-0.9978278318988245,-1.5944297949420374,-3.1474457422839563
-0.8132689634906214,-2.7530368010150355,-0.9205792585956019,-0.9972160498248499,-1.5944655577289026,-3.147409741078512
-0.8132570425616663,-2.7525575796710413,-0.9217074553119105,-0.9966409842120569,-1.5944417158709925,-3.1473618189441126
-0.8132813612567347,-2.752089802418844,-0.9228351751910608,-0.995981518422262,-1.5944655577289026,-3.147385899220602
-0.813329044972555,-2.7511075178729456,-0.925079647694723,-0.9946983496295374,-1.5944655577289026,-3.147313896809713
-0.813329044972555,-2.750603977833883,-0.9262555281268519,-0.9939668814288538,-1.5944536367999476,-3.147277895604269
-0.8133652845965784,-2.750112835560934,-0.9273832480060022,-0.9934151808368128,-1.594501797352926,-3.147290054951803
-0.8133652845965784,-2.7496212164508265,-0.9285114447223108,-0.9926956335650843,-1.5944417158709925,-3.1472659746753138
-0.8134015242206019,-2.7485907713519495,-0.9308641592608851,-0.9914010206805628,-1.5944655577289026,-3.1472061316119593
-0.8134492079364222,-2.74807578722109,-0.9320634047137659,-0.9906576315509241,-1.594477955495016,-3.147193972264425
-0.8134372870074671,-2.7475722471820276,-0.9332640806781214,-0.9899981657611292,-1.5944655577289026,-3.14718205133547
-0.8134854475604456,-2.747044865285055,-0.9344638029681605,-0.9893024603473108,-1.5944536367999476,-3.1471224466906946
-0.8135569731341761,-2.7459781805621546,-0.9369481245623987,-0.9879234472857874,-1.594477955495016,-3.147050682698385
-0.8135212103473108,-2.7453911940204065,-0.938183609639303,-0.9871919790851038,-1.594501797352926,-3.14706260362734
-0.8135693709002894,-2.7448280493365687,-0.9394438902484339,-0.9864967505084437,-1.594477955495016,-3.147050682698385
-0.8135812918292444,-2.744288746510641,-0.9406922499286097,-0.9857772032367151,-1.594477955495016,-3.1470146814929407
-0.8136289755450647,-2.743078056965963,-0.9432247320758265,-0.984326187764303,-1.594501797352926,-3.1468947569476526
-0.8136771360980433,-2.7425034681903284,-0.944472614918844,-0.9836066404925745,-1.5945137182818812,-3.146906916295187
-0.8136771360980433,-2.7419403235064905,-0.9457805792437952,-0.9829233328448694,-1.594489876423971,-3.1468828360186976
-0.8137491385089319,-2.7413647810565394,-0.9471128622638147,-0.9821203390704554,-1.5944655577289026,-3.146822992955343
-0.8137968222247522,-2.7402146498309534,-0.949716869984762,-0.9806211630450647,-1.594501797352926,-3.1467390696154993
-0.8137729803668421,-2.7396510283099573,-0.9510605970965784,-0.979865852986471,-1.594477955495016,-3.1467509905444544
-0.8138087431537073,-2.7390759626971644,-0.9523690382586878,-0.979194466267721,-1.5945256392108362,-3.14671498933901
-0.8138206640826624,-2.7385485808001917,-0.953688923512594,-0.978438679371969,-1.5945137182818812,-3.1466434637652796
-0.8138683477984827,-2.737338368092672,-0.9564250151263636,-0.9769519011126917,-1.5945137182818812,-3.1466315428363245
-0.8138802687274378,-2.7367752234088343,-0.9577811400042933,-0.9762204329120081,-1.594501797352926,-3.1465237776385706
-0.8138683477984827,-2.736163918172018,-0.9591010252581995,-0.9755013624774378,-1.5945618788348597,-3.1465356985675257
-0.8139045874225062,-2.73560077348818,-0.9604094664203089,-0.9747698942767542,-1.594477955495016,-3.1465116182910364
-0.8139761129962366,-2.734474484120504,-0.9630134741412562,-0.9732468763934534,-1.5945137182818812,-3.146439854298727
-0.8139761129962366,-2.7339113394366663,-0.9642975966082972,-0.9725511709796351,-1.5945618788348597,-3.1464038530932825
-0.8140361944781702,-2.7333243528949183,-0.9655574003802698,-0.9717243353473108,-1.5945137182818812,-3.1464038530932825
-0.8140361944781702,-2.732760731373922,-0.9669373671161097,-0.9710529486285608,-1.5945375601397913,-3.146355930958883
-0.8141081968890589,-2.7315147558795374,-0.9694579283343714,-0.9695175329791468,-1.5945494810687464,-3.1463199297534388
-0.8140962759601038,-2.7309511343585413,-0.9707897345172327,-0.9688699881183069,-1.5945737997638147,-3.1462720076190394
-0.8140962759601038,-2.7302921454059046,-0.9720495382892054,-0.9680431524859827,-1.594597641621725,-3.146248165761129
-0.8140962759601038,-2.7297051588641565,-0.9733699003802698,-0.9673593680011194,-1.59460956255068,-3.1462720076190394
-0.8142040411578577,-2.7285431067096155,-0.9760339895831507,-0.9658487478839319,-1.59460956255068,-3.1461761633502405
-0.8141801992999476,-2.7279675642596644,-0.9772818724261683,-0.9650691191302698,-1.5946334044085901,-3.1461642424212855
-0.814239803944723,-2.7274282614337366,-0.9786384741412562,-0.9643138090716761,-1.594597641621725,-3.146140162144796
-0.8142641226397913,-2.72681695619692,-0.9800065199481409,-0.9635942617999476,-1.594621483479635,-3.146140162144796
-0.8142879644977015,-2.725726906453268,-0.9826944510089319,-0.9620354811297815,-1.5946453253375452,-3.146080557500021
-0.8143237272845667,-2.72513991991152,-0.9840863386737269,-0.9612439314471644,-1.59460956255068,-3.1460686365710657
-0.8143356482135218,-2.7245643774615687,-0.985394302998678,-0.9604771772967737,-1.594621483479635,-3.145996872578756
-0.8143356482135218,-2.723977867756979,-0.9867623488055628,-0.9597094694720667,-1.594597641621725,-3.1460326353656214
-0.8143957296954554,-2.7228630224811,-0.9894388357745569,-0.9582226912127894,-1.594597641621725,-3.1459489504443567
-0.8143838087665003,-2.7222517172442835,-0.9907591978656214,-0.9574311415301722,-1.594597641621725,-3.1459367910968226
-0.8144195715533655,-2.721736256276266,-0.9921148459063929,-0.9566157499896448,-1.59460956255068,-3.1459129492389124
-0.814467732106344,-2.721161190663473,-0.993410889302389,-0.955848519002096,-1.5945857206927698,-3.1459129492389124
-0.8145397345172327,-2.720022980366842,-0.9960511366473597,-0.9543617407428187,-1.5945618788348597,-3.1458049456225794
-0.8145397345172327,-2.7193997542010706,-0.9973953405963343,-0.9536178747760218,-1.594597641621725,-3.1458049456225794
-0.814575497304098,-2.718776528035299,-0.9987395445453089,-0.9528387228595179,-1.594597641621725,-3.145769182835714
-0.814587418233053,-2.718189541493551,-1.0000832716571253,-0.9520834128009241,-1.5945618788348597,-3.1457210222827356
-0.8146355787860315,-2.7169912497149866,-1.002711598073141,-0.9505723158465784,-1.594621483479635,-3.1456852594958704
-0.8146355787860315,-2.7164161841021937,-1.004007641469137,-0.9497812430011194,-1.5945857206927698,-3.145625178013937
-0.8146951834308069,-2.715864960347311,-1.005399529133932,-0.949073616658346,-1.594597641621725,-3.145625178013937
-0.8146951834308069,-2.715277973805563,-1.006707493458883,-0.9483421484576624,-1.59460956255068,-3.1455772558795374
-0.8147910276996058,-2.7141392866717737,-1.009491268788473,-0.9468672911273401,-1.5945737997638147,-3.145529810582296
-0.8147791067706507,-2.7135642210589808,-1.0108354727374476,-0.9461239019977015,-1.5945618788348597,-3.1454697291003626
-0.8148029486285608,-2.7130253950702112,-1.0122516790973108,-0.9453929106341761,-1.594597641621725,-3.145493809376852
-0.8148153463946741,-2.71242601076235,-1.013547722493307,-0.9447210470782679,-1.59460956255068,-3.1454339663134974
-0.8148630301104944,-2.711287323628561,-1.0161998907672327,-0.9432461897479456,-1.594597641621725,-3.145386044179098
-0.8148391882525843,-2.710748020802633,-1.017519776021139,-0.9424904028521937,-1.594621483479635,-3.145397965108053
-0.814923111592428,-2.7101615110980433,-1.0188277403460901,-0.9417474905597132,-1.5946334044085901,-3.1453140417682093
-0.8148868719684046,-2.7096102873431605,-1.0201838652240198,-0.9409921805011194,-1.5945737997638147,-3.14528996149172
-0.8149588743792933,-2.7084477583514612,-1.0227521101581019,-0.9394453207599085,-1.594597641621725,-3.145254198704855
-0.8149951140033167,-2.707884136830465,-1.0240839163409632,-0.9386900107013147,-1.594621483479635,-3.1452420393573206
-0.8150070349322718,-2.70728570619692,-1.0253680388080042,-0.9380419890033167,-1.59460956255068,-3.1452301184283655
-0.8150189558612269,-2.706722084675924,-1.02661639848818,-0.9372990767108362,-1.5945737997638147,-3.145170275365011
-0.8150308767901819,-2.7055352369891565,-1.0291484037982386,-0.935836140309469,-1.594597641621725,-3.1450982729541224
-0.815042797719137,-2.704960648213522,-1.0303481260882776,-0.9350808302508753,-1.594597641621725,-3.1451101938830774
-0.8150790373431605,-2.7043731848346155,-1.0315840880023401,-0.934397045766012,-1.59460956255068,-3.145050350819723
-0.8151028792010706,-2.703833882008688,-1.0328200499164026,-0.9336417357074183,-1.59460956255068,-3.1449905077563685
-0.8151748816119593,-2.702719513569967,-1.0353882948504847,-0.9322026411639612,-1.594597641621725,-3.144942824040548
-0.8151987234698694,-2.702132527028219,-1.0366242567645472,-0.9314716498004358,-1.594621483479635,-3.144918982182638
-0.8152106443988245,-2.7015932242022913,-1.037872616444723,-0.9307521025287073,-1.594597641621725,-3.144930903111593
-0.815258804951803,-2.7010420004474085,-1.0391443411456507,-0.9299843947040003,-1.594621483479635,-3.1448949019061487
-0.8152945677386683,-2.699975315724508,-1.041628662739889,-0.9286297003375452,-1.5946334044085901,-3.1448589007007044
-0.8153184095965784,-2.6993888060199183,-1.042900864277975,-0.9279344717608851,-1.5945857206927698,-3.1448589007007044
-0.8153184095965784,-2.6988375822650355,-1.044112507496969,-0.9272149244891565,-1.594597641621725,-3.14479905763735
-0.8153303305255335,-2.6982739607440394,-1.0453971068011683,-0.9264715353595179,-1.59460956255068,-3.144691292439596
-0.8153780142413538,-2.6972315947162073,-1.0479767958270472,-0.9250682036029261,-1.594621483479635,-3.144703213368551
-0.815401856099264,-2.6967642943011683,-1.0492008368121546,-0.9244092146502894,-1.5946334044085901,-3.144691292439596
-0.8154738585101526,-2.6962130705462855,-1.050436798726217,-0.9237616697894495,-1.5946334044085901,-3.1446433703051966
-0.8154738585101526,-2.6956737677203577,-1.0517328421222132,-0.9230182806598108,-1.594621483479635,-3.1446552912341517
-0.8154977003680628,-2.694559399281637,-1.0542410055743616,-0.9216631094561976,-1.5946334044085901,-3.144559446965353
-0.8155220190631312,-2.6940205732928675,-1.0554412047015589,-0.9209077993976038,-1.5946577231036585,-3.1445353666888636
-0.8155339399920862,-2.6934450308429163,-1.0567248503314417,-0.9202483336078089,-1.5946453253375452,-3.1445234457599085
-0.8155339399920862,-2.6928699652301233,-1.0579727331744593,-0.9195049444781702,-1.59460956255068,-3.1445115248309534
-0.81561786333193,-2.6917675177203577,-1.0604212919818323,-0.9180658499347132,-1.5946334044085901,-3.1444879213916224
-0.8156417051898401,-2.6912644545184534,-1.0617049376117151,-0.9173944632159632,-1.594621483479635,-3.1444159189807337
-0.81561786333193,-2.690748993550436,-1.0628693739520472,-0.9167230764972132,-1.5946453253375452,-3.144344154988424
-0.8156774679767054,-2.690173927937643,-1.0640690962420862,-0.9159677664386194,-1.5946334044085901,-3.1443920771228235
-0.8157256285296839,-2.6891430060016077,-1.0665891806231897,-0.9145525137530726,-1.5946577231036585,-3.144344154988424
-0.8157017866717737,-2.6885679403888147,-1.0678256193744105,-0.9138811270343226,-1.5946453253375452,-3.1442840735064905
-0.8157733122455042,-2.6879809538470667,-1.0690730253802698,-0.9131739775287073,-1.5946453253375452,-3.1442840735064905
-0.8157857100116175,-2.6874173323260706,-1.0703333059894007,-0.9124544302569788,-1.59460956255068,-3.1442721525775355
-0.8158095518695276,-2.6863511244403284,-1.072840992604391,-0.9109557310687464,-1.5946453253375452,-3.1442483107196253
-0.8158696333514612,-2.6857879797564905,-1.0741732756244105,-0.9103320280658167,-1.5946696440326136,-3.1441882292376917
-0.815857235585348,-2.6852968374835413,-1.075433079396383,-0.9095762411700647,-1.5946577231036585,-3.1441643873797815
-0.8158815542804163,-2.6847575346576136,-1.0767291227923792,-0.9088571707354944,-1.59460956255068,-3.144116465245382
-0.8159416357623499,-2.6837146917926233,-1.0793097654925745,-0.9074061552630823,-1.5946577231036585,-3.144128386174337
-0.8159292379962366,-2.68311578432192,-1.0806053320514124,-0.9067471663104456,-1.5946696440326136,-3.1440563837634485
-0.815953556691305,-2.6825764814959925,-1.0819018522845667,-0.9060276190387171,-1.5946934858905237,-3.144104305897848
-0.8159773985492151,-2.6819894949542444,-1.0831854979144495,-0.9053080717669886,-1.5946696440326136,-3.144080464039938
-0.8160255591021937,-2.6808508078204554,-1.0857294241534632,-0.9038451353656214,-1.5946934858905237,-3.1439605394946497
-0.8160255591021937,-2.680239979420797,-1.0870016256915491,-0.9031975905047815,-1.5946696440326136,-3.1439605394946497
-0.8160255591021937,-2.6796887556659144,-1.0882018248187464,-0.9023821989642542,-1.5947173277484339,-3.143972460423605
-0.8160975615130823,-2.6791613737689417,-1.0894735495196741,-0.9016984144793909,-1.5946934858905237,-3.1439486185656946
-0.8161333242999476,-2.678023163472311,-1.0919693152057093,-0.9002121130572718,-1.5946934858905237,-3.143877092991964
-0.8161571661578577,-2.6774962584124964,-1.093241039906637,-0.8994925657855433,-1.5946577231036585,-3.1438291708575647
-0.8161571661578577,-2.676873032246725,-1.0944417158709925,-0.8987486998187464,-1.594621483479635,-3.1438050905810755
-0.8162053267108362,-2.676321808491842,-1.0957377592669886,-0.8980420271502894,-1.5946696440326136,-3.1437931696521204
-0.8162172476397913,-2.675159756337301,-1.098234001790182,-0.8966386953936976,-1.5947054068194788,-3.14384109178652
-0.8162773291217249,-2.6746442953692835,-1.099541489277975,-0.8958833853351038,-1.5946934858905237,-3.1437931696521204
-0.8163369337665003,-2.6741049925433558,-1.1007416884051722,-0.8951643149005335,-1.5947054068194788,-3.1437211672412317
-0.8163250128375452,-2.673565689717428,-1.1020014921771448,-0.8944442907916468,-1.5946815649615687,-3.143733326588766
-0.8163612524615687,-2.6724875609027308,-1.1045339743243616,-0.8930419127093714,-1.5946815649615687,-3.143733326588766
-0.8163970152484339,-2.6719239393817347,-1.1057937780963343,-0.8923824469195765,-1.5947173277484339,-3.143649403248922
-0.8163970152484339,-2.67139703432192,-1.107065502797262,-0.8916266600238245,-1.5947173277484339,-3.143625322972433
-0.8164690176593226,-2.670821491871969,-1.1082418600665491,-0.8909433523761194,-1.594729248677389,-3.1436014811145228
-0.8164928595172327,-2.6697076002704065,-1.110809628163473,-0.8895166555987757,-1.5947654883014124,-3.143517557774679
-0.8164928595172327,-2.669108215962545,-1.112105671559469,-0.8887847105609339,-1.5947654883014124,-3.143541399632589
-0.8165047804461878,-2.668508831654684,-1.1133058706866663,-0.8880894819842737,-1.5946934858905237,-3.1434934774981897
-0.8165410200702112,-2.6679700056659144,-1.1146014372455042,-0.8873222509967249,-1.5947774092303675,-3.1434934774981897
-0.8165648619281214,-2.6667960325824183,-1.1171334425555628,-0.8859675566302698,-1.5947173277484339,-3.1433616320239466
-0.8166130224810999,-2.666304890309469,-1.1183694044696253,-0.8852360884295862,-1.5947173277484339,-3.143385712300436
-0.8166130224810999,-2.665753189717428,-1.1195820013629358,-0.8845885435687464,-1.5947535673724573,-3.1433380285846155
-0.8167088667498987,-2.6652262846576136,-1.1208894888507288,-0.8838565985309046,-1.5947654883014124,-3.143290106450216
-0.8166964689837855,-2.6641600767718714,-1.123349968587057,-0.8824780623065394,-1.5947416464435022,-3.143254343663351
-0.8167327086078089,-2.663572613392965,-1.1245978514300745,-0.8817103544818323,-1.594729248677389,-3.1432302633868616
-0.8167684713946741,-2.663069550191061,-1.125845734273092,-0.8810752073871058,-1.5947654883014124,-3.143182341252462
-0.8167327086078089,-2.6624940077411097,-1.1270816961871546,-0.8803675810443323,-1.5947416464435022,-3.143134419118063
-0.816744629536764,-2.6614158789264124,-1.129577938710348,-0.8789408842669886,-1.5947654883014124,-3.1431103388415735
-0.816864315663473,-2.660900417958395,-1.1308377424823206,-0.8781617323504847,-1.5947654883014124,-3.1429906527148646
-0.8168285528766077,-2.660349194203512,-1.1321333090411585,-0.8774302641498011,-1.594729248677389,-3.143026653920309
-0.8168285528766077,-2.6598461310016077,-1.133345905934469,-0.8766983191119593,-1.594729248677389,-3.1429551283465784
-0.8168886343585413,-2.6587799231158655,-1.1359136740313929,-0.875319782887594,-1.5947654883014124,-3.1428712050067347
-0.8169119993792933,-2.6582043806659144,-1.1371977964984339,-0.8745759169207972,-1.5947416464435022,-3.1428712050067347
-0.8169477621661585,-2.6576769987689417,-1.1384337584124964,-0.8739169279681605,-1.594729248677389,-3.1428476015674036
-0.8169477621661585,-2.657125775014059,-1.139681641255514,-0.8731735388385218,-1.5947535673724573,-3.1428235212909144
-0.816995922719137,-2.655987564717428,-1.142237965260641,-0.87177020708193,-1.5948012510882776,-3.1427157560931605
-0.8170078436480921,-2.655436340962545,-1.1435216108905237,-0.8710153738604944,-1.5947654883014124,-3.142679754887716
-0.8170440832721155,-2.654849354420797,-1.144709889088766,-0.8703196684466761,-1.5947535673724573,-3.1427157560931605
-0.8170679251300257,-2.6543219725238245,-1.1460054556476038,-0.869540039693014,-1.5947893301593226,-3.1426318327533167
-0.8171036879168909,-2.6532557646380823,-1.1485493818866175,-0.8681014219867151,-1.5947893301593226,-3.1426199118243616
-0.817115608845846,-2.652716938649313,-1.1498096624957483,-0.8673942724810999,-1.5947774092303675,-3.1425839106189173
-0.8171876112567347,-2.65216571489443,-1.1511176268206995,-0.8667100111590784,-1.5947535673724573,-3.1425958315478724
-0.8171756903277796,-2.6516264120685022,-1.1523659865008753,-0.8659909407245081,-1.5947654883014124,-3.1425119082080286
-0.8172114531146448,-2.6505358854876917,-1.1548493544207972,-0.8645637671100062,-1.5947535673724573,-3.1424999872790735
-0.8172114531146448,-2.649972740803854,-1.1560733954059046,-0.8638089338885706,-1.5947774092303675,-3.1424880663501185
-0.8172476927386683,-2.649421517048971,-1.1573575178729456,-0.8631256262408655,-1.5947893301593226,-3.14241606393923
-0.8172596136676233,-2.6488221327411097,-1.1586054007159632,-0.8623698393451136,-1.5947654883014124,-3.142427984868185
-0.8173196951495569,-2.647792164479391,-1.1611374060260218,-0.8609793821917933,-1.5947893301593226,-3.14234429994692
-0.8173554579364222,-2.647240940724508,-1.1624091307269495,-0.8603194395648401,-1.5947654883014124,-3.142332140599386
-0.8173673788653772,-2.646677319203512,-1.163633171712057,-0.8596237341510218,-1.5947893301593226,-3.1423562208758753
-0.8173792997943323,-2.6461380163775843,-1.1648934523211878,-0.8588326613055628,-1.5947774092303675,-3.142320219670431
-0.8174393812762659,-2.6450122038470667,-1.167473618184225,-0.8574298063861292,-1.5947774092303675,-3.142212692891256
-0.8174155394183558,-2.64437705675234,-1.1687453428851526,-0.8567107359515589,-1.5948131720172327,-3.142188851033346
-0.8174274603473108,-2.643801514302389,-1.1700289885150355,-0.855966869984762,-1.5947893301593226,-3.142176691685812
-0.8174393812762659,-2.6432388464557093,-1.1713131109820765,-0.8552239576922815,-1.5948131720172327,-3.1421647707568567
-0.8174994627581995,-2.6420767943011683,-1.1738932768451136,-0.8538087050067347,-1.5948131720172327,-3.142200771962301
-0.8175233046161097,-2.6415136496173304,-1.1751411596881312,-0.8531373182879847,-1.5948131720172327,-3.142093006764547
-0.8175352255450647,-2.641033951436178,-1.1764610449420374,-0.8524053732501429,-1.5948494116412562,-3.1420329252826136
-0.8175829092608851,-2.640458885823385,-1.1776850859271448,-0.8517106215106409,-1.5948613325702112,-3.142057005559103
-0.8176429907428187,-2.6393688360797327,-1.1801932493792933,-0.8503554503070276,-1.5948250929461878,-3.1420210043536585
-0.8176429907428187,-2.6387932936297815,-1.1814292112933558,-0.8496478239642542,-1.594837490712301,-3.1419969240771692
-0.8176911512957972,-2.6383259932147425,-1.18264085451235,-0.8488686720477503,-1.594837490712301,-3.141961161290304
-0.8177149931537073,-2.637714687977926,-1.1839607397662562,-0.8482092062579554,-1.5948851744281214,-3.141973082219259
-0.8177750746356409,-2.6366127173053187,-1.1863730589496058,-0.8467705885516565,-1.5948494116412562,-3.14194900194277
-0.8177388350116175,-2.6360495726214808,-1.1875608603106897,-0.8460629622088831,-1.594837490712301,-3.1418772379504603
-0.8177989164935511,-2.635534111653463,-1.188761059437887,-0.8453553358661097,-1.5948613325702112,-3.1418891588794153
-0.8178589979754847,-2.6349833647357386,-1.1900084654437464,-0.8446481863604944,-1.5948494116412562,-3.1417813936816614
-0.8178466002093714,-2.6339171568499964,-1.1924808661090296,-0.8432334105121058,-1.5948613325702112,-3.1417933146106165
-0.8178828398333948,-2.633341614400045,-1.193716828023092,-0.8425734678851526,-1.5948613325702112,-3.1417933146106165
-0.8178947607623499,-2.6327903906451624,-1.19501239458193,-0.841830078755514,-1.5948732534991663,-3.141733471547262
-0.8178828398333948,-2.6322272459613245,-1.1962245146380823,-0.8411949316607874,-1.5948494116412562,-3.1416857878314417
-0.8179424444781702,-2.6310890356646937,-1.1987808386432093,-0.8397558371173304,-1.5948732534991663,-3.1416497866259974
-0.8179424444781702,-2.630537811909811,-1.2000888029681605,-0.8390367666827601,-1.5948494116412562,-3.141625944768087
-0.8179906050311487,-2.629998509083883,-1.2014082113849085,-0.8382332960711878,-1.5948732534991663,-3.141578022633688
-0.818026367818014,-2.6294711271869105,-1.2026923338519495,-0.837597672139303,-1.5948613325702112,-3.1415539423571985
-0.8180626074420374,-2.6283815542804163,-1.2052963415728968,-0.8360865751849573,-1.5948851744281214,-3.141470019017355
-0.8180983702289026,-2.6278422514544886,-1.206616226826803,-0.8352835814105433,-1.5948851744281214,-3.1414220968829554
-0.8181102911578577,-2.627314869557516,-1.2078998724566858,-0.8346360365497034,-1.5948970953570765,-3.1414101759540003
-0.8180745283709925,-2.626727883015768,-1.2091839949237269,-0.8339408079730433,-1.5948851744281214,-3.1413381735431116
-0.8181584517108362,-2.6256254355060022,-1.2116559187518519,-0.8324778715716761,-1.5948851744281214,-3.1413024107562464
-0.8181703726397913,-2.6250861326800745,-1.212975804005758,-0.8317225615130823,-1.5949090162860315,-3.141230885182516
-0.8182185331927698,-2.6245229879962366,-1.2141760031329554,-0.8309910933123987,-1.5948613325702112,-3.141230885182516
-0.8182304541217249,-2.624019447957174,-1.215435806904928,-0.8302953878985804,-1.5949214140521448,-3.1411829630481165
-0.8182542959796351,-2.622953240071432,-1.2179434935199183,-0.8288567701922815,-1.5948970953570765,-3.141146961842672
-0.8182900587665003,-2.6224382559405726,-1.2191193739520472,-0.8281009832965296,-1.5949090162860315,-3.141122881566183
-0.8182900587665003,-2.6218512693988245,-1.220379654561178,-0.827453915272848,-1.5948970953570765,-3.141110960637228
-0.8183262983905237,-2.621323887501852,-1.2216394583331507,-0.8267348448382776,-1.5948970953570765,-3.1410630385028284
-0.8183859030352991,-2.6202214399920862,-1.2241113821612757,-0.8253076712237757,-1.594945255910055,-3.141003195439474
-0.818373982106344,-2.6196821371661585,-1.225335423146383,-0.824564282094137,-1.5948970953570765,-3.1409910360919397
-0.8184455076800745,-2.6191070715533655,-1.2266672293292444,-0.8238685766803187,-1.5948970953570765,-3.1409431139575403
-0.8184221426593226,-2.6185081640826624,-1.2278674284564417,-0.8232091108905237,-1.5949214140521448,-3.1409791151629847
-0.8185175100909632,-2.6173818747149866,-1.2303631941424769,-0.8217938582049769,-1.5949090162860315,-3.140883270894186
-0.818493668233053,-2.616866413746969,-1.2316229979144495,-0.8210032621966761,-1.5948851744281214,-3.140895191823141
-0.8185299078570765,-2.616279427205221,-1.232966725026266,-0.8203914801227015,-1.5948851744281214,-3.140883270894186
-0.8185299078570765,-2.6157644430743616,-1.2342389265643519,-0.819671932850973,-1.5949333349811,-3.140883270894186
-0.8185299078570765,-2.614685837422506,-1.2368186155902308,-0.8183053175555628,-1.5948970953570765,-3.140787426625387
-0.818578068410055,-2.614110771809713,-1.2380664984332483,-0.8175857702838343,-1.5949090162860315,-3.140799347554342
-0.8185899893390101,-2.6135714689837855,-1.2393506209002894,-0.8168662230121058,-1.5949333349811,-3.140787426625387
-0.8186495939837855,-2.6129964033709925,-1.240598503743307,-0.8161590735064905,-1.5949333349811,-3.1407514254199427
-0.8186257521258753,-2.611917797719137,-1.2431181112872522,-0.8146603743182581,-1.5949333349811,-3.1407154242144983
-0.8186858336078089,-2.611330811177389,-1.2443903128253382,-0.8139408270465296,-1.5949333349811,-3.1407154242144983
-0.818709675465719,-2.610755745564596,-1.2456863562213343,-0.8132570425616663,-1.594945255910055,-3.140691582356588
-0.8187335173236292,-2.610265080128805,-1.2469943205462855,-0.8124659697162073,-1.59495717683901,-3.140667502080099
-0.8187816778766077,-2.6091626326190394,-1.2494543234454554,-0.8110869566546839,-1.594945255910055,-3.1405721346484583
-0.8188055197345179,-2.6085990110980433,-1.2506898085223597,-0.8103917280780237,-1.5949214140521448,-3.1405840555774134
-0.8188055197345179,-2.60800010362734,-1.2519381682025355,-0.8097079435931605,-1.59495717683901,-3.140559975300924
-0.8188412825213831,-2.6074488798724573,-1.2531374136554163,-0.8089883963214319,-1.5949090162860315,-3.140548054371969
-0.8188894430743616,-2.6062749067889612,-1.2556574980365198,-0.8074896971331995,-1.5949333349811,-3.1404641310321253
-0.8189013640033167,-2.6057475248919886,-1.2569292227374476,-0.8068063894854944,-1.5949690977679651,-3.14045221010317
-0.8189132849322718,-2.605112377797262,-1.2582133452044886,-0.8061111609088343,-1.5949333349811,-3.14045221010317
-0.8189371267901819,-2.6045973936664026,-1.2594731489764612,-0.8053196112262171,-1.594945255910055,-3.1403923670398157
-0.8189972082721155,-2.603494946156637,-1.2619693914996546,-0.8039172331439417,-1.5949214140521448,-3.1403923670398157
-0.8190930525409144,-2.602931801472799,-1.2632892767535608,-0.8032091299640101,-1.594945255910055,-3.140320364628927
-0.819033447896139,-2.6024044195758265,-1.2645252386676233,-0.8025019804583948,-1.5949333349811,-3.1402843634234827
-0.8190692106830042,-2.601853672658102,-1.2657483259784144,-0.8017948309527796,-1.5949333349811,-3.140332285557882
-0.8191168943988245,-2.6007755438434046,-1.2682927290545862,-0.8003433386432093,-1.5949333349811,-3.1402843634234827
-0.8191292921649378,-2.6002119223224085,-1.269564453755514,-0.7996843496905726,-1.59495717683901,-3.1402364412890833
-0.8191769758807581,-2.5996606985675257,-1.27086049715151,-0.7989285627948206,-1.5949214140521448,-3.1401525179492396
-0.8191769758807581,-2.5991337935077112,-1.2721684614764612,-0.7981613318072718,-1.5949810186969202,-3.1401646772967737
-0.8192370573626917,-2.5980551878558558,-1.2746284643756312,-0.7968066374408167,-1.5949690977679651,-3.1401405970202845
-0.8192370573626917,-2.597503964100973,-1.2759001890765589,-0.7961114088641565,-1.5949690977679651,-3.140069071446554
-0.8192489782916468,-2.5969770590411585,-1.2771361509906214,-0.7953437010394495,-1.5949929396258753,-3.1400449911700647
-0.8193090597735804,-2.596462074910299,-1.278407398854391,-0.7946961561786097,-1.5949810186969202,-3.140069071446554
-0.8192966620074671,-2.5953715483294886,-1.2809518019305628,-0.7931974569903772,-1.5949929396258753,-3.1400092283831995
-0.8193567434894007,-2.594736401234762,-1.2821515242206019,-0.7925499121295374,-1.5949810186969202,-3.139841381703512
-0.8193686644183558,-2.594137493764059,-1.2834113279925745,-0.7917464415179651,-1.5949810186969202,-3.1398893038379114
-0.8193929831134241,-2.593598190938131,-1.284647289906637,-0.7911112944232386,-1.59495717683901,-3.139841381703512
-0.8194168249713343,-2.592508141194479,-1.2871673742877405,-0.7896483580218714,-1.5949810186969202,-3.1398173014270228
-0.8194525877581995,-2.591944996510641,-1.2884147802936,-0.7890365759478968,-1.5949690977679651,-3.139733616505758
-0.8195126692401331,-2.5914652983294886,-1.2896025816546839,-0.7882574240313929,-1.5949810186969202,-3.1397574583636683
-0.8195126692401331,-2.590902630482809,-1.2909110228167933,-0.7875860373126429,-1.59495717683901,-3.13963753381838
-0.8195245901690882,-2.5898240248309534,-1.2934306303607386,-0.7861831823932093,-1.5949810186969202,-3.1396616140948694
-0.8195727507220667,-2.5892608801471155,-1.2946904341327112,-0.7854998747455042,-1.5950048605548304,-3.1395540873156946
-0.8195603529559534,-2.588710133229391,-1.296058479939596,-0.7847440878497522,-1.5949690977679651,-3.139590088521139
-0.8195727507220667,-2.5881827513324183,-1.2973178068744105,-0.7840488592730921,-1.59495717683901,-3.13949424425234
-0.8196085135089319,-2.5876315275775355,-1.2985780874835413,-0.7833054701434534,-1.5949929396258753,-3.139482323323385
-0.8196561972247522,-2.5865171591388147,-1.3010981718646448,-0.7819507757769983,-1.5949929396258753,-3.1394463221179407
-0.8196924368487757,-2.5859902540790003,-1.302429501210348,-0.7811711470233362,-1.5949690977679651,-3.139470163975851
-0.8197162787066858,-2.5854747931109827,-1.3036535421954554,-0.7805236021624964,-1.5950172583209437,-3.139470163975851
-0.8197525183307093,-2.58436090150942,-1.3062213102923792,-0.7790611425982874,-1.5950048605548304,-3.1394463221179407
-0.8197525183307093,-2.583761517201559,-1.3074453512774866,-0.778365437184469,-1.5950048605548304,-3.1393144766436976
-0.8197763601886194,-2.5832107702838343,-1.3087289969073694,-0.7776578108416956,-1.5950291792498987,-3.1393025557147425
-0.8198240439044397,-2.582647148762838,-1.309976879750387,-0.7769745031939905,-1.5950172583209437,-3.1393025557147425
-0.8198240439044397,-2.581473175679342,-1.312448803578512,-0.7754877249347132,-1.595064942036764,-3.1393144766436976
-0.8198960463153284,-2.580910030995504,-1.313648525868551,-0.7747443358050745,-1.5951131025897425,-3.139230553303854
-0.8199079672442835,-2.5803468863116663,-1.3148725668536585,-0.7739651838885706,-1.5951488653766077,-3.139158550892965
-0.8199198881732386,-2.5797956625567835,-1.3160842100726526,-0.7731855551349085,-1.5951131025897425,-3.139266554509298
-0.819979492818014,-2.5786574522601526,-1.3186643759356897,-0.7717707792865198,-1.5950887838946741,-3.1391707102404993
-0.8200038115130823,-2.57810622850527,-1.3199246565448206,-0.7710154692279261,-1.5950887838946741,-3.1390987078296106
-0.819979492818014,-2.5775912443744105,-1.32117206255068,-0.7703679243670862,-1.595076862965719,-3.13902718225588
-0.8200276533709925,-2.5769923369037073,-1.3224676291095179,-0.7696364561664026,-1.5951131025897425,-3.1391106287585657
-0.8200872580157679,-2.5758774916278284,-1.324975315724508,-0.7682340780841272,-1.5951250235186976,-3.1389432589160364
-0.8200872580157679,-2.575350586568014,-1.3262231985675257,-0.7674782911883753,-1.5951131025897425,-3.139015261326925
-0.8201234976397913,-2.574775520955221,-1.3275435606585901,-0.7667468229876917,-1.5951011816607874,-3.138895336781637
-0.8201354185687464,-2.5742128531085413,-1.3287909666644495,-0.7660039106952112,-1.5951011816607874,-3.1389194170581263
-0.82019550005068,-2.573146168385641,-1.3313468138324183,-0.7646725813495081,-1.5951011816607874,-3.1388235727893274
-0.82019550005068,-2.572606865559713,-1.332630459462301,-0.7639053503619593,-1.595076862965719,-3.138895336781637
-0.8202431837665003,-2.572115723286764,-1.333902661000387,-0.7631738821612757,-1.5950887838946741,-3.138883415852682
-0.8202794233905237,-2.571528736745016,-1.3351624647723597,-0.7624662558185022,-1.595076862965719,-3.1388235727893274
-0.8203390280352991,-2.5704262892352503,-1.3375862280475062,-0.7611115614520472,-1.5950887838946741,-3.1387515703784388
-0.8203633467303675,-2.5698631445514124,-1.338785473500387,-0.7603562513934534,-1.5951131025897425,-3.138763491307394
-0.8203390280352991,-2.569312397633688,-1.340069595967428,-0.7597087065326136,-1.5951607863055628,-3.138775412236349
-0.8203509489642542,-2.5687368551837366,-1.3413174788104456,-0.7589891592608851,-1.5950887838946741,-3.13867956796755
-0.820446793233053,-2.5676468054400843,-1.343741242085592,-0.7576220671283167,-1.5951011816607874,-3.1386078039752405
-0.820446793233053,-2.5671075026141565,-1.3450129667865198,-0.7568553129779261,-1.5951011816607874,-3.138559881840841
-0.8204830328570765,-2.566568676625387,-1.3462489287005823,-0.7562192122088831,-1.5951250235186976,-3.1386197249041956
-0.820446793233053,-2.5660293737994593,-1.3475330511676233,-0.7554877440081995,-1.595064942036764,-3.1384523550616663
-0.8205550352679651,-2.564962689076559,-1.3500884214984339,-0.7541092077838343,-1.5951011816607874,-3.1385119597064417
-0.8205187956439417,-2.5644238630877894,-1.3513005415545862,-0.7533295790301722,-1.5951250235186976,-3.138392511998312
-0.8205426375018519,-2.5638368765460413,-1.3525961081134241,-0.7526348272906702,-1.5951011816607874,-3.1384640375720423
-0.8205669561969202,-2.5632618109332483,-1.3538325468646448,-0.751866642628805,-1.5951011816607874,-3.138416353856222
-0.8206027189837855,-2.562218968068258,-1.3564112822162073,-0.7504165808307093,-1.5951131025897425,-3.1384404341327112
-0.8206985632525843,-2.5616677443133753,-1.3576834837542933,-0.7497447172748011,-1.595076862965719,-3.1383684317218226
-0.820650879536764,-2.561153237019674,-1.3589909712420862,-0.7490256468402308,-1.5950887838946741,-3.138308588658468
-0.8207104841815394,-2.5606377760516565,-1.3603232542621058,-0.7483180204974573,-1.5951011816607874,-3.1383565107928675
-0.8207467238055628,-2.559535328541891,-1.362830940877096,-0.7469390074359339,-1.5951011816607874,-3.138284508381979
-0.8207586447345179,-2.5590198675738733,-1.3641389052020472,-0.7462199370013636,-1.5951131025897425,-3.1382725874530237
-0.8207467238055628,-2.558493439351217,-1.3653863112079065,-0.7455003897296351,-1.5951131025897425,-3.13816482225527
-0.820782486592428,-2.5579422155963343,-1.366622273121969,-0.7447808424579065,-1.5950887838946741,-3.1382127443896692
-0.8208425680743616,-2.5567320028888147,-1.369094196950094,-0.7432940641986292,-1.5951011816607874,-3.138092819844381
-0.8208306471454065,-2.5561683813678187,-1.3704617659198206,-0.7425864378558558,-1.5951131025897425,-3.1381166617022913
-0.8208306471454065,-2.555593792592184,-1.3716734091388147,-0.7418673674212855,-1.5950887838946741,-3.1380448977099817
-0.8208664099322718,-2.5550549666034144,-1.3728974501239222,-0.7411716620074671,-1.5951369444476526,-3.138068739567892
-0.8209384123431605,-2.553988281880514,-1.3753450552569788,-0.7397092024432581,-1.5951011816607874,-3.1379249731646937
-0.8209741751300257,-2.553401295338766,-1.3765929380999964,-0.7390254179583948,-1.5951250235186976,-3.1380088965045374
-0.8209741751300257,-2.5528858343707483,-1.3778403441058558,-0.738258186970846,-1.5951011816607874,-3.1379249731646937
-0.8210104147540491,-2.552263085042135,-1.3790162245379847,-0.7375987211810511,-1.5950887838946741,-3.1378775278674524
-0.8210585753070276,-2.5511725584613245,-1.3815606276141565,-0.736124340687887,-1.595076862965719,-3.1378055254565638
-0.8210466543780726,-2.550645176564352,-1.3828557173358362,-0.7354643980609339,-1.5951250235186976,-3.137817446385519
-0.8210585753070276,-2.550070587788717,-1.3840559164630335,-0.7347210089312952,-1.5951131025897425,-3.1377576033221644
-0.8211067358600062,-2.5495193640338343,-1.385303799306051,-0.7340257803546351,-1.5951250235186976,-3.137709681187765
-0.8211424986468714,-2.5484169165240687,-1.3878114859210413,-0.7325871626483362,-1.595076862965719,-3.137601915990011
-0.8211544195758265,-2.547878090535299,-1.3891308943377894,-0.7318795363055628,-1.5951131025897425,-3.1376498381244105
-0.8211901823626917,-2.5473149458514612,-1.390390698109762,-0.731124226246969,-1.5950887838946741,-3.137589756642477
-0.821202580128805,-2.5467518011676233,-1.391698185597555,-0.7304647604571741,-1.5951131025897425,-3.1375418345080774
-0.8212502638446253,-2.5456255117999476,-1.3942540327655237,-0.7290023008929651,-1.5951131025897425,-3.1374221483813685
-0.8212865034686487,-2.5450623671161097,-1.39557391801943,-0.7283185164081019,-1.5951369444476526,-3.137493912373678
-0.8212741057025355,-2.5444873015033167,-1.3968337217914026,-0.7275989691363733,-1.5951011816607874,-3.137505833302633
-0.8212741057025355,-2.5439003149615687,-1.398177448903219,-0.7269037405597132,-1.5951131025897425,-3.1373265425311487
-0.8213580290423792,-2.542762104664938,-1.4006851355182093,-0.725440804158346,-1.5951131025897425,-3.137374464665548
-0.8214061895953577,-2.54222280183901,-1.4018848578082483,-0.7246974150287073,-1.5951250235186976,-3.1373027006732386
-0.8213823477374476,-2.541647736226217,-1.4031804243670862,-0.7239778677569788,-1.5951011816607874,-3.1373985449420374
-0.8213699499713343,-2.5410969893084925,-1.4044044653521937,-0.7233665625201624,-1.5951131025897425,-3.1372905413257044
-0.821441952382223,-2.5400779883014124,-1.4069598356830042,-0.7218921820269983,-1.5951011816607874,-3.1373027006732386
-0.821441952382223,-2.539527241383688,-1.4081476370440882,-0.7211840788470667,-1.5951488653766077,-3.1371586958514612
-0.8214781920062464,-2.5390003363238733,-1.409407917653219,-0.7204650084124964,-1.5951488653766077,-3.1371946970569056
-0.821453873311178,-2.5384252707110804,-1.410607639943258,-0.7197697798358362,-1.5951488653766077,-3.1371827761279505
-0.8215139547931116,-2.5373104254352015,-1.413079563771383,-0.7183187643634241,-1.5951011816607874,-3.137218777333395
-0.8215497175799769,-2.536795441304342,-1.4143145720111292,-0.7175996939288538,-1.5951250235186976,-3.137110773717062
-0.8215377966510218,-2.5362327734576624,-1.4155505339251917,-0.716952149068014,-1.5951488653766077,-3.1370509306537073
-0.8215740362750452,-2.5357292334186,-1.4167984167682093,-0.7162802855121058,-1.5951369444476526,-3.137122933064596
-0.8216455618487757,-2.5346630255328577,-1.4193537870990198,-0.7148178259478968,-1.5951131025897425,-3.137014929448263
-0.8216093222247522,-2.5340879599200647,-1.4207094351397913,-0.7140620390521448,-1.5951369444476526,-3.1370390097247522
-0.8216694037066858,-2.533549133931295,-1.4219334761248987,-0.713391129170553,-1.5951369444476526,-3.136919085179464
-0.8217294851886194,-2.532961670552389,-1.4232409636126917,-0.7126835028277796,-1.5951727072345179,-3.1369310061084192
-0.8217175642596644,-2.5318592230426233,-1.425760571156637,-0.7111247221576136,-1.5951369444476526,-3.1368115584002894
-0.8217652479754847,-2.5312846342669886,-1.4270089308368128,-0.7103813330279749,-1.5951970259295862,-3.13688308397402
-0.8217890898333948,-2.5306857267962855,-1.4282682577716272,-0.7097342650042933,-1.5951607863055628,-3.1368351618396204
-0.8218134085284632,-2.530158344899313,-1.42955190340151,-0.7089665571795862,-1.5951131025897425,-3.136775557194845
-0.8218849341021937,-2.5291035811053675,-1.432143513356344,-0.7074921766864222,-1.5951488653766077,-3.136751715336935
-0.8218849341021937,-2.528540913258688,-1.4333670775042933,-0.7067721525775355,-1.5951369444476526,-3.1367037932025355
-0.821909252797262,-2.5280378500567835,-1.4346273581134241,-0.7061370054828089,-1.595184628163473,-3.1367996374713343
-0.8218968550311487,-2.5274866263019007,-1.435815159474508,-0.705357853566305,-1.595184628163473,-3.136667791997091
-0.8219688574420374,-2.526371781026022,-1.4383581320392054,-0.7039426008807581,-1.5952089468585413,-3.1367157141314905
-0.8219807783709925,-2.5258095900165003,-1.4395821730243128,-0.7032354513751429,-1.5952327887164515,-3.136643711720602
-0.8220050970660608,-2.5252583662616175,-1.440793816243307,-0.7025635878192347,-1.5952089468585413,-3.136679712926046
-0.822028938923971,-2.524730984364645,-1.4420655409442347,-0.7018082777606409,-1.5952327887164515,-3.136655871068136
-0.8221128622638147,-2.523616615925924,-1.44458514848818,-0.7003696600543421,-1.595292870198385,-3.1366198698626917
-0.8221729437457483,-2.52311355272402,-1.4458807150470179,-0.6996858755694788,-1.59528094926943,-3.1364880243884485
-0.8221367041217249,-2.522538487111227,-1.4471162001239222,-0.699014965687887,-1.59528094926943,-3.136547867451803
-0.8221729437457483,-2.522011105214254,-1.4484003225909632,-0.6982710997210901,-1.59528094926943,-3.136524025593893
-0.8222206274615687,-2.520849053059713,-1.4509318510638636,-0.6968568007098597,-1.5952566305743616,-3.136524025593893
-0.8222087065326136,-2.5202983061419886,-1.4522751013385218,-0.6962092558490198,-1.595292870198385,-3.1363921801196497
-0.8222325483905237,-2.5196989218341272,-1.4535110632525843,-0.6955016295062464,-1.59528094926943,-3.1363802591906946
-0.8222206274615687,-2.519088093434469,-1.4548428694354456,-0.6947463194476526,-1.595292870198385,-3.136404101048605
-0.8222687880145472,-2.5179975668536585,-1.4573739210711878,-0.6933553854571741,-1.5952566305743616,-3.1363921801196497
-0.8223045508014124,-2.517434899006979,-1.458658520375387,-0.692672077809469,-1.5953047911273401,-3.1362608114825647
-0.8223527113543909,-2.5169079939471644,-1.4599059263812464,-0.6919763723956507,-1.595292870198385,-3.136284653340475
-0.8223765532123011,-2.5163567701922815,-1.4611418882953089,-0.6912573019610804,-1.595292870198385,-3.1362608114825647
-0.8223765532123011,-2.5152538458453577,-1.463649098073141,-0.6898182074176233,-1.5952327887164515,-3.1362248102771204
-0.8224242369281214,-2.514703098927633,-1.46484882036318,-0.6891348997699183,-1.5952447096454065,-3.136081043873922
-0.8224242369281214,-2.514116112385885,-1.4660847822772425,-0.6883557478534144,-1.59528094926943,-3.1361528078662317
-0.8224123159991663,-2.5136011282550257,-1.467356030141012,-0.6876605192767542,-1.5952447096454065,-3.136056963597433
-0.822484318410055,-2.5124385992633265,-1.4698875586139124,-0.6861737410174769,-1.5952566305743616,-3.1359971205340784
-0.822484318410055,-2.511911694203512,-1.4710753599749964,-0.6855381170855921,-1.5952447096454065,-3.1359251181231897
-0.8225443998919886,-2.5114086310016077,-1.4723475615130823,-0.6848309675799769,-1.5952685515033167,-3.1360090414630335
-0.8225324789630335,-2.51086932817568,-1.4735830465899866,-0.6840994993792933,-1.595292870198385,-3.1358891169177454
-0.822615925465719,-2.509731117879049,-1.4761021772967737,-0.6826365629779261,-1.59528094926943,-3.1358652750598353
-0.822615925465719,-2.5092399756061,-1.4773619810687464,-0.681953255330221,-1.59528094926943,-3.1357458273517054
-0.822615925465719,-2.508664909993307,-1.4785979429828089,-0.6811860243426722,-1.5952447096454065,-3.135841194783346
-0.8226640860186976,-2.508077923451559,-1.4799054304706019,-0.6804783979998987,-1.595292870198385,-3.1357458273517054
-0.8226998488055628,-2.506939713154928,-1.4824369589435022,-0.6790035406695765,-1.5952566305743616,-3.135709826146261
-0.8226998488055628,-2.50635272661318,-1.483720604573385,-0.678295914326803,-1.59528094926943,-3.1356499830829065
-0.8227241675006312,-2.5058258215533655,-1.4849923292743128,-0.6775406042682093,-1.595292870198385,-3.135697905217306
-0.8227599302874964,-2.505286518727438,-1.4862759749041956,-0.6768572966205042,-1.595292870198385,-3.1356378237353724
-0.8228438536273401,-2.5042198340045374,-1.4888790289508265,-0.6754544417010706,-1.59528094926943,-3.135602060948507
-0.8228796164142054,-2.503669563923971,-1.4901393095599573,-0.6747592131244105,-1.5952566305743616,-3.135505978261129
-0.8228676954852503,-2.5031541029559534,-1.4914105574237269,-0.6739919821368616,-1.59528094926943,-3.135482136403219
-0.8228796164142054,-2.5025909582721155,-1.4926827589618128,-0.6733558813678187,-1.5952685515033167,-3.1355539003955286
-0.8229039351092737,-2.50148851076235,-1.4951661268817347,-0.6719053427325647,-1.59528094926943,-3.135494057332174
-0.8229635397540491,-2.500913921986715,-1.4964612166034144,-0.6711619536029261,-1.5952566305743616,-3.13545805612673
-0.8229878584491175,-2.5004223028766077,-1.4976971785174769,-0.6704185644732874,-1.5952685515033167,-3.135362211857931
-0.8229754606830042,-2.49988300005068,-1.498908821736471,-0.6697357336627405,-1.5953047911273401,-3.1354222933398646
-0.8229997793780726,-2.498816792164938,-1.501427952443258,-0.668344799672262,-1.5952447096454065,-3.135374132786886
-0.8230474630938929,-2.4983137289630335,-1.5026877562152308,-0.6675894896136683,-1.5952566305743616,-3.135350290928976
-0.823059384022848,-2.4977744261371058,-1.5038755575763147,-0.6669176260577601,-1.59528094926943,-3.135230366383688
-0.8231309095965784,-2.497187916432516,-1.5051592032061976,-0.6661985556231897,-1.5952685515033167,-3.1353142897235315
-0.8231194655047815,-2.496073071156637,-1.507690731679098,-0.6648195425616663,-1.595292870198385,-3.1352184454547327
-0.8231433073626917,-2.495570484791891,-1.5089505354510706,-0.6640880743609827,-1.59528094926943,-3.135254446660177
-0.823190991078512,-2.494971577321188,-1.5101740995990198,-0.6634047667132776,-1.5952685515033167,-3.1351710001574915
-0.8232148329364222,-2.4943841139422815,-1.5114219824420374,-0.6626370588885706,-1.59528094926943,-3.1351829210864466
-0.8232629934894007,-2.493294064198629,-1.5139291922198694,-0.6613066832171839,-1.595292870198385,-3.1350629965411585
