youngblood1998/my_ws/src/ur5_platform/ur5_platform_manipulation/wzq/test4_13_2.csv
j0,j1,j2,j3,j4,j5
-0.8214061895953577,-2.660349194203512,-1.1264823118792933,-0.8861830870257776,-1.5947416464435022,-3.1438172499286097
-0.821441952382223,-2.66091233888735,-1.1252334753619593,-0.8868663946734827,-1.5948732534991663,-3.143865172063009
-0.821453873311178,-2.6615355650531214,-1.1239617506610315,-0.8875621000873011,-1.5948613325702112,-3.143853012715475
-0.8214300314532679,-2.6621583143817347,-1.122725788746969,-0.8882334868060511,-1.594729248677389,-3.14384109178652
-0.8214181105243128,-2.6628058592425745,-1.1214898268329065,-0.8889287153827112,-1.5949090162860315,-3.1438291708575647
-0.8214181105243128,-2.6639559904681605,-1.118981663380758,-0.8903558889972132,-1.5948250929461878,-3.143853012715475
-0.8214662710772913,-2.6645434538470667,-1.1177218596087855,-0.891003433858053,-1.5948851744281214,-3.1438890139209192
-0.8214061895953577,-2.665154282246725,-1.1164138952838343,-0.8917105833636683,-1.594729248677389,-3.14384109178652
-0.8213823477374476,-2.665729347859518,-1.1151655356036585,-0.8924301306353968,-1.5949214140521448,-3.1439130941974085
-0.8213699499713343,-2.666856114064352,-1.1126096884356897,-0.8938205877887171,-1.5947416464435022,-3.1438890139209192
-0.8213461081134241,-2.66749078432192,-1.1113017241107386,-0.8945043722735804,-1.5948732534991663,-3.1438890139209192
-0.8213580290423792,-2.668030087147848,-1.1100295225726526,-0.8951881567584437,-1.5946934858905237,-3.1438890139209192
-0.8213823477374476,-2.668640915547506,-1.1088298002826136,-0.8958714644061487,-1.594837490712301,-3.1439130941974085
-0.8213823477374476,-2.6698153654681605,-1.106297794972555,-0.8973825613604944,-1.5946934858905237,-3.143877092991964
-0.8213823477374476,-2.6704142729388636,-1.1050017515765589,-0.8979938665973108,-1.5948494116412562,-3.1439130941974085
-0.8213942686664026,-2.67104942003359,-1.1037052313434046,-0.8987129370318812,-1.5947535673724573,-3.1439486185656946
-0.8213461081134241,-2.671624485646383,-1.102445427571432,-0.8993962446795862,-1.5946934858905237,-3.1439486185656946
-0.821334187184469,-2.6728346983539026,-1.0999859015094202,-0.9008234182940882,-1.5946334044085901,-3.1439366976367396
-0.8213461081134241,-2.6734936873065394,-1.0987256209002894,-0.9015186468707483,-1.5946815649615687,-3.1439366976367396
-0.8213461081134241,-2.6740568319903772,-1.0976336638080042,-0.9022386709796351,-1.5947774092303675,-3.143984619771139
-0.8213461081134241,-2.6746442953692835,-1.0963614622699183,-0.9028742949115198,-1.594621483479635,-3.1439366976367396
-0.821334187184469,-2.6758182684527796,-1.093841854725973,-0.90424091020693,-1.594729248677389,-3.143972460423605
-0.8213103453265589,-2.676429573689596,-1.0926178137408655,-0.9049008528338831,-1.5945618788348597,-3.143996540700094
-0.821322266255514,-2.6769688765155237,-1.0913098494159144,-0.9056075255023401,-1.5947774092303675,-3.143972460423605
-0.821322266255514,-2.6774962584124964,-1.0900738875018519,-0.90625507036318,-1.5946577231036585,-3.1439605394946497
-0.8213103453265589,-2.678622070943014,-1.0875657240497034,-0.9076460043536585,-1.5946815649615687,-3.143972460423605
-0.8213103453265589,-2.67918569246401,-1.0862696806537073,-0.9083536306964319,-1.5945494810687464,-3.1439605394946497
-0.821322266255514,-2.6796887556659144,-1.0850094000445765,-0.9090130964862269,-1.5946815649615687,-3.144020382558004
-0.821334187184469,-2.680228058491842,-1.083773438130514,-0.9097207228290003,-1.5946815649615687,-3.1439486185656946
-0.821334187184469,-2.681342426930563,-1.0812056700335901,-0.9111235777484339,-1.5947173277484339,-3.143972460423605
-0.8212984243976038,-2.6819055716144007,-1.0799334684955042,-0.9117587248431605,-1.5945857206927698,-3.143984619771139
-0.8212865034686487,-2.682408634816305,-1.0786731878863733,-0.9124305883990687,-1.5945737997638147,-3.144008461629049
-0.8212984243976038,-2.682960335408346,-1.0774014631854456,-0.9131138960467737,-1.5946577231036585,-3.143972460423605
-0.8212865034686487,-2.684026543294088,-1.074857536946432,-0.914504353200094,-1.594621483479635,-3.1439486185656946
-0.8212741057025355,-2.684565846120016,-1.073597256337301,-0.9151762167560022,-1.59460956255068,-3.144008461629049
-0.8213103453265589,-2.685164753590719,-1.0723612944232386,-0.9159196058856409,-1.5944655577289026,-3.1440325419055384
-0.8213103453265589,-2.68574029604067,-1.0711496512042444,-0.9165790716754358,-1.594621483479635,-3.143996540700094
-0.821334187184469,-2.6868541876422327,-1.0686896483050745,-0.9180062452899378,-1.5945375601397913,-3.1440325419055384
-0.8212865034686487,-2.687441651021139,-1.067453686391012,-0.9186776320086878,-1.5946334044085901,-3.143984619771139
-0.8212865034686487,-2.6879685560809534,-1.0661571661578577,-0.9194205443011683,-1.5944297949420374,-3.143984619771139
-0.8212865034686487,-2.688507858906881,-1.0649455229388636,-0.9201043287860315,-1.5945857206927698,-3.143972460423605
-0.8212502638446253,-2.6896703878985804,-1.0624011198626917,-0.9215434233294886,-1.5944417158709925,-3.143984619771139
-0.8212984243976038,-2.6901500860797327,-1.0611532370196741,-0.9222262541400355,-1.5945857206927698,-3.143996540700094
-0.821202580128805,-2.690760914479391,-1.0599411169635218,-0.9229701201068323,-1.5944178740130823,-3.143984619771139
-0.8212502638446253,-2.691336456929342,-1.0586450735675257,-0.9236295858966272,-1.594489876423971,-3.144020382558004
-0.8212741057025355,-2.692510430012838,-1.0560286680804651,-0.925056282673971,-1.594382111226217,-3.143984619771139
-0.8212502638446253,-2.693085495625631,-1.0547688643084925,-0.9256919066058558,-1.5945375601397913,-3.144008461629049
-0.8212741057025355,-2.6936968008624476,-1.0534728209124964,-0.9264715353595179,-1.5944059530841272,-3.144008461629049
-0.8212621847735804,-2.694331471120016,-1.0522006193744105,-0.9271305243121546,-1.5943940321551722,-3.144008461629049
-0.821202580128805,-2.695494000111715,-1.0496204535113733,-0.92859393755068,-1.5943697134601038,-3.1440325419055384
-0.8211663405047815,-2.6961053053485315,-1.0483725706683558,-0.9292534033404749,-1.5944536367999476,-3.144020382558004
-0.8211663405047815,-2.696704689656393,-1.0470884482013147,-0.9299362341510218,-1.5944655577289026,-3.144008461629049
-0.8212264219867151,-2.6972911993609827,-1.0458529631244105,-0.9305961767779749,-1.5943458716021937,-3.144008461629049
-0.8211901823626917,-2.6984899679767054,-1.0433085600482386,-0.9320591131793421,-1.5943697134601038,-3.1440325419055384
-0.8211782614337366,-2.699125115071432,-1.0421207586871546,-0.9327061812030237,-1.5944536367999476,-3.1440325419055384
-0.8212264219867151,-2.69973594347109,-1.0408366362201136,-0.9334138075457972,-1.5944297949420374,-3.1440685431109827
-0.8211782614337366,-2.700311009083883,-1.0395763556109827,-0.9340737501727503,-1.5942981878863733,-3.1440563837634485
-0.8211901823626917,-2.7014854590045374,-1.0370801130877894,-0.9354279677020472,-1.5943220297442835,-3.1440325419055384
-0.8211663405047815,-2.7020486036883753,-1.0358441511737269,-0.9361117521869105,-1.5943577925311487,-3.144080464039938
-0.821202580128805,-2.702611748372213,-1.0345843474017542,-0.9367955366717737,-1.5944297949420374,-3.144116465245382
-0.8211544195758265,-2.703139130269186,-1.033384148274557,-0.9374426046954554,-1.594273869191305,-3.144080464039938
-0.8211305777179163,-2.70431358018984,-1.0308640638934534,-0.9388578573810022,-1.59428579012026,-3.144212309514181
-0.8211544195758265,-2.704900566731588,-1.0296037832843226,-0.9394691626178187,-1.5942381064044397,-3.1441643873797815
-0.8211544195758265,-2.705475632344381,-1.0283320585833948,-0.9402006308185022,-1.5944059530841272,-3.144224230443136
-0.8211544195758265,-2.706038777028219,-1.027083698903219,-0.9409320990191858,-1.5942500273333948,-3.1441882292376917
-0.8211544195758265,-2.707189385090963,-1.0245397726642054,-0.9423587957965296,-1.5943339506732386,-3.1441643873797815
-0.8211305777179163,-2.7077768484698694,-1.0232675711261194,-0.9430182615863245,-1.5942381064044397,-3.1441643873797815
-0.8211186567889612,-2.708339516316549,-1.022031609212057,-0.9437139670001429,-1.5943940321551722,-3.144212309514181
-0.8210943380938929,-2.7089150587665003,-1.020747486745016,-0.9443610350238245,-1.5942381064044397,-3.1441643873797815
-0.8211544195758265,-2.7100656668292444,-1.0182035605060022,-0.9457643667804163,-1.5943220297442835,-3.1441763083087366
-0.8210943380938929,-2.710592571889059,-1.0169199148761194,-0.946388069783346,-1.5941303412066858,-3.1441403071032923
-0.8211186567889612,-2.711167637501852,-1.0156477133380335,-0.9471429030047815,-1.5943220297442835,-3.1441763083087366
-0.8210943380938929,-2.7117188612567347,-1.0143392721759241,-0.9478147665606897,-1.5942023436175745,-3.144200150166647
-0.8210824171649378,-2.7128332296954554,-1.0118430296527308,-0.9492300192462366,-1.5943220297442835,-3.144212309514181
-0.8210585753070276,-2.713372532521383,-1.0105474630938929,-0.9499371687518519,-1.5941303412066858,-3.144200150166647
-0.8210466543780726,-2.7138994375811976,-1.0092757383929651,-0.9506204763995569,-1.594273869191305,-3.144200150166647
-0.8210704962359827,-2.7144511381732386,-1.0079558531390589,-0.9513400236712855,-1.594154183064596,-3.144200150166647
-0.8210347334491175,-2.7155173460589808,-1.0054715315448206,-0.952742878590719,-1.594273869191305,-3.1441763083087366
-0.8210585753070276,-2.7160685698138636,-1.0042231718646448,-0.953414265309469,-1.5941064993487757,-3.144224230443136
-0.8210585753070276,-2.7165959517108362,-1.0029872099505823,-0.9541576544391077,-1.594273869191305,-3.1441882292376917
-0.8210824171649378,-2.717159096394674,-1.0016792456256312,-0.954841438923971,-1.594154183064596,-3.144212309514181
-0.8210585753070276,-2.718297306691305,-0.999206844960348,-0.9562562147723597,-1.5942500273333948,-3.1441403071032923
-0.8210347334491175,-2.7188242117511194,-0.998030964528219,-0.956951920186178,-1.594034496937887,-3.1441882292376917
-0.8210104147540491,-2.7194116751300257,-0.996746842061178,-0.9576833883868616,-1.594273869191305,-3.144200150166647
-0.8210228125201624,-2.7199986616717737,-0.9955228010760706,-0.9583662191974085,-1.594046417866842,-3.144212309514181
-0.8210228125201624,-2.7211135069476526,-0.9930265585528772,-0.9597933928119105,-1.5941899458514612,-3.144212309514181
-0.8210104147540491,-2.7216642538653772,-0.9917781988727015,-0.9604771772967737,-1.5940702597247522,-3.144200150166647
-0.8210585753070276,-2.722287956868307,-0.990518871937887,-0.9611600081073206,-1.5942381064044397,-3.1441882292376917
-0.8210585753070276,-2.7228630224811,-0.989234749470846,-0.961867634450094,-1.5940821806537073,-3.144224230443136
-0.8210228125201624,-2.7240613142596644,-0.9867027441607874,-0.9632704893695276,-1.594166103993551,-3.144200150166647
-0.8210228125201624,-2.724708382283346,-0.9854062239276331,-0.9639537970172327,-1.5940821806537073,-3.144224230443136
-0.8210466543780726,-2.725271526967184,-0.9840982596026819,-0.9646495024310511,-1.5942142645465296,-3.1441882292376917
-0.8210104147540491,-2.72585899034609,-0.9828985373126429,-0.965285603200094,-1.5940821806537073,-3.144200150166647
-0.820998493825094,-2.7270329634295862,-0.980354134236471,-0.9666999022113245,-1.5941780249225062,-3.144200150166647
-0.8209622542010706,-2.7276561895953577,-0.9790580908404749,-0.9672992865191858,-1.5940821806537073,-3.144224230443136
-0.8209860960589808,-2.7282431761371058,-0.9778340498553675,-0.9680073896991175,-1.5941780249225062,-3.144200150166647
-0.8210104147540491,-2.7287824789630335,-0.9765256086932581,-0.9686544577227991,-1.5940101782428187,-3.1441882292376917
-0.8209741751300257,-2.730004612599508,-0.9739697615252894,-0.9700573126422327,-1.5940702597247522,-3.1441882292376917
-0.8209741751300257,-2.7306039969073694,-0.9728181997882288,-0.9706929365741175,-1.5940583387957972,-3.144200150166647
-0.8209860960589808,-2.7311790625201624,-0.971569840108053,-0.971412483845846,-1.594142262135641,-3.1442483107196253
-0.8210104147540491,-2.7317307631122034,-0.9703338781939905,-0.9721315542804163,-1.5939505735980433,-3.144236151372091
-0.8209503332721155,-2.7329285780536097,-0.967813793812887,-0.9735468069659632,-1.5939982573138636,-3.144200150166647
-0.820998493825094,-2.733527962361471,-0.9665535132037562,-0.9742062727557581,-1.594046417866842,-3.1442483107196253
-0.8210104147540491,-2.734114948903219,-0.9652450720416468,-0.9748895804034632,-1.5941064993487757,-3.144236151372091
-0.8209622542010706,-2.7347262541400355,-0.9640334288226526,-0.9755609671222132,-1.5939744154559534,-3.1442483107196253
-0.8209622542010706,-2.735960308705465,-0.9613812605487269,-0.9769638220416468,-1.5939386526690882,-3.1442840735064905
-0.8209741751300257,-2.736511532460348,-0.9601691404925745,-0.9776113669024866,-1.5941184202777308,-3.1442721525775355
-0.8209503332721155,-2.7371228376971644,-0.9589212576495569,-0.9783666769610804,-1.594046417866842,-3.1442840735064905
-0.8209622542010706,-2.7376979033099573,-0.9575894514666956,-0.9790628592120569,-1.5939386526690882,-3.14430815378298
-0.8209264914142054,-2.7388599554644983,-0.9550450483905237,-0.9804771582232874,-1.5939505735980433,-3.144320074711935
-0.8209741751300257,-2.739399258290426,-0.9537370840655726,-0.9811247030841272,-1.5940821806537073,-3.144320074711935
-0.8209503332721155,-2.7398913542376917,-0.9524768034564417,-0.9819043318377894,-1.593926731740133,-3.14430815378298
-0.8209264914142054,-2.7404540220843714,-0.9512646834002894,-0.9825394789325159,-1.593926731740133,-3.14430815378298
-0.8209384123431605,-2.7415927092181605,-0.9486725966082972,-0.9839666525470179,-1.5938428084002894,-3.1442840735064905
-0.8209264914142054,-2.7421439329730433,-0.9474247137652796,-0.9846623579608362,-1.5939863363849085,-3.144344154988424
-0.8209145704852503,-2.742671314870016,-0.9462245146380823,-0.9853814283954065,-1.5939143339740198,-3.14433199564089
-0.8209264914142054,-2.7432220617877405,-0.9449527899371546,-0.9860051313983362,-1.5938666502581995,-3.144320074711935
-0.8208783308612269,-2.7443364302264612,-0.9424799124347132,-0.9874561468707483,-1.5938428084002894,-3.144320074711935
-0.820902172719137,-2.744851891194479,-0.9412201086627405,-0.9881151358233851,-1.5938904921161097,-3.144320074711935
-0.820902172719137,-2.7453911940204065,-0.9399965445147913,-0.9888828436480921,-1.5939024130450647,-3.14433199564089
-0.8208902517901819,-2.7459538618670862,-0.9387601057635706,-0.9895060698138636,-1.593818489705221,-3.1442962328540247
-0.820902172719137,-2.747044865285055,-0.9362161795245569,-0.9910052458392542,-1.593830410634176,-3.144320074711935
-0.8209145704852503,-2.7476561705218714,-0.9350035826312464,-0.9916284720050257,-1.593926731740133,-3.144320074711935
-0.820902172719137,-2.7482436339007776,-0.9337556997882288,-0.9923599402057093,-1.5938785711871546,-3.144344154988424
-0.8208902517901819,-2.748782459889547,-0.9324963728534144,-0.9930437246905726,-1.593806568776266,-3.144356075917379
-0.8208783308612269,-2.749896828328268,-0.9299877325641077,-0.9944585005389612,-1.593806568776266,-3.1443679968463343
-0.8208544890033167,-2.7504480520831507,-0.9286916891681116,-0.9951298872577112,-1.5938547293292444,-3.1443920771228235
-0.8208902517901819,-2.7509992758380335,-0.9274433294879358,-0.9958255926715296,-1.5938428084002894,-3.1443799177752894
-0.8208306471454065,-2.7515504995929163,-0.9261472860919397,-0.9964726606952112,-1.5937708059894007,-3.1444159189807337
-0.8208425680743616,-2.7526772657977503,-0.9235675970660608,-0.9978635946856897,-1.5937588850604456,-3.144439999257223
-0.8208425680743616,-2.753240410481588,-0.9222472349749964,-0.9985955397235315,-1.593806568776266,-3.1444278399096888
-0.8208544890033167,-2.753791634236471,-0.9210589567767542,-0.9992306868182581,-1.5938666502581995,-3.1444278399096888
-0.8208544890033167,-2.754402462636129,-0.919750992451803,-0.999890152608053,-1.593710724507467,-3.1444760004626673
-0.8208306471454065,-2.755601231251852,-0.9171231428729456,-1.0013411680804651,-1.5937588850604456,-3.144439999257223
-0.820782486592428,-2.756200138722555,-0.9158027807818812,-1.0020125547992151,-1.5937708059894007,-3.144451920186178
-0.8207944075213831,-2.7568348089801233,-0.9145429770099085,-1.002791706715719,-1.593806568776266,-3.144463841115133
-0.8208425680743616,-2.7574461142169397,-0.9131267706500452,-1.0035112539874476,-1.5936387220965784,-3.144439999257223
-0.8207944075213831,-2.7587526480304163,-0.9105342070208948,-1.0050104300128382,-1.5937469641314905,-3.1444278399096888
-0.8208063284503382,-2.759387795125143,-0.9091900030719202,-1.005765740071432,-1.593686882649557,-3.144439999257223
-0.820782486592428,-2.760082546864645,-0.9078705946551722,-1.0064728895770472,-1.593806568776266,-3.1444760004626673
-0.8208063284503382,-2.76076585451235,-0.906478230153219,-1.0071929136859339,-1.593686882649557,-3.144451920186178
-0.8208306471454065,-2.7620475927936,-0.9038260618792933,-1.0086796919452112,-1.5937469641314905,-3.1445115248309534
-0.8208063284503382,-2.7626951376544397,-0.9024222532855433,-1.0094826857196253,-1.5936148802386683,-3.144451920186178
-0.820782486592428,-2.7633779684649866,-0.9010298887835901,-1.010202709828512,-1.5937588850604456,-3.1444760004626673
-0.820770565663473,-2.7639897505389612,-0.8996256033526819,-1.0110414663897913,-1.5936630407916468,-3.1444760004626673
-0.8207348028766077,-2.7652834097491663,-0.8968661467181605,-1.012552563344137,-1.5937469641314905,-3.1444879213916224
-0.8207586447345179,-2.7659428755389612,-0.8954857031451624,-1.0133679548846644,-1.593579117451803,-3.1444879213916224
-0.8207586447345179,-2.766613785420553,-0.8940699736224573,-1.014123264943258,-1.5936749617206019,-3.144451920186178
-0.8207467238055628,-2.7672489325152796,-0.8926294485675257,-1.0149748961078089,-1.5936506430255335,-3.1444760004626673
-0.8207586447345179,-2.768578831349508,-0.8898089567767542,-1.0164735952960413,-1.5936506430255335,-3.1444996039019983
-0.820770565663473,-2.769214455281393,-0.888381306325094,-1.0172646681415003,-1.5935547987567347,-3.1444996039019983
-0.8207586447345179,-2.769813362752096,-0.8869650999652308,-1.0180681387530726,-1.593567196522848,-3.144463841115133
-0.8207348028766077,-2.770412270222799,-0.8856094519244593,-1.0188000837909144,-1.5936387220965784,-3.1445115248309534
-0.8207586447345179,-2.771658722554342,-0.8829453627215784,-1.020346466694967,-1.5936148802386683,-3.144463841115133
-0.8207586447345179,-2.7723057905780237,-0.881540600453512,-1.0210779348956507,-1.5935071150409144,-3.1444996039019983
-0.8207104841815394,-2.772904698048727,-0.8802087942706507,-1.021881405507223,-1.5935071150409144,-3.1444996039019983
-0.8207104841815394,-2.773480240498678,-0.8788645903216761,-1.022552792225973,-1.5936029593097132,-3.1444996039019983
-0.8207224051104944,-2.7746666113482874,-0.8763445059405726,-1.0240514914142054,-1.5936148802386683,-3.1444996039019983
-0.8207224051104944,-2.7752659956561487,-0.8750603834735315,-1.0247834364520472,-1.5935309568988245,-3.1445115248309534
-0.8206747213946741,-2.775792900715963,-0.8738368193255823,-1.0255025068866175,-1.5935309568988245,-3.1445234457599085
-0.8206866423236292,-2.776332203541891,-0.8725765387164515,-1.0261738936053675,-1.5936148802386683,-3.1445234457599085
-0.8207104841815394,-2.7774108091937464,-0.8701279799090784,-1.0274809042560022,-1.5935547987567347,-3.1444996039019983
-0.820650879536764,-2.7779505888568323,-0.8689282576190394,-1.0281766096698206,-1.5935071150409144,-3.1445475260363978
-0.820662800465719,-2.7784412542926233,-0.8676803747760218,-1.0288355986224573,-1.5934112707721155,-3.1445353666888636
-0.8206866423236292,-2.778956715260641,-0.8664801756488245,-1.0294354597674769,-1.5936029593097132,-3.1445353666888636
-0.820662800465719,-2.7799156347857874,-0.8641160170184534,-1.030682388936178,-1.5934589544879358,-3.1445234457599085
-0.8206747213946741,-2.7804067770587366,-0.8629635016070765,-1.0312703291522425,-1.5935428778277796,-3.144559446965353
-0.8206747213946741,-2.780897919331686,-0.8618710676776331,-1.0319178740130823,-1.5933993498431605,-3.144571367894308
-0.820650879536764,-2.781365219746725,-0.860755745564596,-1.032445255910055,-1.593567196522848,-3.144583288823263
-0.8206389586078089,-2.782276455556051,-0.8586319128619593,-1.0336087385760706,-1.593470875416891,-3.1446433703051966
-0.8206389586078089,-2.78274375597109,-0.8575871626483362,-1.0341718832599085,-1.5935428778277796,-3.144703213368551
-0.8206389586078089,-2.783175293599264,-0.8565552870379847,-1.0347355047809046,-1.5933874289142054,-3.144691292439596
-0.820650879536764,-2.7836783568011683,-0.8555834929095667,-1.035334889088766,-1.5934832731830042,-3.144679371510641
-0.8206146399127405,-2.7846010367022913,-0.8536151091205042,-1.0362942854510706,-1.5933392683612269,-3.1446552912341517
-0.820662800465719,-2.78504449525942,-0.8527029196368616,-1.0368455092059534,-1.5934832731830042,-3.144715134297506
-0.8206747213946741,-2.785487953816549,-0.851778809224264,-1.0373614470111292,-1.5934112707721155,-3.144715134297506
-0.8206146399127405,-2.785919491444723,-0.8508551756488245,-1.0378287474261683,-1.5933392683612269,-3.1446552912341517
-0.8206389586078089,-2.7867701689349573,-0.8492105642901819,-1.0388601461993616,-1.5933392683612269,-3.144691292439596
-0.8205907980548304,-2.787189785634176,-0.8483708540545862,-1.0392797628985804,-1.5933993498431605,-3.144679371510641
-0.8206389586078089,-2.7875731627093714,-0.8474944273578089,-1.0397475401507776,-1.5934470335589808,-3.1446672121631067
-0.8206027189837855,-2.7879565397845667,-0.8467143217669886,-1.0401909987079065,-1.5933154265033167,-3.144691292439596
-0.8205788771258753,-2.7887595335589808,-0.845046345387594,-1.0411384741412562,-1.5933392683612269,-3.144703213368551
-0.8206265608416956,-2.7891786734210413,-0.8441947142230433,-1.0415824095355433,-1.593375031148092,-3.144703213368551
-0.8206146399127405,-2.7895382086383265,-0.8433783690081995,-1.042109791432516,-1.5934112707721155,-3.144691292439596
-0.8206265608416956,-2.78992206255068,-0.8425019423114222,-1.042565647755758,-1.5932791868792933,-3.144703213368551
-0.8205907980548304,-2.790713135396139,-0.8408339659320276,-1.0434768835650843,-1.593375031148092,-3.144679371510641
-0.8205907980548304,-2.7911322752581995,-0.8399341742144983,-1.0439680258380335,-1.5933154265033167,-3.1446433703051966
-0.8205907980548304,-2.791528050099508,-0.8390939871417444,-1.0444358030902308,-1.5934351126300257,-3.1447272936450403
-0.8206027189837855,-2.791910950337545,-0.838170353566305,-1.04492694536318,-1.5932911078082483,-3.144703213368551
-0.8205788771258753,-2.7927258650409144,-0.8364298979388636,-1.0459473768817347,-1.5933874289142054,-3.144691292439596
-0.8206265608416956,-2.793145481740133,-0.8355539480792444,-1.0464261213885706,-1.5933273474322718,-3.144679371510641
-0.8205788771258753,-2.7935527006732386,-0.8346660772906702,-1.0469062964068812,-1.5934351126300257,-3.144691292439596
-0.8206027189837855,-2.793936554585592,-0.8337777296649378,-1.047457520161764,-1.5933154265033167,-3.1446672121631067
-0.8205907980548304,-2.7947753111468714,-0.8319295088397425,-1.0483806769000452,-1.5933993498431605,-3.1446552912341517
-0.8206027189837855,-2.7952306906329554,-0.8310053984271448,-1.0489209334002894,-1.593243424092428,-3.144679371510641
-0.8205426375018519,-2.7956259886371058,-0.8300817648517054,-1.0494006315814417,-1.5933874289142054,-3.1446552912341517
-0.8205669561969202,-2.7960694471942347,-0.8291333357440394,-1.049891773854391,-1.5932791868792933,-3.144679371510641
-0.8205426375018519,-2.7969682852374476,-0.8273094336139124,-1.0508869330035608,-1.5934112707721155,-3.1446552912341517
-0.8205426375018519,-2.7974117437945765,-0.826397720967428,-1.0514147917376917,-1.593255345021383,-3.144703213368551
-0.8205187956439417,-2.797831360493795,-0.8254969755755823,-1.0519302527057093,-1.5933154265033167,-3.1447392145739954
-0.8205907980548304,-2.7982147375689905,-0.8245733420001429,-1.0524938742267054,-1.5933874289142054,-3.144691292439596
-0.8205426375018519,-2.79905349413027,-0.8228333632098597,-1.0534289518939417,-1.5933154265033167,-3.144679371510641
-0.8205788771258753,-2.799436871205465,-0.8219688574420374,-1.0539205710040491,-1.5932911078082483,-3.144679371510641
-0.8205307165728968,-2.7998326460467737,-0.8211291472064417,-1.0544241110431116,-1.593243424092428,-3.144691292439596
-0.8206027189837855,-2.8001797834979456,-0.8201926390277308,-1.0548561255084437,-1.5933874289142054,-3.144691292439596
-0.8205788771258753,-2.8009470144854944,-0.8185246626483362,-1.0558632055865687,-1.593375031148092,-3.1446672121631067
-0.8205550352679651,-2.801342789326803,-0.8176844755755823,-1.0563185850726526,-1.593255345021383,-3.144703213368551
-0.8205550352679651,-2.80167800584902,-0.8167966047870081,-1.0567267576800745,-1.5932195822345179,-3.144679371510641
-0.8205550352679651,-2.802061382924215,-0.8159807364093226,-1.0571702162372034,-1.593351189290182,-3.144703213368551
-0.8205426375018519,-2.802756134663717,-0.8144205252276819,-1.0580814520465296,-1.5933035055743616,-3.1446312109576624
-0.8204949537860315,-2.8031156698810022,-0.8136165777789515,-1.0585373083697718,-1.5932911078082483,-3.1447272936450403
-0.8205187956439417,-2.8034513632403772,-0.8128002325641077,-1.0589564482318323,-1.5931952635394495,-3.1446552912341517
-0.8205068747149866,-2.8038228193866175,-0.8120682875262659,-1.0594003836261194,-1.5933154265033167,-3.144691292439596
-0.8205068747149866,-2.8044584433185022,-0.8105323950396937,-1.0602157751666468,-1.5932195822345179,-3.1447272936450403
-0.8204711119281214,-2.804782215748922,-0.8098481337176722,-1.060575310383932,-1.5932791868792933,-3.144691292439596
-0.8205068747149866,-2.805129353200094,-0.8091037909137171,-1.061019245778219,-1.5931475798236292,-3.144691292439596
-0.8204949537860315,-2.8054407278644007,-0.808324162160055,-1.0614388624774378,-1.5932791868792933,-3.144679371510641
-0.8204830328570765,-2.806063954030172,-0.8069079558001917,-1.062122646962301,-1.5931356588946741,-3.144691292439596
-0.8204711119281214,-2.806387726460592,-0.8061640898333948,-1.0625422636615198,-1.5932672659503382,-3.144715134297506
-0.8205068747149866,-2.8066514174090784,-0.8054803053485315,-1.0629494825946253,-1.5930874983416956,-3.144691292439596
-0.8204830328570765,-2.806962792073385,-0.804784123097555,-1.0633090178119105,-1.5931714216815394,-3.144703213368551
-0.8204830328570765,-2.807634178792135,-0.8034041563617151,-1.0639689604388636,-1.5930636564837855,-3.144703213368551
-0.820446793233053,-2.8078740278827112,-0.8026717344867151,-1.0643647352801722,-1.5931833426104944,-3.144691292439596
-0.8204949537860315,-2.808233086262838,-0.8020480314837855,-1.0647724310504358,-1.5930874983416956,-3.144715134297506
-0.8204711119281214,-2.8084848562823694,-0.8014000097857874,-1.0650962034808558,-1.5931113401996058,-3.144715134297506
-0.8204591909991663,-2.8090718428241175,-0.8001039663897913,-1.0658515135394495,-1.5930636564837855,-3.144679371510641
-0.8204949537860315,-2.8093836943255823,-0.7995036284076136,-1.0662592093097132,-1.5931595007525843,-3.144703213368551
-0.8204229513751429,-2.8096593062030237,-0.7989032904254358,-1.0666306654559534,-1.5931595007525843,-3.144715134297506
-0.8204830328570765,-2.80992299715151,-0.7982676664935511,-1.0669425169574183,-1.593123737965719,-3.144679371510641
-0.8204830328570765,-2.810474220906393,-0.7971151510821741,-1.067566219960348,-1.5930398146258753,-3.1446672121631067
-0.8204830328570765,-2.8107741514789026,-0.7964432875262659,-1.067901913319723,-1.5931475798236292,-3.1447272936450403
-0.820434872304098,-2.8110135237323206,-0.7959273497210901,-1.0682256857501429,-1.5931714216815394,-3.144715134297506
-0.820434872304098,-2.811277214680807,-0.7953394095050257,-1.0685012976275843,-1.5930874983416956,-3.1447272936450403
-0.820434872304098,-2.811756436024801,-0.7942231337176722,-1.0690768400775355,-1.5931113401996058,-3.1447272936450403
-0.8204711119281214,-2.8120201269732874,-0.7936833540545862,-1.0694244543658655,-1.5931714216815394,-3.144703213368551
-0.8204591909991663,-2.8122480551349085,-0.7931187788592737,-1.0697367827044886,-1.5931952635394495,-3.1447511355029505
-0.820446793233053,-2.812427822743551,-0.7926271597491663,-1.0700481573687952,-1.5930994192706507,-3.1447630564319056
-0.820434872304098,-2.8129189650165003,-0.7915590445147913,-1.0704920927630823,-1.5930755774127405,-3.1447511355029505
-0.8204229513751429,-2.813146416340963,-0.7910431067096155,-1.0707557837115687,-1.5931952635394495,-3.144787136708395
-0.820446793233053,-2.813338581715719,-0.7905748526202601,-1.0710676352130335,-1.5931952635394495,-3.1447630564319056
-0.8204229513751429,-2.813554112111227,-0.7900951544391077,-1.0713794867144983,-1.5930994192706507,-3.14479905763735
-0.8204229513751429,-2.8139737288104456,-0.7891829649554651,-1.0718587080584925,-1.5930874983416956,-3.144823137913839
-0.8204229513751429,-2.814153496419088,-0.788739029561178,-1.0720866362201136,-1.5931595007525843,-3.144810978566305
-0.8204591909991663,-2.8143332640277308,-0.7883189360248011,-1.0723026434527796,-1.5931833426104944,-3.144810978566305
-0.820446793233053,-2.8145607153521937,-0.7879231611834925,-1.072566334401266,-1.5930278936969202,-3.144810978566305
-0.8204591909991663,-2.814932171498434,-0.787142578755514,-1.0730937162982386,-1.593123737965719,-3.144810978566305
-0.820446793233053,-2.8150880972491663,-0.7867825667010706,-1.0732739607440394,-1.5931595007525843,-3.1448469797717493
-0.820434872304098,-2.815291706715719,-0.7864106337176722,-1.0734894911395472,-1.5931595007525843,-3.1448350588427942
-0.8204591909991663,-2.8154595533954065,-0.7861345450030726,-1.0735977331744593,-1.5930398146258753,-3.14479905763735
-0.820446793233053,-2.815759007130758,-0.7854865233050745,-1.0739334265338343,-1.5931113401996058,-3.1448350588427942
-0.820446793233053,-2.8159387747394007,-0.7851746718036097,-1.0741494337665003,-1.5930636564837855,-3.1448350588427942
-0.820446793233053,-2.816094700490133,-0.7848742643939417,-1.0742810408221644,-1.5932195822345179,-3.144823137913839
-0.820434872304098,-2.8162387053119105,-0.7845986525165003,-1.0744851271258753,-1.5930278936969202,-3.144810978566305
-0.8204591909991663,-2.8165019194232386,-0.7840588728534144,-1.0748208204852503,-1.5931475798236292,-3.1448469797717493
-0.8204591909991663,-2.816669766102926,-0.78381854692568,-1.0748446623431605,-1.5930035750018519,-3.14479905763735
-0.820446793233053,-2.8167417685138147,-0.7835429350482386,-1.075024429951803,-1.5931475798236292,-3.144810978566305
-0.8204229513751429,-2.8168376127826136,-0.7833388487445276,-1.0751083532916468,-1.5930398146258753,-3.1448350588427942
-0.820446793233053,-2.817005459462301,-0.7829421202289026,-1.075348202382223,-1.5931833426104944,-3.1448469797717493
-0.820446793233053,-2.817089382802145,-0.7827742735492151,-1.0753000418292444,-1.5929916540728968,-3.144823137913839
-0.820446793233053,-2.8171494642840784,-0.7825825850116175,-1.0755279699908655,-1.5930994192706507,-3.144810978566305
-0.8204229513751429,-2.817221466694967,-0.7824261824237269,-1.0755036512957972,-1.5930517355548304,-3.1448350588427942
-0.820446793233053,-2.817305390034811,-0.7821982542621058,-1.075683895741598,-1.5931714216815394,-3.144823137913839
-0.820446793233053,-2.817341152821676,-0.7820904890643519,-1.0756600538836878,-1.5930035750018519,-3.14479905763735
-0.820434872304098,-2.8173888365374964,-0.7819464842425745,-1.0757916609393519,-1.5931595007525843,-3.144823137913839
-0.8204591909991663,-2.8173888365374964,-0.7818382422076624,-1.0756962935077112,-1.5931113401996058,-3.144810978566305
-0.820446793233053,-2.8174012343036097,-0.7818024794207972,-1.0756962935077112,-1.5931833426104944,-3.144823137913839
-0.820434872304098,-2.8173769156085413,-0.7817905584918421,-1.0758879820453089,-1.5929558912860315,-3.144787136708395
-0.8204591909991663,-2.8173769156085413,-0.7818024794207972,-1.0756362120257776,-1.5930874983416956,-3.1448589007007044
-0.8204229513751429,-2.8173888365374964,-0.7818382422076624,-1.0756238142596644,-1.5930398146258753,-3.1448469797717493
-0.820446793233053,-2.8173649946795862,-0.7818501631366175,-1.0755999724017542,-1.5930398146258753,-3.1448350588427942
-0.820434872304098,-2.8173888365374964,-0.7818382422076624,-1.0756123701678675,-1.5930035750018519,-3.144810978566305
-0.8204591909991663,-2.8174131552325647,-0.7818024794207972,-1.0756600538836878,-1.5930278936969202,-3.144810978566305
-0.8204711119281214,-2.8173649946795862,-0.7818620840655726,-1.0756481329547327,-1.5930517355548304,-3.1448350588427942
-0.820434872304098,-2.8173888365374964,-0.7818382422076624,-1.0756600538836878,-1.5930278936969202,-3.144810978566305
-0.8204110304461878,-2.8173888365374964,-0.7818501631366175,-1.0756481329547327,-1.5930517355548304,-3.1448469797717493
-0.820434872304098,-2.8173769156085413,-0.7818024794207972,-1.0756481329547327,-1.5930278936969202,-3.1448469797717493
-0.8204110304461878,-2.8173769156085413,-0.7818382422076624,-1.0756600538836878,-1.5930398146258753,-3.1448350588427942
-0.820446793233053,-2.8174012343036097,-0.7818501631366175,-1.0756362120257776,-1.5930278936969202,-3.1448469797717493
-0.8204591909991663,-2.8174131552325647,-0.7818501631366175,-1.0756719748126429,-1.593015495930807,-3.144810978566305
-0.8204591909991663,-2.8174012343036097,-0.7818501631366175,-1.0756962935077112,-1.5930517355548304,-3.144823137913839
-0.8204711119281214,-2.8173888365374964,-0.7818620840655726,-1.0756719748126429,-1.593015495930807,-3.144787136708395
-0.8203752676593226,-2.8174012343036097,-0.7818263212787073,-1.0756962935077112,-1.5930398146258753,-3.144810978566305
-0.820434872304098,-2.8173769156085413,-0.7818864027606409,-1.075780216847555,-1.5930278936969202,-3.1448469797717493
-0.8204110304461878,-2.8173888365374964,-0.7818501631366175,-1.0758636633502405,-1.593015495930807,-3.1448350588427942
-0.8204229513751429,-2.8174131552325647,-0.7818382422076624,-1.0758517424212855,-1.5930278936969202,-3.144810978566305
-0.820434872304098,-2.8174012343036097,-0.7818263212787073,-1.0758636633502405,-1.5930398146258753,-3.1448710600482386
-0.8204110304461878,-2.81742507616152,-0.7818382422076624,-1.075899902974264,-1.5930517355548304,-3.1448469797717493
-0.820434872304098,-2.8173888365374964,-0.7818382422076624,-1.0759475866900843,-1.5930278936969202,-3.144823137913839
-0.820434872304098,-2.8173769156085413,-0.7818501631366175,-1.076031510029928,-1.5930755774127405,-3.14479905763735
-0.820446793233053,-2.8173888365374964,-0.7818620840655726,-1.0760672728167933,-1.5930874983416956,-3.144823137913839
-0.820446793233053,-2.8173769156085413,-0.7818744818316858,-1.0760558287249964,-1.5930398146258753,-3.144787136708395
-0.820434872304098,-2.8173888365374964,-0.7818382422076624,-1.0761154333697718,-1.5930517355548304,-3.144823137913839
-0.820446793233053,-2.8174012343036097,-0.7818744818316858,-1.0760796705829065,-1.5930874983416956,-3.1448589007007044
-0.820434872304098,-2.8173888365374964,-0.7818620840655726,-1.076043430958883,-1.5930755774127405,-3.1448350588427942
-0.8204110304461878,-2.8173649946795862,-0.7818501631366175,-1.0761035124408167,-1.5930755774127405,-3.1448350588427942
-0.8204229513751429,-2.8174012343036097,-0.7818263212787073,-1.0760796705829065,-1.5930755774127405,-3.1448469797717493
-0.8204229513751429,-2.8173769156085413,-0.7818263212787073,-1.0760915915118616,-1.5930874983416956,-3.144823137913839
-0.8204110304461878,-2.8173888365374964,-0.7818024794207972,-1.0760796705829065,-1.5931833426104944,-3.14479905763735
-0.8204591909991663,-2.8174012343036097,-0.7818501631366175,-1.0760796705829065,-1.593243424092428,-3.1448589007007044
-0.8204229513751429,-2.8174131552325647,-0.7818263212787073,-1.0760558287249964,-1.5931714216815394,-3.1448350588427942
-0.8204110304461878,-2.8174131552325647,-0.7818620840655726,-1.0760558287249964,-1.593255345021383,-3.1448589007007044
-0.8204110304461878,-2.8174131552325647,-0.7818263212787073,-1.0760558287249964,-1.5932672659503382,-3.1448350588427942
-0.8203871885882776,-2.81742507616152,-0.7818501631366175,-1.076019589100973,-1.5931833426104944,-3.144823137913839
-0.8203991095172327,-2.8173888365374964,-0.7818864027606409,-1.0759595076190394,-1.5931475798236292,-3.1448350588427942
-0.8204110304461878,-2.8173888365374964,-0.7818620840655726,-1.0759356657611292,-1.5932911078082483,-3.144810978566305
-0.8203991095172327,-2.8173649946795862,-0.7820065657245081,-1.075899902974264,-1.5931714216815394,-3.144810978566305
-0.8204591909991663,-2.817353073750631,-0.7820423285113733,-1.0757320562945765,-1.5931595007525843,-3.144810978566305
-0.820434872304098,-2.817329231892721,-0.7821982542621058,-1.075707737599508,-1.5930517355548304,-3.144823137913839
-0.820434872304098,-2.817317310963766,-0.7822945753680628,-1.0755880514727991,-1.5931833426104944,-3.1448350588427942
-0.8204229513751429,-2.8171971479998987,-0.7826421896563929,-1.0754082838641565,-1.593123737965719,-3.1448350588427942
-0.8204229513751429,-2.8171375433551233,-0.7828705946551722,-1.0751803557025355,-1.5931356588946741,-3.144823137913839
-0.820434872304098,-2.8170293013202112,-0.7831462065326136,-1.0751565138446253,-1.593015495930807,-3.1448589007007044
-0.8204591909991663,-2.816897694264547,-0.7834709326373499,-1.0749405066119593,-1.5931356588946741,-3.1448350588427942
-0.8203871885882776,-2.816634003316061,-0.7841904799090784,-1.0745928923236292,-1.5929916540728968,-3.144810978566305
-0.8204110304461878,-2.8164780775653284,-0.7845624128924769,-1.0743768850909632,-1.5931475798236292,-3.144810978566305
-0.8204110304461878,-2.816322151814596,-0.7849705854998987,-1.0741613546954554,-1.5929916540728968,-3.1448589007007044
-0.8204711119281214,-2.8161428610431116,-0.785403076802389,-1.0738499800311487,-1.5930636564837855,-3.1448350588427942
-0.820446793233053,-2.8156994024859827,-0.7863267103778284,-1.0733216444598597,-1.593015495930807,-3.1448350588427942
-0.820446793233053,-2.815495316182272,-0.7868302504168909,-1.0730698744403284,-1.5931714216815394,-3.144810978566305
-0.820446793233053,-2.8152321020709437,-0.7873228232013147,-1.0728057066546839,-1.5930517355548304,-3.144810978566305
-0.8204591909991663,-2.8149564901935022,-0.7878988424884241,-1.0725424925433558,-1.5930636564837855,-3.14479905763735
-0.8204591909991663,-2.81447679201235,-0.7889907995807093,-1.0718348662005823,-1.5931113401996058,-3.144810978566305
-0.820446793233053,-2.8141892592059534,-0.7895787397967737,-1.0715115706073206,-1.593015495930807,-3.144823137913839
-0.8204591909991663,-2.813889805470602,-0.790142838154928,-1.0711634794818323,-1.5931356588946741,-3.144823137913839
-0.8204711119281214,-2.8136614004718226,-0.7907550970660608,-1.0708158651935022,-1.5930517355548304,-3.144787136708395
-0.8204830328570765,-2.8130748907672327,-0.7919552961932581,-1.0701077620135706,-1.593123737965719,-3.1447511355029505
-0.8205068747149866,-2.8127992788897913,-0.7925670782672327,-1.0697844664203089,-1.5930278936969202,-3.144703213368551
-0.8204591909991663,-2.812535587941305,-0.7931793371783655,-1.0694964567767542,-1.5931595007525843,-3.144703213368551
-0.8205068747149866,-2.81222373643984,-0.7938273588763636,-1.0690768400775355,-1.593015495930807,-3.1446672121631067
-0.8205187956439417,-2.8117087523089808,-0.7951353232013147,-1.0682976881610315,-1.5930874983416956,-3.144679371510641
-0.8205307165728968,-2.811420742665426,-0.7958315054522913,-1.0679858366595667,-1.5930035750018519,-3.1446672121631067
-0.8205426375018519,-2.8111212889300745,-0.7965391317950647,-1.0676139036761683,-1.5931595007525843,-3.1446433703051966
-0.8205788771258753,-2.810857597981588,-0.7971990744220179,-1.0672186056720179,-1.5930636564837855,-3.1446312109576624
-0.8205550352679651,-2.8103063742267054,-0.7985437552081507,-1.0664270559894007,-1.593123737965719,-3.1446433703051966
-0.8206027189837855,-2.810006920491354,-0.7992156187640589,-1.0660555998431605,-1.5930035750018519,-3.1446312109576624
-0.8206146399127405,-2.8097193876849573,-0.7999594847308558,-1.0656355063067835,-1.5931714216815394,-3.1446312109576624
-0.8206146399127405,-2.8093956152545374,-0.800643269215719,-1.0651925245868128,-1.5931356588946741,-3.1446073690997522
-0.8206027189837855,-2.8087485472308558,-0.8020599524127405,-1.0644009749041956,-1.5931475798236292,-3.144571367894308
-0.8206389586078089,-2.8084128538714808,-0.8028033415423792,-1.0639565626727503,-1.5931833426104944,-3.144559446965353
-0.8206265608416956,-2.808089558278219,-0.803500000630514,-1.0635011831866663,-1.5931595007525843,-3.1445475260363978
-0.820662800465719,-2.8077543417560022,-0.8042681852923792,-1.0631173292743128,-1.5931475798236292,-3.1445234457599085
-0.8206985632525843,-2.8070347944842737,-0.8057683149920862,-1.0623262564288538,-1.5931714216815394,-3.1445234457599085
-0.8206985632525843,-2.806711022053854,-0.8065360228167933,-1.0617745558368128,-1.5931714216815394,-3.1445234457599085
-0.8207348028766077,-2.8063276449786585,-0.8073762098895472,-1.061343018208639,-1.5931595007525843,-3.1444996039019983
-0.8207348028766077,-2.8059800306903284,-0.808120075856344,-1.0608871618853968,-1.5931595007525843,-3.1445234457599085
-0.8207467238055628,-2.8052733580218714,-0.8097999731646937,-1.0599401632892054,-1.5931595007525843,-3.1444039980517786
-0.8207586447345179,-2.804889980946676,-0.8106759230243128,-1.059472386037008,-1.5931475798236292,-3.1443679968463343
-0.8207586447345179,-2.804542366658346,-0.8115165869342249,-1.0590046087848108,-1.5931475798236292,-3.1443920771228235
-0.820782486592428,-2.8041227499591272,-0.8123686949359339,-1.0585373083697718,-1.5931113401996058,-3.1444159189807337
-0.8208187262164515,-2.8033912817584437,-0.8141205946551722,-1.0575178305255335,-1.593123737965719,-3.1444039980517786
-0.8208187262164515,-2.8030317465411585,-0.8150089422809046,-1.0569661299334925,-1.593123737965719,-3.1443920771228235
-0.8208544890033167,-2.8026369253741663,-0.815920654927389,-1.0563910643206995,-1.593123737965719,-3.1443679968463343
-0.8208544890033167,-2.8022053877459925,-0.8168566862689417,-1.0559113661395472,-1.593123737965719,-3.14433199564089
-0.8208902517901819,-2.801450554524557,-0.8186686674701136,-1.0548203627215784,-1.5930636564837855,-3.1442840735064905
-0.8209503332721155,-2.801030937825338,-0.8196652571307581,-1.0542801062213343,-1.5930874983416956,-3.1442483107196253
-0.8209145704852503,-2.800598923360006,-0.8206246534930628,-1.0537646452533167,-1.5930755774127405,-3.144212309514181
-0.8209503332721155,-2.8001917044269007,-0.821596924458639,-1.0532010237323206,-1.593015495930807,-3.144236151372091
-0.8209503332721155,-2.7993653456317347,-0.8236010710345667,-1.0521224180804651,-1.5929797331439417,-3.1442483107196253
-0.820998493825094,-2.798933808003561,-0.8245614210711878,-1.0515583197223108,-1.593015495930807,-3.1442483107196253
-0.8209860960589808,-2.798490349446432,-0.8255932966815394,-1.0509827772723597,-1.5930035750018519,-3.144212309514181
-0.8210104147540491,-2.798058811818258,-0.8265894095050257,-1.0504191557513636,-1.593015495930807,-3.144224230443136
-0.8210585753070276,-2.797243897114889,-0.8285935560809534,-1.049232308064596,-1.5930035750018519,-3.1441882292376917
-0.8210704962359827,-2.796788517628805,-0.8296015898333948,-1.0487168470965784,-1.593015495930807,-3.1441763083087366
-0.8210943380938929,-2.796356980000631,-0.8306697050677698,-1.0481770674334925,-1.5929916540728968,-3.1441403071032923
-0.8210466543780726,-2.7959135214435022,-0.8316295782672327,-1.0475295225726526,-1.593015495930807,-3.1441643873797815
-0.8210943380938929,-2.794990841542379,-0.8337419668780726,-1.0464385191546839,-1.5930398146258753,-3.144080464039938
-0.8211424986468714,-2.7945473829852503,-0.8347738424884241,-1.0458510557757776,-1.593015495930807,-3.144104305897848
-0.8211424986468714,-2.7940924803363245,-0.835830036793844,-1.0453231970416468,-1.5930035750018519,-3.1440325419055384
-0.8211305777179163,-2.7935765425311487,-0.836898152028219,-1.0447114149676722,-1.593015495930807,-3.144020382558004
-0.8211782614337366,-2.7926419417010706,-0.8389256636248987,-1.0434888044940394,-1.5930278936969202,-3.144020382558004
-0.8211901823626917,-2.792210404072897,-0.8399699370013636,-1.0428293387042444,-1.5930278936969202,-3.1440563837634485
-0.8211782614337366,-2.791731659566061,-0.8410146872149866,-1.0422652403460901,-1.5930035750018519,-3.143996540700094
-0.8212383429156702,-2.791323963795797,-0.8420103232013147,-1.0417259375201624,-1.593015495930807,-3.143996540700094
-0.8212502638446253,-2.790401283894674,-0.8441222349749964,-1.040466610585348,-1.593015495930807,-3.1439605394946497
-0.8212383429156702,-2.78994590440859,-0.8451789061175745,-1.0398796240436,-1.5930035750018519,-3.1439605394946497
-0.8212741057025355,-2.789501969014303,-0.8462823073016565,-1.0392316023456019,-1.593015495930807,-3.1439130941974085
-0.8212865034686487,-2.789035145436422,-0.8473985830890101,-1.038680378590719,-1.5930035750018519,-3.143865172063009
-0.8212741057025355,-2.788184467946188,-0.8495705763446253,-1.0374816099749964,-1.5930278936969202,-3.143877092991964
-0.8213103453265589,-2.7876809279071253,-0.8506391684161585,-1.0368698279010218,-1.593015495930807,-3.143877092991964
-0.821322266255514,-2.7872136274920862,-0.8517072836505335,-1.0362103621112269,-1.593015495930807,-3.14384109178652
-0.8213461081134241,-2.7867582480060022,-0.852858845387594,-1.0355504194842737,-1.593015495930807,-3.1438291708575647
-0.8213942686664026,-2.785811249409811,-0.8551395575152796,-1.0343158880816858,-1.5930035750018519,-3.1438291708575647
-0.8214181105243128,-2.785379711781637,-0.8562191168414515,-1.033656422291891,-1.5930035750018519,-3.143769089375631
-0.8214061895953577,-2.7849367300616663,-0.8573716322528284,-1.0330565611468714,-1.5930035750018519,-3.143757168446676
-0.821441952382223,-2.784445110951559,-0.8584631125079554,-1.0324328581439417,-1.593015495930807,-3.1437092463122767
-0.8214662710772913,-2.783522907887594,-0.8608034292804163,-1.0312703291522425,-1.593015495930807,-3.143733326588766
-0.8215020338641565,-2.7830074469195765,-0.8619673887835901,-1.0305865446673792,-1.593015495930807,-3.1437211672412317
-0.8214781920062464,-2.7825401465045374,-0.8630474249469202,-1.0299270788775843,-1.5930278936969202,-3.1436854044543665
-0.8214901129352015,-2.78204852739443,-0.8641999403582972,-1.0293152968036097,-1.5930278936969202,-3.143649403248922
-0.8215020338641565,-2.7809818426715296,-0.8664200941668909,-1.0280683676349085,-1.593015495930807,-3.143613402043478
-0.8215377966510218,-2.780526940022604,-0.8674643675433558,-1.0273612181292933,-1.5929916540728968,-3.1436014811145228
-0.8215859572040003,-2.7800353209124964,-0.8686159292804163,-1.0267494360553187,-1.5930398146258753,-3.1435893217669886
-0.8215740362750452,-2.7795560995685022,-0.86975604692568,-1.0261018911944788,-1.5929916540728968,-3.1435893217669886
-0.8216093222247522,-2.7785971800433558,-0.8719881216632288,-1.0247352758990687,-1.593015495930807,-3.1435654799090784
-0.8216212431537073,-2.778130356465475,-0.8730562368976038,-1.0241110960589808,-1.5930398146258753,-3.143529478703634
-0.8216336409198206,-2.7776506582843226,-0.874148193989889,-1.0234158674823206,-1.5930035750018519,-3.1434455553637903
-0.8216574827777308,-2.7771952787982386,-0.8752525488482874,-1.0228045622455042,-1.5930035750018519,-3.1434696356402796
-0.8216694037066858,-2.776212517415182,-0.8774727026568812,-1.0214856306659144,-1.5930278936969202,-3.1434815565692347
-0.8216212431537073,-2.775745217000143,-0.8785885016070765,-1.0209220091449183,-1.5929797331439417,-3.1434815565692347
-0.821693245564596,-2.7752421537982386,-0.8796690146075647,-1.0201786200152796,-1.593015495930807,-3.1434336344348353
-0.821693245564596,-2.7747748533831995,-0.8807609716998499,-1.019555393849508,-1.5930035750018519,-3.1433737913714808
-0.8217414061175745,-2.7738516966449183,-0.8830168882953089,-1.0182717482196253,-1.5929797331439417,-3.1433737913714808
-0.8217051664935511,-2.773324791585104,-0.8842051664935511,-1.0177086035357874,-1.5929916540728968,-3.1433497110949915
-0.8217771689044397,-2.772916618977682,-0.8853328863727015,-1.0170729796039026,-1.593015495930807,-3.1433737913714808
-0.8217890898333948,-2.7724135557757776,-0.8864730040179651,-1.0163891951190394,-1.5930398146258753,-3.1433022657977503
-0.8218010107623499,-2.771527115498678,-0.8887293974505823,-1.0150826613055628,-1.5930278936969202,-3.1433022657977503
-0.8218849341021937,-2.770975414906637,-0.8898089567767542,-1.0144708792315882,-1.593015495930807,-3.1433022657977503
-0.8218372503863733,-2.7705562750445765,-0.8909495512591761,-1.013895336781637,-1.5930035750018519,-3.143290106450216
-0.8218968550311487,-2.770064655934469,-0.8920295874225062,-1.0132477919207972,-1.5930035750018519,-3.143266264592306
-0.8218849341021937,-2.7690823713885706,-0.8942135016070765,-1.012000862752096,-1.5929797331439417,-3.1432064215289515
-0.8218968550311487,-2.7686026732074183,-0.8952935377704065,-1.0113652388202112,-1.5930278936969202,-3.143170420323507
-0.8219211737262171,-2.768111530934469,-0.8963616530047815,-1.0108016172992151,-1.5929916540728968,-3.143158260975973
-0.8219688574420374,-2.7676318327533167,-0.8974779287921351,-1.0102265516864222,-1.5929916540728968,-3.143050495778219
-0.8219569365130823,-2.766721550618307,-0.8995898405658167,-1.0090392271624964,-1.5930278936969202,-3.142931048070089
-0.8219569365130823,-2.766290012990133,-0.9006455580340784,-1.00842792192568,-1.593015495930807,-3.1430144945727747
-0.8219688574420374,-2.765834633504049,-0.9017022291766565,-1.0078161398517054,-1.593015495930807,-3.142895046864645
-0.8220170179950159,-2.76536733308901,-0.9027698675738733,-1.0072768370257776,-1.5930278936969202,-3.1429787317859095
-0.8220170179950159,-2.7644570509540003,-0.904858414326803,-1.0060771147357386,-1.593015495930807,-3.1428235212909144
-0.822028938923971,-2.7640135923968714,-0.9058421293841761,-1.0055134932147425,-1.593015495930807,-3.1429429689990442
-0.8220527807818812,-2.7635696570025843,-0.9068740049945276,-1.0049145857440394,-1.593015495930807,-3.1428354422198694
-0.8220408598529261,-2.7631261984454554,-0.9079068342791956,-1.0042670408831995,-1.5929916540728968,-3.1429069677936
-0.8220890204059046,-2.762179676686422,-0.9100187460528772,-1.003092114125387,-1.593015495930807,-3.14278752008547
-0.8220647017108362,-2.7617366949664515,-0.9110625425921839,-1.0024803320514124,-1.593015495930807,-3.142895046864645
-0.82214862505068,-2.7612693945514124,-0.9121063391314905,-1.0019047896014612,-1.5929916540728968,-3.1428116003619593
-0.8221247831927698,-2.7608259359942835,-0.9131148497210901,-1.0012334028827112,-1.5929797331439417,-3.1428595224963587
-0.82214862505068,-2.759962860737936,-0.9152630011187952,-1.0001300016986292,-1.5929678122149866,-3.14276367822756
-0.8221605459796351,-2.759543244038717,-0.9163067976581019,-0.9995067755328577,-1.5930035750018519,-3.1428116003619593
-0.8221848646747034,-2.7590764204608362,-0.9174230734454554,-0.9989188353167933,-1.5929916540728968,-3.1427038351642054
-0.8222087065326136,-2.7586210409747522,-0.918466869984762,-0.9983189741717737,-1.593015495930807,-3.142775599156515
-0.8221967856036585,-2.757721726094381,-0.9206751028644007,-0.9970725218402308,-1.593015495930807,-3.1427038351642054
-0.8222325483905237,-2.7571705023394983,-0.9218276182757776,-0.9964607397662562,-1.593015495930807,-3.142775599156515
-0.8222444693194788,-2.7566550413714808,-0.9229791800128382,-0.9958017508136194,-1.593015495930807,-3.142667833958761
-0.8222444693194788,-2.7561643759356897,-0.9241312185870569,-0.9951656500445765,-1.593015495930807,-3.1427157560931605
-0.8222563902484339,-2.7552173773394983,-0.9264472166644495,-0.9937627951251429,-1.5929797331439417,-3.1426318327533167
-0.8222807089435022,-2.754702393208639,-0.9275992552386683,-0.9931395689593714,-1.5930035750018519,-3.142679754887716
-0.8223283926593226,-2.7542226950274866,-0.9287636915790003,-0.992431942616598,-1.5930035750018519,-3.1426199118243616
-0.8223045508014124,-2.7537077108966272,-0.9298799673663538,-0.9917843977557581,-1.5929916540728968,-3.1425839106189173
-0.8223765532123011,-2.752641503010885,-0.9323399702655237,-0.9904058615313929,-1.593015495930807,-3.142524067555563
-0.8223884741412562,-2.752113644276754,-0.9334076086627405,-0.9897459189044397,-1.5929916540728968,-3.1425958315478724
-0.8224242369281214,-2.7515981833087366,-0.934727970753805,-0.9889662901507776,-1.5930035750018519,-3.142571989689962
-0.8224242369281214,-2.751059357319967,-0.9359281698810022,-0.988319222127096,-1.5929797331439417,-3.1424761454211634
-0.8224485556231897,-2.7499449888812464,-0.9383524099933069,-0.9868200461017054,-1.5929797331439417,-3.1423922220813196
-0.8224962393390101,-2.749441448842184,-0.9396360556231897,-0.986220661793844,-1.5929797331439417,-3.142427984868185
-0.8225200811969202,-2.748902146016256,-0.9408839384662073,-0.9854291121112269,-1.5929558912860315,-3.1424761454211634
-0.8225563208209437,-2.7483633200274866,-0.9421442190753382,-0.9847582022296351,-1.5929439703570765,-3.142284695302145
-0.8225324789630335,-2.7473085562335413,-0.9447243849383753,-0.983307186757223,-1.5929916540728968,-3.1423681418048304
-0.8225682417498987,-2.7467454115497034,-0.9460089842425745,-0.9825637976275843,-1.5929797331439417,-3.142308298741476
-0.8225682417498987,-2.7462056318866175,-0.947364632283346,-0.9818080107318323,-1.5929558912860315,-3.142452065144674
-0.8225682417498987,-2.7456191221820276,-0.9487088362323206,-0.9810770193683069,-1.5929678122149866,-3.142308298741476
-0.8225920836078089,-2.744516197835104,-0.9513486067401331,-0.9795897642718714,-1.5929558912860315,-3.142332140599386
-0.8226283232318323,-2.7439172903644007,-0.9527047316180628,-0.9788344542132776,-1.5929678122149866,-3.1422727743731897
-0.8226283232318323,-2.7433298269854944,-0.9539406935321253,-0.9780429045306605,-1.5929558912860315,-3.1423922220813196
-0.8226760069476526,-2.7427189985858362,-0.9552848974810999,-0.9773719946490687,-1.5929797331439417,-3.1422486940967005
-0.8226879278766077,-2.7415807882892054,-0.957961384450094,-0.9759085814105433,-1.5929678122149866,-3.142332140599386
-0.8227241675006312,-2.7410290876971644,-0.959365193043844,-0.9751532713519495,-1.5929439703570765,-3.1421168486224573
-0.8227480093585413,-2.7404540220843714,-0.9606493155108851,-0.9743741194354456,-1.5929558912860315,-3.1422367731677454
-0.8227480093585413,-2.7398551146136683,-0.9619815985309046,-0.9736188093768519,-1.5929797331439417,-3.1422606150256556
-0.8227837721454065,-2.7387521902667444,-0.9645975271808069,-0.9721558729754847,-1.5929315725909632,-3.142212692891256
-0.8227837721454065,-2.7381771246539515,-0.965881649647848,-0.9713524023639124,-1.5929558912860315,-3.142093006764547
-0.8228438536273401,-2.7376139799701136,-0.967165772114889,-0.9706090132342737,-1.5929558912860315,-3.142057005559103
-0.8228319326983851,-2.7370150724994105,-0.9684980551349085,-0.9698413054095667,-1.5929558912860315,-3.1421049276935022
-0.8228676954852503,-2.7358644644366663,-0.9710896650897425,-0.9683550039874476,-1.5929315725909632,-3.1420210043536585
-0.8228796164142054,-2.7352774778949183,-0.9724095503436487,-0.9676230589496058,-1.5929678122149866,-3.142057005559103
-0.822951618825094,-2.7347262541400355,-0.9737418333636683,-0.9668796698199671,-1.5929558912860315,-3.1418891588794153
-0.8229277769671839,-2.7341631094561976,-0.9750497976886194,-0.9661248365985315,-1.5929439703570765,-3.141985003148214
-0.822939697896139,-2.7330244223224085,-0.9777019659625452,-0.9646013418780726,-1.592919651662008,-3.141865317021505
-0.8229754606830042,-2.7324493567096155,-0.9790461699115198,-0.9638822714435022,-1.592895809804098,-3.14194900194277
-0.8229635397540491,-2.7318504492389124,-0.9803665320025843,-0.9631026426898401,-1.592907730733053,-3.141853157673971
-0.8229878584491175,-2.7312148253070276,-0.9817584196673792,-0.962323013936178,-1.5929678122149866,-3.1418052355395716
-0.8229997793780726,-2.730004612599508,-0.9844582716571253,-0.9607766310321253,-1.592895809804098,-3.141757313405172
-0.823059384022848,-2.729381863270895,-0.985814396535055,-0.9599373976336878,-1.5929315725909632,-3.1418171564685267
-0.8230717817889612,-2.728818718587057,-0.9871342817889612,-0.9591577688800257,-1.592895809804098,-3.141853157673971
-0.8230837027179163,-2.7282913366900843,-0.9885028044330042,-0.9584863821612757,-1.592895809804098,-3.141709868107931
-0.8231075445758265,-2.727152649556295,-0.9911187330829065,-0.9569276014911097,-1.592895809804098,-3.141721312199728
-0.8231194655047815,-2.7266019026385706,-0.9924867788897913,-0.9561360518084925,-1.592895809804098,-3.1416497866259974
-0.8231552282916468,-2.7260025183307093,-0.9937947432147425,-0.9553688208209437,-1.5928118864642542,-3.141733471547262
-0.8231671492206019,-2.7254274527179163,-0.995127026234762,-0.9546731154071253,-1.592788044606344,-3.1416378656970423
-0.8231790701495569,-2.7243126074420374,-0.9977672735797327,-0.9531148115741175,-1.5927999655352991,-3.141697708760397
-0.8231552282916468,-2.723773781453268,-0.999099079762594,-0.9523232618915003,-1.5928357283221644,-3.141517941151754
-0.823190991078512,-2.72321063676943,-1.0004189650165003,-0.9516757170306605,-1.5928481260882776,-3.1415420214282435
-0.8232391516314905,-2.722659413014547,-1.001763168965475,-0.9508841673480433,-1.5928481260882776,-3.141578022633688
-0.823310677205221,-2.7215564886676233,-1.0044272581683558,-0.9493497053729456,-1.5928357283221644,-3.141482178364889
-0.8232987562762659,-2.7209814230548304,-1.0057476202594202,-0.9485819975482386,-1.5928357283221644,-3.141350332890646
-0.823310677205221,-2.7204063574420374,-1.0070918242083948,-0.9479225317584437,-1.5928357283221644,-3.141350332890646
-0.8233469168292444,-2.7198432127581995,-1.0084593931781214,-0.9471309820758265,-1.5928357283221644,-3.141398255025045
-0.8233707586871546,-2.71863300005068,-1.0111115614520472,-0.9456442038165491,-1.5928118864642542,-3.141350332890646
-0.8233946005450647,-2.718057934437887,-1.0125153700457972,-0.944948975239889,-1.5928357283221644,-3.141290251408712
-0.8233707586871546,-2.717482391987936,-1.0138357321368616,-0.9441936651812952,-1.5928118864642542,-3.141266409550802
-0.8234189192401331,-2.716919247304098,-1.0151317755328577,-0.94348651567568,-1.5928238073932093,-3.1413262526141565
-0.8234308401690882,-2.7158411184894007,-1.0177596251117151,-0.9419992605792444,-1.5928118864642542,-3.1413024107562464
-0.8234666029559534,-2.715313736592428,-1.0190556685077112,-0.9413035551654261,-1.5928238073932093,-3.141266409550802
-0.8235023657428187,-2.7147744337665003,-1.0203755537616175,-0.940523926411764,-1.5928600470172327,-3.1411948839770716
-0.8234904448138636,-2.7142232100116175,-1.0216715971576136,-0.9397571722613733,-1.5928357283221644,-3.1412187258349817
-0.823526684437887,-2.71312123933901,-1.0242398420916956,-0.9382823149310511,-1.5928238073932093,-3.1411829630481165
-0.8235505262957972,-2.7125938574420374,-1.0255120436297815,-0.9375985304461878,-1.5928838888751429,-3.141110960637228
-0.8235624472247522,-2.7120545546161097,-1.0267117659198206,-0.936843220387594,-1.5928118864642542,-3.1410511175738733
-0.8235624472247522,-2.711503330861227,-1.028008286152975,-0.9361837545977991,-1.5928600470172327,-3.141110960637228
-0.8235862890826624,-2.7104252020465296,-1.0304206053363245,-0.9346845785724085,-1.5928719679461878,-3.1410511175738733
-0.823623005543844,-2.7098496595965784,-1.0317404905902308,-0.9339774290667933,-1.5928481260882776,-3.141015116368429
-0.8236349264727991,-2.7093222776996058,-1.0329764525042933,-0.9332345167743128,-1.5928600470172327,-3.1409671942340296
-0.8236706892596644,-2.708782974873678,-1.0342963377581995,-0.9324906508075159,-1.5928600470172327,-3.141038958226339
-0.8236945311175745,-2.7077048460589808,-1.0367687384234827,-0.9311121145831507,-1.5928600470172327,-3.1409311930285853
-0.823742691670553,-2.707153622304098,-1.0380285421954554,-0.9302962462054651,-1.5928838888751429,-3.141027037297384
-0.8237188498126429,-2.706601921712057,-1.0392401854144495,-0.9296248594867151,-1.5928481260882776,-3.140895191823141
-0.823742691670553,-2.706003014241354,-1.0404885450946253,-0.9288814703570765,-1.5928719679461878,-3.1409791151629847
-0.8237784544574183,-2.704888645802633,-1.0429967085467737,-0.9275506178485315,-1.5928481260882776,-3.1408472696887415
-0.8238266150103968,-2.704301182423727,-1.0442207495318812,-0.9267829100238245,-1.5928238073932093,-3.1409311930285853
-0.8237784544574183,-2.7038219610797327,-1.045492951069967,-0.9261115233050745,-1.5928238073932093,-3.1408591906176966
-0.8238146940814417,-2.703282658253805,-1.0468371550189417,-0.925356690083639,-1.5927999655352991,-3.140811268483297
-0.8238504568683069,-2.7022526899920862,-1.0493329207049769,-0.9240611235248011,-1.5928238073932093,-3.1407395044909876
-0.8238986174212855,-2.701700989400045,-1.0506766478167933,-0.9232938925372522,-1.5928357283221644,-3.1407633463488978
-0.8239105383502405,-2.7011616865741175,-1.051925007496969,-0.9226468245135706,-1.5928118864642542,-3.1407633463488978
-0.823862377797262,-2.7006104628192347,-1.0531609694110315,-0.921950642262594,-1.5928357283221644,-3.140643898640768
-0.8238986174212855,-2.6995084921466272,-1.0556090513812464,-0.9204881826983851,-1.5928481260882776,-3.140679423009054
-0.8239224592791956,-2.6989572683917444,-1.056856934224264,-0.9197567144977015,-1.5928357283221644,-3.140667502080099
-0.8239944616900843,-2.698441807423727,-1.0581048170672815,-0.919049088154928,-1.5928600470172327,-3.140691582356588
-0.8239944616900843,-2.697878662739889,-1.0594127813922327,-0.9183295408831995,-1.592788044606344,-3.1406078974353235
-0.8240063826190394,-2.6968844572650355,-1.061885182057516,-0.9169266859637659,-1.5928238073932093,-3.140643898640768
-0.8240183035479944,-2.6963332335101526,-1.0630610624896448,-0.9161713759051722,-1.5928357283221644,-3.140524212514059
-0.8240302244769495,-2.695793930684225,-1.0642970244037073,-0.915476147328512,-1.5928481260882776,-3.1405721346484583
-0.8240903059588831,-2.6952183882342737,-1.065544907246725,-0.9147923628436487,-1.5928600470172327,-3.1405840555774134
-0.8241141478167933,-2.6941521803485315,-1.068017307912008,-0.9134133497821253,-1.5928481260882776,-3.1405721346484583
-0.824066464100973,-2.69352895418276,-1.0692771116839808,-0.9126704374896448,-1.5928238073932093,-3.140536133443014
-0.8241022268878382,-2.6929896513568323,-1.0705493132220667,-0.9119747320758265,-1.5927999655352991,-3.1404641310321253
-0.8241141478167933,-2.6924503485309046,-1.0718210379229944,-0.9111712614642542,-1.5928357283221644,-3.140548054371969
-0.8241742292987269,-2.6913722197162073,-1.0743535200702112,-0.9098165670977991,-1.5928481260882776,-3.140428129826681
-0.8241742292987269,-2.6908567587481897,-1.075601879750387,-0.9090731779681605,-1.5927999655352991,-3.1405721346484583
-0.824198071156637,-2.690293614064352,-1.0769456068622034,-0.9083774725543421,-1.5928481260882776,-3.140428129826681
-0.8242462317096155,-2.689766232167379,-1.0782416502581995,-0.9076460043536585,-1.5928357283221644,-3.1403563658343714
-0.8242581526385706,-2.6887357870685022,-1.0808094183551233,-0.9062073866473597,-1.5928357283221644,-3.1403802076922815
-0.8242462317096155,-2.6881964842425745,-1.0821054617511194,-0.9055236021624964,-1.5928357283221644,-3.1404641310321253
-0.8242581526385706,-2.6876214186297815,-1.0834253470050257,-0.9047802130328577,-1.5928118864642542,-3.1404641310321253
-0.8242939154254358,-2.687129799519674,-1.0846732298480433,-0.9040730635272425,-1.5928481260882776,-3.1402843634234827
-0.824317757283346,-2.686063591633932,-1.0871933142291468,-0.9026101271258753,-1.5928357283221644,-3.1402724424945276
-0.8243296782123011,-2.6855481306659144,-1.0884531180011194,-0.9019148985492151,-1.5928238073932093,-3.140212599431173
-0.8243539969073694,-2.685033146535055,-1.0897372404681605,-0.9011953512774866,-1.5928238073932093,-3.1402724424945276
-0.8243897596942347,-2.6845534483539026,-1.0909741560565394,-0.9004758040057581,-1.5928357283221644,-3.1401525179492396
-0.8243897596942347,-2.683427635823385,-1.093433682118551,-0.8989771048175257,-1.5928600470172327,-3.140200440083639
-0.8244498411761683,-2.682864491139547,-1.0946577231036585,-0.8982694784747522,-1.5928238073932093,-3.1401405970202845
-0.8244617621051233,-2.682265106831686,-1.0959418455706995,-0.8974784056292933,-1.5928357283221644,-3.1402245203601282
-0.8244736830340784,-2.681701962147848,-1.0972254912005823,-0.8967822233783167,-1.5928357283221644,-3.140116516743795
-0.8244498411761683,-2.6805875937091272,-1.0996978918658655,-0.8952840010272425,-1.5928238073932093,-3.1401646772967737
-0.8244975248919886,-2.6800244490252894,-1.1009696165667933,-0.8946006933795374,-1.5928357283221644,-3.1400330702411097
-0.8245094458209437,-2.6794851461993616,-1.1022055784808558,-0.8938329855548304,-1.5928118864642542,-3.140092674885885
-0.8245456854449671,-2.678933922444479,-1.1034777800189417,-0.8931496779071253,-1.5928118864642542,-3.140092674885885
-0.8246296087848108,-2.6778557936297815,-1.1060341040240687,-0.8917463461505335,-1.5928118864642542,-3.140080992375509
-0.824653450642721,-2.6772802511798304,-1.1072939077960413,-0.8910272757159632,-1.5928118864642542,-3.139973227177755
-0.8246052900897425,-2.6768248716937464,-1.1085417906390589,-0.8902838865863245,-1.5928238073932093,-3.1399613062488
-0.8246176878558558,-2.67618972459902,-1.1098259131061,-0.8896363417254847,-1.5928357283221644,-3.140057150517599
-0.8246415297137659,-2.6750877539264124,-1.1123936812030237,-0.8881734053241175,-1.5928357283221644,-3.1399253050433558
-0.8247011343585413,-2.67460805574526,-1.1136420408831995,-0.8875020186053675,-1.5928357283221644,-3.1399012247668665
-0.8247011343585413,-2.6740568319903772,-1.1148894468890589,-0.8867462317096155,-1.5928357283221644,-3.139841381703512
-0.8247249762164515,-2.6735056082354944,-1.1161015669452112,-0.8860872427569788,-1.5928481260882776,-3.139973227177755
-0.8247368971454065,-2.6724394003497522,-1.118634049092428,-0.8846963087665003,-1.5928118864642542,-3.1398173014270228
-0.82477313676943,-2.6718762556659144,-1.119725529347555,-0.8839886824237269,-1.5928238073932093,-3.1398173014270228
-0.8247850576983851,-2.671384636555807,-1.1210816542254847,-0.8832815329181116,-1.5928118864642542,-3.1396616140948694
-0.8247850576983851,-2.670809570943014,-1.1223061720477503,-0.8826220671283167,-1.5928238073932093,-3.1397934595691126
-0.8248446623431605,-2.6697076002704065,-1.1248019377337855,-0.8811591307269495,-1.5928238073932093,-3.1396735350238245
-0.8248327414142054,-2.6691320578204554,-1.126061741505758,-0.8804753462420862,-1.5928118864642542,-3.1396735350238245
-0.8248689810382288,-2.6685331503497522,-1.1272857824908655,-0.8796961943255823,-1.5928481260882776,-3.139578167592184
-0.8248327414142054,-2.6679700056659144,-1.1285575071917933,-0.8790248076068323,-1.5928238073932093,-3.1396735350238245
-0.824904743825094,-2.666868034993307,-1.1310537497149866,-0.8775499502765101,-1.5928238073932093,-3.1395421663867396
-0.8249886671649378,-2.6663525740252894,-1.1323497931109827,-0.876782242451803,-1.5928238073932093,-3.13961369196047
-0.8249767462359827,-2.665849510823385,-1.1335857550250452,-0.8760870138751429,-1.5928357283221644,-3.1394463221179407
-0.8249648253070276,-2.665297810231344,-1.134857479725973,-0.8753798643695276,-1.5928238073932093,-3.1395180861102503
-0.8250363508807581,-2.664244000111715,-1.1374495665179651,-0.8740008513080042,-1.5928238073932093,-3.139386240636007
-0.8249886671649378,-2.663680378590719,-1.1386855284320276,-0.8732212225543421,-1.5928838888751429,-3.139458243046896
-0.8250487486468714,-2.6631653944598597,-1.1399338881122034,-0.8725617567645472,-1.5928357283221644,-3.139386240636007
-0.8250845114337366,-2.662649933491842,-1.141169850026266,-0.8718302885638636,-1.5928238073932093,-3.139350477849142
-0.8250845114337366,-2.6615117231952112,-1.1437857786761683,-0.8703797499286097,-1.5927999655352991,-3.1393025557147425
-0.8250606695758265,-2.661020580922262,-1.1450098196612757,-0.8696001211749476,-1.5928238073932093,-3.139374319707052
-0.8251083532916468,-2.6605289618121546,-1.146329704915182,-0.8689525763141077,-1.5928238073932093,-3.1393025557147425
-0.8251083532916468,-2.659989658986227,-1.1475775877581995,-0.868197266255514,-1.5928118864642542,-3.139254633580343
-0.8252041975604456,-2.658947292958395,-1.1500619093524378,-0.8667586485492151,-1.5928357283221644,-3.1392186323748987
-0.8252041975604456,-2.658407990132467,-1.1513217131244105,-0.8660391012774866,-1.5927999655352991,-3.1392186323748987
-0.8252041975604456,-2.6578686873065394,-1.1526177565204065,-0.8653677145587366,-1.5928238073932093,-3.139242474232809
-0.825228516255514,-2.6573174635516565,-1.1538174788104456,-0.8645756880389612,-1.592788044606344,-3.1391106287585657
-0.825228516255514,-2.656191651021139,-1.1563018004046839,-0.863197151814596,-1.592788044606344,-3.139134709035055
-0.8252523581134241,-2.6556041876422327,-1.1575616041766565,-0.8624299208270472,-1.5928118864642542,-3.13902718225588
-0.8252881209002894,-2.655088726674215,-1.1588094870196741,-0.8617942968951624,-1.592776123677389,-3.139158550892965
-0.8253124395953577,-2.6545494238482874,-1.1600335280047815,-0.8609913031207483,-1.5927642027484339,-3.1390627066241663
-0.8253362814532679,-2.6534956137286585,-1.1626256147967737,-0.8596480528460901,-1.592788044606344,-3.1391227881061
-0.8253720442401331,-2.652980152760641,-1.1638496557818812,-0.8589046637164515,-1.5927642027484339,-3.1389551798449915
-0.8253958860980433,-2.6524651686297815,-1.1651456991778772,-0.8582332769977015,-1.592776123677389,-3.139038864766256
-0.8253720442401331,-2.651925865803854,-1.1663454214679163,-0.8574894110309046,-1.592776123677389,-3.1389792601214808
-0.8254082838641565,-2.6508477369891565,-1.1689131895648401,-0.8560150305377405,-1.5927642027484339,-3.13902718225588
-0.8254082838641565,-2.6502602736102503,-1.1702092329608362,-0.8552835623370569,-1.5927999655352991,-3.1389313379870813
-0.8254202047931116,-2.649769131337301,-1.1715176741229456,-0.8546360174762171,-1.5927642027484339,-3.1389194170581263
-0.8253839651690882,-2.649205986653463,-1.1728013197528284,-0.8538926283465784,-1.592788044606344,-3.1389551798449915
-0.8254440466510218,-2.648139778767721,-1.175333325062887,-0.8524659315692347,-1.592776123677389,-3.1389432589160364
-0.8255279699908655,-2.6476123968707483,-1.17664081255068,-0.8517583052264612,-1.5927518049823206,-3.138895336781637
-0.8255756537066858,-2.647132698689596,-1.1779010931598108,-0.8510869185077112,-1.5927398840533655,-3.138883415852682
-0.8255999724017542,-2.646545712147848,-1.179101292287008,-0.8503435293780726,-1.5927518049823206,-3.1389432589160364
-0.8255637327777308,-2.645395580922262,-1.1815970579730433,-0.8488925139056605,-1.592776123677389,-3.1388235727893274
-0.8256118933307093,-2.6448681990252894,-1.182856861745016,-0.8482454458819788,-1.592776123677389,-3.1388114134417933
-0.8255756537066858,-2.6442812124835413,-1.1841653029071253,-0.847513500844137,-1.5927642027484339,-3.138763491307394
-0.8255880514727991,-2.643693749104635,-1.1853650251971644,-0.8467944304095667,-1.5927518049823206,-3.1388474146472376
-0.8256357351886194,-2.6425560156451624,-1.1877768675433558,-0.8453434149371546,-1.5927642027484339,-3.138763491307394
-0.825683895741598,-2.6420047918902796,-1.1890128294574183,-0.8446601072894495,-1.5927642027484339,-3.138763491307394
-0.8257077375995081,-2.641465489064352,-1.1902006308185022,-0.8439763228045862,-1.5927398840533655,-3.1387036482440394
-0.8256719748126429,-2.6409862677203577,-1.1914728323565882,-0.8432334105121058,-1.5927642027484339,-3.138775412236349
-0.8257435003863733,-2.639883820210592,-1.1940048376666468,-0.8418062368976038,-1.5927642027484339,-3.1386197249041956
-0.8257196585284632,-2.639308754597799,-1.195240322743551,-0.8411229292498987,-1.592776123677389,-3.1387155691729944
-0.8257315794574183,-2.6387456099139612,-1.1965001265155237,-0.8403914610492151,-1.592776123677389,-3.1385956446277063
-0.8257554213153284,-2.6381943861590784,-1.197784725819723,-0.8397076765643519,-1.5927642027484339,-3.1385956446277063
-0.8258035818683069,-2.637115780507223,-1.2003286520587366,-0.8382452170001429,-1.592776123677389,-3.1385119597064417
-0.8258274237262171,-2.63656455675234,-1.2016242186175745,-0.8375375906573694,-1.5927398840533655,-3.138571802769796
-0.825815502797262,-2.6361454168902796,-1.2029326597796839,-0.8367465178119105,-1.5927999655352991,-3.138535801564352
-0.8258636633502405,-2.6355817953692835,-1.2042043844806116,-0.8360026518451136,-1.592776123677389,-3.1384523550616663
-0.8258875052081507,-2.6345041433917444,-1.2068441549884241,-0.8345640341388147,-1.5927274862872522,-3.138416353856222
-0.8258875052081507,-2.634000603352682,-1.20811635652651,-0.833905045186178,-1.5927274862872522,-3.1383684317218226
-0.8259475866900843,-2.633425537739889,-1.2094123999225062,-0.8331254164325159,-1.5927398840533655,-3.1384640375720423
-0.8259113470660608,-2.6328862349139612,-1.2106602827655237,-0.8324297110186976,-1.5927518049823206,-3.138320509587423
-0.8259714285479944,-2.6317723433123987,-1.2131684462176722,-0.8309429327594202,-1.592691723500387,-3.138404432927267
-0.8259714285479944,-2.6311968008624476,-1.2144401709186,-0.8302834669696253,-1.592703644429342,-3.138284508381979
-0.8260191122638147,-2.6305978933917444,-1.2156637350665491,-0.8295281569110315,-1.5926559607135218,-3.1383324305163782
-0.8260191122638147,-2.630082432423727,-1.2168033758746546,-0.8288324514972132,-1.592703644429342,-3.1383443514453333
-0.8260191122638147,-2.6289923826800745,-1.2193239370929163,-0.8274181524859827,-1.592691723500387,-3.138308588658468
-0.8260553518878382,-2.6285246054278772,-1.2206195036517542,-0.8266623655902308,-1.592703644429342,-3.1382127443896692
-0.8261154333697718,-2.6279500166522425,-1.22186786333193,-0.8259547392474573,-1.592691723500387,-3.138176743184225
-0.8261035124408167,-2.6273987928973597,-1.2231276671039026,-0.8252480665790003,-1.592679802571432,-3.1382725874530237
-0.8261755148517054,-2.6263325850116175,-1.2256353537188929,-0.8238204161273401,-1.5926678816424769,-3.138176743184225
-0.8261635939227503,-2.6257932821856897,-1.2268832365619105,-0.8231013456927698,-1.592679802571432,-3.13818866411318
-0.8261516729937952,-2.625277821217672,-1.2281072775470179,-0.8224299589740198,-1.592679802571432,-3.138080898915426
-0.8261516729937952,-2.624702755604879,-1.2293556372271937,-0.8216984907733362,-1.592691723500387,-3.1381288210498255
-0.8261516729937952,-2.6236842314349573,-1.2319710890399378,-0.8203075567828577,-1.5926678816424769,-3.1380329767810267
-0.8262108008014124,-2.623205010090963,-1.2332785765277308,-0.8195279280291956,-1.5926316420184534,-3.138080898915426
-0.8262231985675257,-2.6226661841021937,-1.2345030943499964,-0.818880860005514,-1.592679802571432,-3.1380208174334925
-0.8262351194964808,-2.6221025625811976,-1.2358468214618128,-0.8181732336627405,-1.5926440397845667,-3.138068739567892
-0.826270882283346,-2.6210606733905237,-1.2383669058429163,-0.8168066183673304,-1.5926559607135218,-3.1379368940936487
-0.826270882283346,-2.6205089727984827,-1.2396505514727991,-0.8160632292376917,-1.5926678816424769,-3.1380208174334925
-0.8262947241412562,-2.619970146809713,-1.2408626715289515,-0.8153436819659632,-1.5926440397845667,-3.1379249731646937
-0.8262947241412562,-2.6194427649127405,-1.2421224753009241,-0.8145764509784144,-1.5926316420184534,-3.1378775278674524
-0.8263428846942347,-2.6182926336871546,-1.2446664015399378,-0.8131855169879358,-1.5926678816424769,-3.1377816835986536
-0.8263667265521448,-2.6177290121661585,-1.2459262053119105,-0.8124058882342737,-1.5926678816424769,-3.137829605733053
-0.8263786474810999,-2.617225948964254,-1.247174088154928,-0.8117583433734339,-1.5926678816424769,-3.1377936045276087
-0.8264148871051233,-2.6166871229754847,-1.2484701315509241,-0.8110030333148401,-1.5926440397845667,-3.1376617590533655
-0.826486889516012,-2.615560833607809,-1.2509058157550257,-0.8096359411822718,-1.5926440397845667,-3.137625757847921
-0.8264506498919886,-2.6150696913348597,-1.252129856740133,-0.808868710194723,-1.5926678816424769,-3.1376498381244105
-0.8264988104449671,-2.6145060698138636,-1.2534139792071741,-0.808197323475973,-1.5926559607135218,-3.1376498381244105
-0.8264625708209437,-2.613979164754049,-1.2546380201922815,-0.8074057737933558,-1.592691723500387,-3.1375179926501673
-0.8265107313739222,-2.6128647963153284,-1.257181469594137,-0.8059795538531702,-1.5926440397845667,-3.137493912373678
-0.8265107313739222,-2.6122897307025355,-1.2584298292743128,-0.8051999250995081,-1.5926559607135218,-3.1374459902392786
-0.8265226523028772,-2.611762348805563,-1.2596409956561487,-0.8045161406146448,-1.5926559607135218,-3.1375418345080774
-0.8265345732318323,-2.6112235228167933,-1.2609489599811,-0.8038089911090296,-1.5926678816424769,-3.1374579111682337
-0.8265946547137659,-2.610157314931051,-1.2634690443622034,-0.8023818174945276,-1.592691723500387,-3.137505833302633
-0.8265827337848108,-2.6096656958209437,-1.2646811644183558,-0.8016389052020472,-1.592679802571432,-3.1373985449420374
-0.8266184965716761,-2.6091025511371058,-1.2659772078143519,-0.8009431997882288,-1.5926678816424769,-3.137470070515768
-0.8266542593585413,-2.6085150877581995,-1.2672370115863245,-0.8001998106585901,-1.592703644429342,-3.1374459902392786
-0.8267024199115198,-2.607377354298727,-1.2698290983783167,-0.7987726370440882,-1.5926678816424769,-3.1374579111682337
-0.8267024199115198,-2.6068018118487757,-1.271064583455221,-0.7981012503253382,-1.592679802571432,-3.137338463460104
-0.8266666571246546,-2.606227223073141,-1.272383991871969,-0.7974303404437464,-1.592679802571432,-3.1373265425311487
-0.82672626176943,-2.6056998411761683,-1.2736080328570765,-0.7966864744769495,-1.5926559607135218,-3.1374221483813685
-0.8267863432513636,-2.6045973936664026,-1.276116196309225,-0.7952240149127405,-1.5926678816424769,-3.1373265425311487
-0.8267744223224085,-2.60407001176943,-1.2773760000811976,-0.794504467641012,-1.5926678816424769,-3.137362543736593
-0.8268221060382288,-2.6035307089435022,-1.2785761992083948,-0.7937968412982386,-1.592679802571432,-3.13723069826235
-0.8268340269671839,-2.6029794851886194,-1.279884163533346,-0.7930296103106897,-1.5926678816424769,-3.137338463460104
-0.8268821875201624,-2.6019132773028772,-1.282379452382223,-0.7916386763202112,-1.5926678816424769,-3.13725454012026
-0.8268702665912073,-2.601386372243063,-1.2836034933673304,-0.7909434477435511,-1.592679802571432,-3.1373265425311487
-0.8269060293780726,-2.6008833090411585,-1.2848389784442347,-0.7902239004718226,-1.5926678816424769,-3.1372666994677942
-0.8269179503070276,-2.600283924733297,-1.2861111799823206,-0.7895644346820276,-1.5926440397845667,-3.137134853993551
-0.8269298712359827,-2.5992658774005335,-1.2885950247394007,-0.7881377379046839,-1.5926559607135218,-3.1371586958514612
-0.8269298712359827,-2.5987265745746058,-1.2898429075824183,-0.7874777952777308,-1.5926559607135218,-3.1371946970569056
-0.8269541899310511,-2.5981748739825647,-1.2910788694964808,-0.7866986433612269,-1.5926440397845667,-3.1371946970569056
-0.8270018736468714,-2.5976479689227503,-1.2923744360553187,-0.7860153357135218,-1.5926559607135218,-3.1370869318591517
-0.8270137945758265,-2.5965941588031214,-1.2949064413653772,-0.7845881620990198,-1.5926678816424769,-3.137146774922506
-0.8270261923419397,-2.5960424582110804,-1.2961905638324183,-0.783917252217428,-1.5926440397845667,-3.137003008519308
-0.8270137945758265,-2.5954912344561976,-1.297450367604391,-0.7831257025348108,-1.5926559607135218,-3.1370988527881067
-0.8270977179156702,-2.5949400107013147,-1.2987940947162073,-0.7824419180499476,-1.592679802571432,-3.1369670073138636
-0.8271339575396937,-2.593801800404684,-1.301326100026266,-0.7809556166278284,-1.5926440397845667,-3.1370509306537073
-0.8271220366107386,-2.5932868162738245,-1.3025739828692835,-0.7802837530719202,-1.5926678816424769,-3.1369310061084192
-0.8271339575396937,-2.5927355925189417,-1.303821865712301,-0.7795646826373499,-1.5926197210894983,-3.1369789282428187
-0.8271458784686487,-2.5922206083880823,-1.3051298300372522,-0.7788813749896448,-1.592679802571432,-3.137014929448263
-0.827193562184469,-2.5911062399493616,-1.3076131979571741,-0.777466122304098,-1.5926678816424769,-3.1369431654559534
-0.827181641255514,-2.5906270186053675,-1.30888539949526,-0.7767227331744593,-1.5926559607135218,-3.1369550863849085
-0.8272298018084925,-2.5900638739215296,-1.3101328055011194,-0.7759912649737757,-1.5926559607135218,-3.136895243321554
-0.8272417227374476,-2.589524571095602,-1.3113449255572718,-0.7752960363971155,-1.5926678816424769,-3.1369310061084192
-0.8272417227374476,-2.5884583632098597,-1.3138044516192835,-0.7737730185138147,-1.5926678816424769,-3.13676363626589
-0.8273018042193812,-2.587895218526022,-1.315028492604391,-0.7729461828814905,-1.5926316420184534,-3.1368470827685755
-0.8273018042193812,-2.587367836629049,-1.3162887732135218,-0.772226635609762,-1.5926440397845667,-3.1367276350604456
-0.8272774855243128,-2.5868404547320765,-1.317500416432516,-0.7715309301959437,-1.5926559607135218,-3.136787716542379
-0.8273614088641565,-2.5857866446124476,-1.3200562636004847,-0.7700560728656214,-1.5926678816424769,-3.1367157141314905
-0.8273614088641565,-2.5852349440204065,-1.3213523069964808,-0.7693007628070276,-1.5926678816424769,-3.13676363626589
-0.8273857275592249,-2.584719959889547,-1.3225515524493616,-0.7686293760882776,-1.5926559607135218,-3.1367157141314905
-0.8274095694171351,-2.5841811339007776,-1.3238475958453577,-0.7679341475116175,-1.5926440397845667,-3.136631790791647
-0.8274453322040003,-2.5830186049090784,-1.3264268080340784,-0.7664950529681605,-1.5926316420184534,-3.136655871068136
-0.8274691740619105,-2.582491699849264,-1.3276632467852991,-0.7657278219806116,-1.5926440397845667,-3.1365719477282923
-0.8274214903460901,-2.581928078328268,-1.3288634459124964,-0.765116039906637,-1.5926678816424769,-3.1365957895862024
-0.8274334112750452,-2.581353489552633,-1.3301709334002894,-0.7643488089190882,-1.5926440397845667,-3.1364880243884485
-0.8274815718280237,-2.580179516469137,-1.3327506224261683,-0.7629221121417444,-1.5926678816424769,-3.136535946522848
-0.827529255543844,-2.5796878973590296,-1.3339741865741175,-0.7621906439410608,-1.5926316420184534,-3.136428181325094
-0.8275411764727991,-2.579136673604147,-1.3353059927569788,-0.7615311781512659,-1.5926440397845667,-3.136524025593893
-0.8275774160968226,-2.5786331335650843,-1.3365305105792444,-0.7608116308795374,-1.5926078001605433,-3.136452023183004
-0.8276131788836878,-2.57754356065859,-1.3389657179461878,-0.7593968550311487,-1.592583958302633,-3.1364641825305384
-0.827637020741598,-2.5769923369037073,-1.3402498404132288,-0.7587016264544886,-1.5925958792315882,-3.1363444964038294
-0.8276250998126429,-2.576416794453756,-1.341485325490133,-0.7580540815936487,-1.5925477186786097,-3.136404101048605
-0.827637020741598,-2.5758536497699183,-1.3427336851703089,-0.757298771535055,-1.592572037373678,-3.1363561789142054
-0.8276613394366663,-2.574799362813131,-1.3452170530902308,-0.7559316794024866,-1.592560116444723,-3.1363680998431605
-0.8276851812945765,-2.5742247740374964,-1.3464883009540003,-0.755200211201803,-1.592560116444723,-3.1362367312060755
-0.8276732603656214,-2.573709313069479,-1.347736660634176,-0.7544811407672327,-1.592560116444723,-3.13627273241152
-0.8277328650103968,-2.5731938521014612,-1.349008862172262,-0.7537615934955042,-1.5925357977496546,-3.1362367312060755
-0.8278525511371058,-2.572139565144674,-1.3514803091632288,-0.7522872130023401,-1.592583958302633,-3.136188809071676
-0.8277929464923304,-2.5716245810138147,-1.3527877966510218,-0.7515791098224085,-1.5926078001605433,-3.136056963597433
-0.8277929464923304,-2.5710371176349085,-1.3540719191180628,-0.7508958021747034,-1.592560116444723,-3.136176888142721
-0.8277929464923304,-2.570510212575094,-1.3553317228900355,-0.7501047293292444,-1.5925477186786097,-3.1361289660083216
-0.8278287092791956,-2.5693963209735315,-1.3579233328448694,-0.748725716267721,-1.592572037373678,-3.1361408869372767
-0.8278048674212855,-2.5688207785235804,-1.3591950575457972,-0.7480185667621058,-1.5925958792315882,-3.135973040257589
-0.8278644720660608,-2.568305317555563,-1.3604548613177698,-0.7473347822772425,-1.592572037373678,-3.1360929648028772
-0.8279002348529261,-2.567754570637838,-1.3617389837848108,-0.7466033140765589,-1.592572037373678,-3.1359849611865442
-0.8279603163348597,-2.566712204610006,-1.3642585913287562,-0.7451284567462366,-1.5925238768206995,-3.1360331217395228
-0.8279483954059046,-2.566209141408102,-1.3655789534198206,-0.7444570700274866,-1.592572037373678,-3.1358771959887903
-0.8279722372638147,-2.565657917653219,-1.3668502012835901,-0.7437379995929163,-1.592572037373678,-3.135973040257589
-0.8279603163348597,-2.5651662985431116,-1.3680980841266077,-0.7429822126971644,-1.592560116444723,-3.1359131971942347
-0.8280084768878382,-2.564004723225729,-1.370617691670553,-0.7415674368487757,-1.592560116444723,-3.135961119328634
-0.8279841581927698,-2.563477341328756,-1.3718655745135706,-0.7408722082721155,-1.5925238768206995,-3.135817352925436
-0.8279722372638147,-2.5629618803607386,-1.373101536427633,-0.7400806585894983,-1.592583958302633,-3.1358771959887903
-0.8280084768878382,-2.562434975300924,-1.374312702809469,-0.7393973509417933,-1.5926078001605433,-3.1357932726489466
-0.8280561606036585,-2.5614050070392054,-1.3767369429217737,-0.7379582563983362,-1.5925958792315882,-3.1359012762652796
-0.8280680815326136,-2.5608657042132776,-1.3779848257647913,-0.7372873465167444,-1.592583958302633,-3.1357577482806605
-0.8280924002276819,-2.56035024324526,-1.3792684713946741,-0.7365077177630823,-1.592583958302633,-3.1358652750598353
-0.8280924002276819,-2.559787098561422,-1.3804920355426233,-0.7358601729022425,-1.592572037373678,-3.1357813517199915
-0.8280924002276819,-2.55874473253359,-1.3830836454974573,-0.7343853155719202,-1.592583958302633,-3.135817352925436
-0.8281882444964808,-2.558169666920797,-1.3842719236956995,-0.7336900869952601,-1.592560116444723,-3.1356619040118616
-0.8281520048724573,-2.557594601308004,-1.385531250630514,-0.7329228560077112,-1.592560116444723,-3.1357577482806605
-0.8281520048724573,-2.5570433775531214,-1.3867314497577112,-0.7322271505938929,-1.592583958302633,-3.135721747075216
-0.8282478491412562,-2.555953327809469,-1.3893349806415003,-0.730788532887594,-1.592560116444723,-3.135697905217306
-0.828224007283346,-2.555390183125631,-1.390618626271383,-0.730105225239889,-1.592560116444723,-3.135577980672018
-0.828224007283346,-2.5548508802997034,-1.391902271901266,-0.7293375174151819,-1.592583958302633,-3.135613981877462
-0.828224007283346,-2.5543115774737757,-1.3931620756732386,-0.7286542097674769,-1.5925958792315882,-3.1356499830829065
-0.8283079306231897,-2.5532215277301233,-1.395801846181051,-0.7272151152240198,-1.592560116444723,-3.135613981877462
-0.8283079306231897,-2.5526941458331507,-1.3970735708819788,-0.7265799681292933,-1.592583958302633,-3.1355300585376185
-0.8283556143390101,-2.552155319844381,-1.39838153520693,-0.7258122603045862,-1.5925958792315882,-3.1355300585376185
-0.8283680121051233,-2.5516160170184534,-1.3996174971209925,-0.725105110798971,-1.5925357977496546,-3.135589901600973
-0.8283918539630335,-2.550514046345846,-1.4021247068988245,-0.7237141768084925,-1.592560116444723,-3.135505978261129
-0.8283799330340784,-2.5499747435199183,-1.4033845106707972,-0.7230070273028772,-1.592572037373678,-3.135482136403219
-0.8284037748919886,-2.5493996779071253,-1.4046323935138147,-0.7222397963153284,-1.592583958302633,-3.1354342142688196
-0.8284037748919886,-2.5488365332232874,-1.4058921972857874,-0.7215798536883753,-1.592560116444723,-3.1355300585376185
-0.8284519354449671,-2.5477941671954554,-1.4083998839007776,-0.7201293150531214,-1.592583958302633,-3.135470215474264
-0.8284757773028772,-2.547278706227438,-1.4096596876727503,-0.7193978468524378,-1.5925477186786097,-3.1354342142688196
-0.8284757773028772,-2.546727959309713,-1.4108951727496546,-0.7186782995807093,-1.5925958792315882,-3.13538629213442
-0.8284757773028772,-2.5461648146258753,-1.412131134663717,-0.7179830710040491,-1.592572037373678,-3.1354222933398646
-0.8285716215716761,-2.5450385252581995,-1.4145787397967737,-0.7166278998004358,-1.5925357977496546,-3.13538629213442
-0.8285234610186976,-2.544427220021383,-1.415790859852926,-0.7158249060260218,-1.592560116444723,-3.1352904478656214
-0.8285234610186976,-2.5438883940326136,-1.4170859495746058,-0.7152012030230921,-1.5926197210894983,-3.135278288518087
-0.8285716215716761,-2.543277088795797,-1.4183819929706019,-0.7144101301776331,-1.5926197210894983,-3.1353023687945765
-0.8285716215716761,-2.5421989599811,-1.420985523854391,-0.7129948774920862,-1.5926078001605433,-3.1353023687945765
-0.8286193052874964,-2.5416958967791956,-1.4222334066974085,-0.7122281233416956,-1.592560116444723,-3.135242525731222
-0.8286317030536097,-2.5411809126483362,-1.423481289540426,-0.7115085760699671,-1.5925357977496546,-3.1351710001574915
-0.8287156263934534,-2.5406416098224085,-1.4248250166522425,-0.7107165495501917,-1.5925958792315882,-3.135230366383688
-0.82867938676943,-2.5395992437945765,-1.4272964636432093,-0.7093504110919397,-1.592560116444723,-3.135134998952047
-0.8286917845355433,-2.539071861897604,-1.4285557905780237,-0.7085707823382776,-1.592560116444723,-3.1351710001574915
-0.8286917845355433,-2.538509194050924,-1.42987567583193,-0.7078874746905726,-1.592572037373678,-3.1350870768176478
-0.8287156263934534,-2.5379698912249964,-1.4311240355121058,-0.7071202437030237,-1.5925477186786097,-3.135134998952047
-0.8287275473224085,-2.5368555227862757,-1.4336312452899378,-0.7057173887835901,-1.592560116444723,-3.1350391546832483
-0.8287518660174769,-2.5363643805133265,-1.4349268118487757,-0.7049739996539515,-1.5925357977496546,-3.1350629965411585
-0.8287637869464319,-2.5358250776873987,-1.4361146132098597,-0.704266373311178,-1.5925357977496546,-3.1349671522723597
-0.8287995497332972,-2.5352981726275843,-1.4373624960528772,-0.7035353819476526,-1.592572037373678,-3.1349790732013147
-0.8288477102862757,-2.5342558065997522,-1.4398701826678675,-0.702155892048971,-1.592572037373678,-3.134895149861471
-0.8288596312152308,-2.533680264149801,-1.4411056677447718,-0.7014129797564905,-1.592572037373678,-3.1349790732013147
-0.8288715521441858,-2.5331295172320765,-1.4423659483539026,-0.7007415930377405,-1.5925238768206995,-3.134895149861471
-0.8288715521441858,-2.5325782934771937,-1.443625275288717,-0.6999858061419886,-1.5925357977496546,-3.134907309209005
-0.8288715521441858,-2.531464401875631,-1.4461682478534144,-0.6985834280597132,-1.592572037373678,-3.134799305592672
-0.8288715521441858,-2.530889336262838,-1.4474166075335901,-0.6978758017169397,-1.5925238768206995,-3.134895149861471
-0.8289435545550745,-2.5303857962237757,-1.4486520926104944,-0.6971800963031214,-1.592560116444723,-3.134763542805807
-0.8289673964129847,-2.5297988096820276,-1.4499838987933558,-0.6964734236346644,-1.5925238768206995,-3.134787384663717
-0.8290031591998499,-2.528768841420309,-1.4525273481952112,-0.6950462500201624,-1.5925477186786097,-3.134667936955587
-0.8290393988238733,-2.5282414595233362,-1.4537871519671839,-0.6943987051593226,-1.5925357977496546,-3.134775463734762
-0.8290274778949183,-2.5277021566974085,-1.4550946394549769,-0.6936915556537073,-1.5925477186786097,-3.134667936955587
-0.8290632406817835,-2.5271509329425257,-1.4563544432269495,-0.6929720083819788,-1.5925357977496546,-3.134643856679098
-0.8290870825396937,-2.5260489622699183,-1.45890981355776,-0.6915572325335901,-1.5925357977496546,-3.1345959345446985
-0.8291233221637171,-2.525533978139059,-1.4601100126849573,-0.6908376852618616,-1.5925357977496546,-3.134620014821188
-0.8290870825396937,-2.5250185171710413,-1.4614055792437952,-0.6900704542743128,-1.5925238768206995,-3.134656016026632
-0.8291352430926722,-2.524514977131979,-1.4626534620868128,-0.6894105116473597,-1.5925357977496546,-3.134524170552389
-0.8292191664325159,-2.5234368483172815,-1.4651249090777796,-0.6878879706012171,-1.592560116444723,-3.1344640890704554
-0.8291710058795374,-2.522886101399557,-1.466372315083639,-0.6872165838824671,-1.5925238768206995,-3.134512249623434
-0.8291710058795374,-2.522322956715719,-1.4676082769977015,-0.6864855925189417,-1.5925238768206995,-3.134536091481344
-0.8292072455035608,-2.5217955748187464,-1.4689038435565394,-0.6858018080340784,-1.5925477186786097,-3.13442832628359
-0.8292191664325159,-2.5206692854510706,-1.4714115301715296,-0.6843631903277796,-1.5925000349627894,-3.134416166936056
-0.8292787710772913,-2.520094696675436,-1.4726112524615687,-0.6836674849139612,-1.5925119558917444,-3.1343682448016565
-0.8293150107013147,-2.519567314778463,-1.473858658467428,-0.6829002539264124,-1.5925000349627894,-3.134392325078146
-0.8293388525592249,-2.51894456544985,-1.4749625364886683,-0.6822527090655726,-1.5924761931048792,-3.134284321461813
-0.82935077348818,-2.5178778807269495,-1.4775660673724573,-0.6807540098773401,-1.5925357977496546,-3.1342485586749476
-0.8294108549701136,-2.51736289659609,-1.4788134733783167,-0.6800110975848597,-1.5925119558917444,-3.1342368761645716
-0.8293626944171351,-2.5168121496783655,-1.4800379912005823,-0.6792791525470179,-1.5925000349627894,-3.1342485586749476
-0.8293626944171351,-2.5162246862994593,-1.4813569227801722,-0.6785839239703577,-1.5925238768206995,-3.134188954030172
-0.8294466177569788,-2.515169922505514,-1.4838884512530726,-0.6771567503558558,-1.5925000349627894,-3.134188954030172
-0.8294346968280237,-2.5146196524249476,-1.4851840178119105,-0.6764496008502405,-1.5925357977496546,-3.1341174284564417
-0.829482380543844,-2.51408034959902,-1.4864915052997034,-0.6757062117206019,-1.5924642721759241,-3.1342008749591272
-0.829470459614889,-2.513541046773092,-1.487716023121969,-0.6750467459308069,-1.5925000349627894,-3.134057585393087
-0.8295062224017542,-2.5124385992633265,-1.4902709166156214,-0.6736086050616663,-1.5925000349627894,-3.1341174284564417
-0.8295300642596644,-2.5118640104876917,-1.491530720387594,-0.6728404203998011,-1.5924761931048792,-3.134009663258688
-0.8295181433307093,-2.511348549519674,-1.4927905241595667,-0.672133747731344,-1.5925000349627894,-3.134033505116598
-0.8295181433307093,-2.510881249104635,-1.4940741697894495,-0.6714380423175257,-1.5924518744098108,-3.134009663258688
-0.829590145741598,-2.5097911993609827,-1.49660569826235,-0.6699994246112269,-1.5924399534808558,-3.134045426045553
-0.8296139875995081,-2.509228054677145,-1.4978531042682093,-0.6691835562335413,-1.5924161116229456,-3.1338897387133997
-0.8296621481524866,-2.5087130705462855,-1.4991009871112269,-0.6685364882098597,-1.5924280325519007,-3.133925739918844
-0.8296740690814417,-2.5081494490252894,-1.5003483931170862,-0.6678770224200647,-1.5924041906939905,-3.133925739918844
-0.8296383062945765,-2.506963555012838,-1.5027597586261194,-0.6664379278766077,-1.592367951069967,-3.1339615027057093
-0.8296621481524866,-2.506448570881979,-1.504019562398092,-0.6656950155841272,-1.5924642721759241,-3.1338537375079554
-0.8296979109393519,-2.505885903035299,-1.5052788893329065,-0.6649873892413538,-1.5924280325519007,-3.1338656584369105
-0.8296979109393519,-2.5053466002093714,-1.5065510908709925,-0.6643155256854456,-1.5924161116229456,-3.13391358057131
-0.8297460714923304,-2.504291836415426,-1.5090826193438929,-0.6628769079791468,-1.5924161116229456,-3.1338778177844446
-0.8297341505633753,-2.5037534872638147,-1.5103181044207972,-0.6621697584735315,-1.5924518744098108,-3.133829895650045
-0.8298299948321741,-2.5032976309405726,-1.5115779081927698,-0.6615341345416468,-1.5924399534808558,-3.1337578932391565
-0.8297937552081507,-2.5027106443988245,-1.5128496328936976,-0.6608389059649866,-1.5923803488360804,-3.133805815373556
-0.8298299948321741,-2.5016563574420374,-1.515416447316305,-0.6593883673297327,-1.5924399534808558,-3.133721892033712
-0.8298538366900843,-2.5010936895953577,-1.5166648069964808,-0.6586564222918909,-1.5924280325519007,-3.133793894444601
-0.8298538366900843,-2.500542465840475,-1.5179484526263636,-0.6579855124102991,-1.5924280325519007,-3.1336620489703577
-0.8298895994769495,-2.5000270048724573,-1.5192559401141565,-0.6572302023517054,-1.5924041906939905,-3.1337338129626673
-0.8299139181720179,-2.4990084807025355,-1.5218232313739222,-0.6558030287372034,-1.5923922697650355,-3.1336260477649134
-0.829925839100973,-2.498481575642721,-1.5230467955218714,-0.6550839583026331,-1.5924041906939905,-3.1336620489703577
-0.829937760029928,-2.4979541937457483,-1.524306599293844,-0.6544483343707483,-1.5923922697650355,-3.133698050175802
-0.8299496809588831,-2.497474972401754,-1.5255902449237269,-0.6536811033831995,-1.5924041906939905,-3.133590046559469
-0.8299859205829065,-2.4963610808001917,-1.5279892126666468,-0.652290169392721,-1.5924041906939905,-3.133601967488424
-0.8299978415118616,-2.495809857045309,-1.5292490164386194,-0.6515710989581507,-1.5924041906939905,-3.1336141268359583
-0.8300216833697718,-2.495235268269674,-1.530496899281637,-0.6508391539203089,-1.5924518744098108,-3.1336501280414026
-0.8300216833697718,-2.494647804890768,-1.5317085425006312,-0.650060002003805,-1.5924041906939905,-3.1335304419146937
-0.8300693670855921,-2.4935930410968226,-1.5341437498675745,-0.6485369841205042,-1.5924161116229456,-3.133578125630514
-0.8300936857806605,-2.4930546919452112,-1.535379711781637,-0.6478899160968226,-1.5924399534808558,-3.1334825197802942
-0.8301175276385706,-2.492467705403463,-1.5366151968585413,-0.6471346060382288,-1.5924280325519007,-3.133542601262228
-0.8301175276385706,-2.4919522444354456,-1.5378745237933558,-0.6464269796954554,-1.5924280325519007,-3.1334825197802942
-0.8301294485675257,-2.4908621946917933,-1.540394131337301,-0.6449521223651331,-1.5924041906939905,-3.133578125630514
-0.8301656881915491,-2.490347210560934,-1.5416296164142054,-0.644268814717428,-1.5924280325519007,-3.133434597645895
-0.8301656881915491,-2.4897716681109827,-1.54291278520693,-0.6435497442828577,-1.5924399534808558,-3.133434597645895
-0.8301656881915491,-2.489209000264303,-1.5442207495318812,-0.6428058783160608,-1.5924041906939905,-3.1334107557879847
-0.8302014509784144,-2.4881184736834925,-1.5468362013446253,-0.6413195768939417,-1.5923922697650355,-3.1334226767169397
-0.8302491346942347,-2.487591568623678,-1.5480836073504847,-0.6407077948199671,-1.5924280325519007,-3.133338753377096
-0.8302372137652796,-2.48702842393984,-1.549427334462301,-0.6399405638324183,-1.5924399534808558,-3.1332669893847864
-0.8303092161761683,-2.4864652792560022,-1.550722901021139,-0.6392210165606897,-1.5924280325519007,-3.1333027521716517
-0.8303092161761683,-2.485410992299215,-1.553242031727926,-0.6377585569964808,-1.5924518744098108,-3.133206907902853
-0.8303211371051233,-2.484824005757467,-1.554526154194967,-0.6370990912066858,-1.5924161116229456,-3.133242909108297
-0.8303454558001917,-2.4842847029315394,-1.55583364168276,-0.6363676230060022,-1.5924518744098108,-3.133122984563009
-0.8303573767291468,-2.4837220350848597,-1.5570810476886194,-0.6356843153582972,-1.5924161116229456,-3.133230988179342
-0.8303692976581019,-2.4825595060931605,-1.5596125761615198,-0.63422137895693,-1.5924280325519007,-3.1330395380603235
-0.830393139516012,-2.4819844404803675,-1.5608599821673792,-0.6335862318622034,-1.5924642721759241,-3.133111063634054
-0.8303692976581019,-2.4814098517047327,-1.5620840231524866,-0.6328066031085413,-1.5924041906939905,-3.1330276171313685
-0.8304532209979456,-2.480894390736715,-1.5633671919452112,-0.6321829001056116,-1.5924642721759241,-3.133003536854879
-0.8304413000689905,-2.4797924200641077,-1.5657785574542444,-0.6307080427752894,-1.5924399534808558,-3.13295561472048
-0.8305009047137659,-2.4792655150042933,-1.567038361226217,-0.6300490538226526,-1.5924280325519007,-3.132979694996969
-0.8305009047137659,-2.4787381331073206,-1.5683100859271448,-0.6292818228351038,-1.5924280325519007,-3.132991615925924
-0.830512825642721,-2.4781749884234827,-1.5694974104510706,-0.6285622755633753,-1.5924399534808558,-3.132859770451681
-0.8305609861956995,-2.4771445433246058,-1.5720885435687464,-0.6271598974810999,-1.5924041906939905,-3.1328957716571253
-0.8305609861956995,-2.476593796406881,-1.5733245054828089,-0.626404110585348,-1.5924041906939905,-3.132835928593771
-0.8305490652667444,-2.4760306517230433,-1.574643913899557,-0.6256368795977991,-1.5924518744098108,-3.1329196135150355
-0.8306329886065882,-2.475515667592184,-1.5758674780475062,-0.6249058882342737,-1.5924041906939905,-3.132775847111837
