youngblood1998/my_ws/src/ur5_platform/ur5_platform_manipulation/wzq/test4_14_8.csv
j0,j1,j2,j3,j4,j5
-0.8225324789630335,-2.5177701155291956,-1.4397862593280237,-0.7137506643878382,-1.5963595549212855,-3.142535988484518
-0.8225081602679651,-2.5177462736712855,-1.4398101011859339,-0.7137745062457483,-1.5963838736163538,-3.1425119082080286
-0.8225081602679651,-2.5177224318133753,-1.4397862593280237,-0.7137864271747034,-1.5963714758502405,-3.142547909413473
-0.8225324789630335,-2.51771051088442,-1.4397981802569788,-0.7137506643878382,-1.5963714758502405,-3.142535988484518
-0.8225324789630335,-2.5177343527423304,-1.4398463408099573,-0.7137988249408167,-1.5963838736163538,-3.142547909413473
-0.8225200811969202,-2.5177701155291956,-1.4397862593280237,-0.7137864271747034,-1.5963476339923304,-3.1425119082080286
-0.8225324789630335,-2.5177581946002405,-1.4397981802569788,-0.7137864271747034,-1.5964315573321741,-3.142524067555563
-0.8225200811969202,-2.5177343527423304,-1.4397862593280237,-0.7137625853167933,-1.5963595549212855,-3.1424999872790735
-0.8225081602679651,-2.5177343527423304,-1.4397738615619105,-0.7137745062457483,-1.5963838736163538,-3.1425119082080286
-0.8225081602679651,-2.5177224318133753,-1.4398463408099573,-0.7137506643878382,-1.5963957945453089,-3.1425119082080286
-0.822484318410055,-2.5177224318133753,-1.4397624174701136,-0.7137506643878382,-1.5963838736163538,-3.142571989689962
-0.822484318410055,-2.5177343527423304,-1.4397862593280237,-0.7137988249408167,-1.5963838736163538,-3.1424999872790735
-0.8225081602679651,-2.5177343527423304,-1.4398101011859339,-0.7137506643878382,-1.5963714758502405,-3.142547909413473
-0.8225081602679651,-2.5177701155291956,-1.4397862593280237,-0.7137625853167933,-1.5963957945453089,-3.1424999872790735
-0.8225200811969202,-2.5177343527423304,-1.4397981802569788,-0.7137988249408167,-1.5963595549212855,-3.142524067555563
-0.8225200811969202,-2.5177343527423304,-1.4397981802569788,-0.7137387434588831,-1.5963957945453089,-3.142524067555563
-0.8225563208209437,-2.5177581946002405,-1.4397862593280237,-0.7137988249408167,-1.5963957945453089,-3.142547909413473
-0.8224962393390101,-2.5177224318133753,-1.4398101011859339,-0.7137988249408167,-1.5963957945453089,-3.1424999872790735
-0.8225081602679651,-2.5177343527423304,-1.4397981802569788,-0.7137864271747034,-1.5963595549212855,-3.142547909413473
-0.8225081602679651,-2.5177343527423304,-1.4397981802569788,-0.7137745062457483,-1.5963838736163538,-3.142524067555563
-0.8225563208209437,-2.5177462736712855,-1.4397981802569788,-0.7137864271747034,-1.5963957945453089,-3.142524067555563
-0.8225200811969202,-2.5177581946002405,-1.4398101011859339,-0.7137745062457483,-1.5963957945453089,-3.142547909413473
-0.8225324789630335,-2.5177343527423304,-1.4398101011859339,-0.7137625853167933,-1.5963714758502405,-3.142547909413473
-0.822484318410055,-2.5177462736712855,-1.4398101011859339,-0.7137506643878382,-1.5963714758502405,-3.142524067555563
-0.8225081602679651,-2.5177581946002405,-1.4397862593280237,-0.7137745062457483,-1.5963957945453089,-3.142547909413473
-0.8225324789630335,-2.5177462736712855,-1.4397981802569788,-0.7137625853167933,-1.596407715474264,-3.1425119082080286
-0.8225443998919886,-2.5177462736712855,-1.4397738615619105,-0.7137864271747034,-1.5963957945453089,-3.142524067555563
-0.8225200811969202,-2.5177343527423304,-1.4398101011859339,-0.7137625853167933,-1.5963838736163538,-3.142524067555563
-0.8224962393390101,-2.5177343527423304,-1.4398101011859339,-0.7137625853167933,-1.5963838736163538,-3.142524067555563
-0.8225200811969202,-2.5177224318133753,-1.4397981802569788,-0.7137625853167933,-1.5963957945453089,-3.142547909413473
-0.8225200811969202,-2.5177224318133753,-1.4398101011859339,-0.7137864271747034,-1.5963838736163538,-3.142547909413473
-0.8225443998919886,-2.5177581946002405,-1.4398101011859339,-0.7137625853167933,-1.5963957945453089,-3.142524067555563
-0.8224962393390101,-2.5177343527423304,-1.4397862593280237,-0.7137506643878382,-1.5963957945453089,-3.1425119082080286
-0.8225324789630335,-2.5177581946002405,-1.439822022114889,-0.7137625853167933,-1.5963714758502405,-3.142524067555563
-0.8224962393390101,-2.51771051088442,-1.4397738615619105,-0.7137745062457483,-1.596407715474264,-3.142524067555563
-0.8225324789630335,-2.5177581946002405,-1.4397862593280237,-0.713714901600973,-1.5963714758502405,-3.142547909413473
-0.8225443998919886,-2.5177581946002405,-1.4397862593280237,-0.7137745062457483,-1.5963838736163538,-3.142571989689962
-0.8225443998919886,-2.51771051088442,-1.4397624174701136,-0.7137864271747034,-1.5963714758502405,-3.142547909413473
-0.8225081602679651,-2.5177462736712855,-1.4397981802569788,-0.7137745062457483,-1.596407715474264,-3.142524067555563
-0.8225081602679651,-2.5177581946002405,-1.4397738615619105,-0.7137864271747034,-1.5963714758502405,-3.142524067555563
-0.8225324789630335,-2.5177462736712855,-1.439833943043844,-0.7137988249408167,-1.5963957945453089,-3.142524067555563
-0.8224962393390101,-2.5177581946002405,-1.4397738615619105,-0.7137625853167933,-1.5963838736163538,-3.142535988484518
-0.8225324789630335,-2.5177462736712855,-1.4397981802569788,-0.7137745062457483,-1.5963714758502405,-3.1424880663501185
-0.8225324789630335,-2.5177343527423304,-1.4397981802569788,-0.7137864271747034,-1.5963714758502405,-3.1425119082080286
-0.8224723974810999,-2.5177343527423304,-1.4397981802569788,-0.7137745062457483,-1.5963476339923304,-3.142559830342428
-0.8224723974810999,-2.5177343527423304,-1.439822022114889,-0.7137625853167933,-1.5963957945453089,-3.1425119082080286
-0.8224962393390101,-2.5177343527423304,-1.439833943043844,-0.7137988249408167,-1.596407715474264,-3.1424999872790735
-0.8225200811969202,-2.5177462736712855,-1.4397624174701136,-0.7137988249408167,-1.5963957945453089,-3.142547909413473
-0.8224962393390101,-2.517782513295309,-1.4397862593280237,-0.7137506643878382,-1.596419636403219,-3.142524067555563
-0.8224962393390101,-2.5177701155291956,-1.4397981802569788,-0.7137625853167933,-1.5963838736163538,-3.142524067555563
-0.8224604765521448,-2.5177462736712855,-1.439822022114889,-0.7137864271747034,-1.5963838736163538,-3.1424999872790735
-0.8225200811969202,-2.5177343527423304,-1.4398101011859339,-0.7137864271747034,-1.5963957945453089,-3.142559830342428
-0.8225443998919886,-2.5177581946002405,-1.439822022114889,-0.7137745062457483,-1.596419636403219,-3.142547909413473
-0.8225200811969202,-2.5177343527423304,-1.4397624174701136,-0.7137506643878382,-1.5963957945453089,-3.142535988484518
-0.8225200811969202,-2.5177462736712855,-1.4397981802569788,-0.7137864271747034,-1.5963714758502405,-3.142535988484518
-0.8225324789630335,-2.5177581946002405,-1.4397981802569788,-0.7137864271747034,-1.596419636403219,-3.1424999872790735
-0.8225324789630335,-2.5177581946002405,-1.4397862593280237,-0.7137625853167933,-1.596407715474264,-3.142535988484518
-0.8225200811969202,-2.5177462736712855,-1.4397624174701136,-0.7137864271747034,-1.5963957945453089,-3.142524067555563
-0.8225324789630335,-2.5177343527423304,-1.4397981802569788,-0.7137864271747034,-1.5963957945453089,-3.142547909413473
-0.8225324789630335,-2.5177462736712855,-1.439822022114889,-0.7137625853167933,-1.5963957945453089,-3.142524067555563
-0.8225200811969202,-2.5177581946002405,-1.439833943043844,-0.7137625853167933,-1.5963714758502405,-3.1424880663501185
-0.822484318410055,-2.5177343527423304,-1.4397981802569788,-0.7137745062457483,-1.5963838736163538,-3.142524067555563
-0.8225682417498987,-2.5177462736712855,-1.4398101011859339,-0.7137988249408167,-1.5963957945453089,-3.142524067555563
-0.8225324789630335,-2.5177701155291956,-1.4397862593280237,-0.7137864271747034,-1.596419636403219,-3.1424999872790735
-0.822484318410055,-2.5177224318133753,-1.4398101011859339,-0.7137745062457483,-1.5963957945453089,-3.142547909413473
-0.8225443998919886,-2.51771051088442,-1.4397862593280237,-0.7137745062457483,-1.5963714758502405,-3.1425119082080286
-0.8225081602679651,-2.5177343527423304,-1.4397862593280237,-0.7137745062457483,-1.5963957945453089,-3.142535988484518
-0.8224962393390101,-2.5177462736712855,-1.4397862593280237,-0.7137988249408167,-1.5963838736163538,-3.142535988484518
-0.8225563208209437,-2.5177343527423304,-1.4398101011859339,-0.7137506643878382,-1.5963476339923304,-3.142547909413473
-0.8225324789630335,-2.51771051088442,-1.4397862593280237,-0.7137387434588831,-1.5963957945453089,-3.142524067555563
-0.8225081602679651,-2.5177462736712855,-1.4398101011859339,-0.7137864271747034,-1.5963714758502405,-3.142524067555563
-0.8224962393390101,-2.5177224318133753,-1.4397981802569788,-0.7137506643878382,-1.5963595549212855,-3.1425119082080286
-0.8225200811969202,-2.5177462736712855,-1.4397862593280237,-0.7137864271747034,-1.5963714758502405,-3.142524067555563
-0.8224962393390101,-2.5177224318133753,-1.439822022114889,-0.7137864271747034,-1.5963838736163538,-3.1424880663501185
-0.8225324789630335,-2.5177343527423304,-1.4397981802569788,-0.7138226667987269,-1.5963838736163538,-3.142559830342428
-0.8225081602679651,-2.5177701155291956,-1.4397738615619105,-0.7137506643878382,-1.5963838736163538,-3.1424999872790735
-0.8225443998919886,-2.5177462736712855,-1.4397500197040003,-0.7137625853167933,-1.596419636403219,-3.1424999872790735
-0.8225443998919886,-2.517698589955465,-1.439822022114889,-0.7137864271747034,-1.596407715474264,-3.142535988484518
-0.8225324789630335,-2.517698589955465,-1.4397862593280237,-0.7137864271747034,-1.5963714758502405,-3.142571989689962
-0.8225200811969202,-2.5177343527423304,-1.439822022114889,-0.7137988249408167,-1.5963714758502405,-3.142547909413473
-0.8225324789630335,-2.5177462736712855,-1.4397862593280237,-0.7137625853167933,-1.5963957945453089,-3.142535988484518
-0.8225081602679651,-2.5177462736712855,-1.4397981802569788,-0.7137506643878382,-1.5963595549212855,-3.142547909413473
-0.8225443998919886,-2.5177343527423304,-1.4397862593280237,-0.7137506643878382,-1.5963838736163538,-3.142535988484518
-0.8225200811969202,-2.5177581946002405,-1.4398101011859339,-0.7137988249408167,-1.5963838736163538,-3.142524067555563
-0.8225200811969202,-2.5177581946002405,-1.4397738615619105,-0.7137506643878382,-1.596407715474264,-3.142571989689962
-0.8225324789630335,-2.5177462736712855,-1.4397981802569788,-0.7137745062457483,-1.5963714758502405,-3.142535988484518
-0.8225200811969202,-2.51771051088442,-1.4397981802569788,-0.7137864271747034,-1.5963595549212855,-3.1425119082080286
-0.8225081602679651,-2.5177581946002405,-1.4397862593280237,-0.7137506643878382,-1.596407715474264,-3.1424880663501185
-0.822484318410055,-2.5177462736712855,-1.4397624174701136,-0.7137745062457483,-1.5963595549212855,-3.142547909413473
-0.8224962393390101,-2.5177343527423304,-1.4397981802569788,-0.7137625853167933,-1.5963838736163538,-3.142524067555563
-0.8225200811969202,-2.5177343527423304,-1.4397738615619105,-0.7137506643878382,-1.5963838736163538,-3.1425119082080286
-0.8225200811969202,-2.5177224318133753,-1.4397981802569788,-0.7137625853167933,-1.5963838736163538,-3.142524067555563
-0.8224962393390101,-2.5177343527423304,-1.4397862593280237,-0.7137745062457483,-1.5963714758502405,-3.142524067555563
-0.8225081602679651,-2.517698589955465,-1.4397981802569788,-0.7137625853167933,-1.5963957945453089,-3.1425119082080286
-0.8224962393390101,-2.5177224318133753,-1.4398101011859339,-0.7137864271747034,-1.596407715474264,-3.142547909413473
-0.822484318410055,-2.51771051088442,-1.439822022114889,-0.7137625853167933,-1.5963838736163538,-3.1425119082080286
-0.8225324789630335,-2.5177462736712855,-1.4398101011859339,-0.7137864271747034,-1.5963714758502405,-3.1425119082080286
-0.8225324789630335,-2.5177581946002405,-1.4398101011859339,-0.7137745062457483,-1.5963838736163538,-3.142535988484518
-0.8225563208209437,-2.5177462736712855,-1.4398101011859339,-0.7137864271747034,-1.5963595549212855,-3.142547909413473
-0.8224962393390101,-2.5177462736712855,-1.439833943043844,-0.7137864271747034,-1.5963957945453089,-3.142524067555563
-0.8225081602679651,-2.5177462736712855,-1.4397624174701136,-0.7137864271747034,-1.5963957945453089,-3.142535988484518
-0.8225200811969202,-2.5177343527423304,-1.4397862593280237,-0.7137745062457483,-1.5963957945453089,-3.1425119082080286
-0.8225200811969202,-2.5177343527423304,-1.4397738615619105,-0.7137745062457483,-1.5963957945453089,-3.142547909413473
-0.8224723974810999,-2.5177343527423304,-1.4397981802569788,-0.7137864271747034,-1.5963595549212855,-3.142524067555563
-0.822484318410055,-2.5177343527423304,-1.4397380987750452,-0.7137625853167933,-1.5963838736163538,-3.142547909413473
-0.8225081602679651,-2.5177462736712855,-1.439822022114889,-0.7137625853167933,-1.5963714758502405,-3.1425119082080286
-0.8225443998919886,-2.5177701155291956,-1.4397981802569788,-0.7137625853167933,-1.5963838736163538,-3.142524067555563
-0.822484318410055,-2.5177581946002405,-1.4397624174701136,-0.7137745062457483,-1.5963357130633753,-3.142524067555563
-0.8225324789630335,-2.5177462736712855,-1.4397981802569788,-0.7137625853167933,-1.5963838736163538,-3.142524067555563
-0.822484318410055,-2.51771051088442,-1.439822022114889,-0.7137745062457483,-1.596407715474264,-3.142524067555563
-0.8225081602679651,-2.51771051088442,-1.439833943043844,-0.7137745062457483,-1.596419636403219,-3.1425119082080286
-0.8225324789630335,-2.51771051088442,-1.4397981802569788,-0.7137625853167933,-1.5963595549212855,-3.142535988484518
-0.8225443998919886,-2.5177462736712855,-1.4397738615619105,-0.7137864271747034,-1.5963714758502405,-3.1425119082080286
-0.8225200811969202,-2.517698589955465,-1.4397981802569788,-0.7137625853167933,-1.5963957945453089,-3.1425119082080286
-0.8225200811969202,-2.5177343527423304,-1.4397862593280237,-0.7137745062457483,-1.5963714758502405,-3.142535988484518
-0.8225081602679651,-2.51771051088442,-1.4397738615619105,-0.7137387434588831,-1.596407715474264,-3.1424999872790735
-0.8225324789630335,-2.5177224318133753,-1.439822022114889,-0.7137506643878382,-1.5963714758502405,-3.1425119082080286
-0.8225081602679651,-2.5177701155291956,-1.439833943043844,-0.7137745062457483,-1.5963957945453089,-3.142535988484518
-0.8225324789630335,-2.5177581946002405,-1.4397981802569788,-0.7137864271747034,-1.596407715474264,-3.1424880663501185
-0.8225200811969202,-2.5177462736712855,-1.4397738615619105,-0.7137625853167933,-1.5963838736163538,-3.1425119082080286
-0.8225324789630335,-2.5177343527423304,-1.4397738615619105,-0.7137745062457483,-1.5963957945453089,-3.142524067555563
-0.8225443998919886,-2.5177462736712855,-1.4397862593280237,-0.7137506643878382,-1.5963714758502405,-3.142524067555563
-0.822484318410055,-2.5177581946002405,-1.439822022114889,-0.7137988249408167,-1.5963957945453089,-3.1424999872790735
-0.8225200811969202,-2.5177343527423304,-1.4397862593280237,-0.7137864271747034,-1.5963595549212855,-3.142524067555563
-0.8224962393390101,-2.5177462736712855,-1.4397738615619105,-0.7137506643878382,-1.5963957945453089,-3.142535988484518
-0.8225200811969202,-2.5177462736712855,-1.439822022114889,-0.7137864271747034,-1.5963957945453089,-3.1425119082080286
-0.8225324789630335,-2.5177581946002405,-1.4397981802569788,-0.7137745062457483,-1.5963838736163538,-3.142524067555563
-0.8225324789630335,-2.5177224318133753,-1.4397981802569788,-0.7137745062457483,-1.5963957945453089,-3.142535988484518
-0.8225200811969202,-2.5177343527423304,-1.4397862593280237,-0.7137745062457483,-1.596407715474264,-3.142535988484518
-0.8225200811969202,-2.51771051088442,-1.4397981802569788,-0.7137625853167933,-1.5963838736163538,-3.142524067555563
-0.8225200811969202,-2.5177581946002405,-1.439822022114889,-0.7137625853167933,-1.5963957945453089,-3.142524067555563
-0.8225081602679651,-2.5177343527423304,-1.4397738615619105,-0.7137506643878382,-1.5963357130633753,-3.142524067555563
-0.8225081602679651,-2.5177462736712855,-1.4397981802569788,-0.7137506643878382,-1.5963957945453089,-3.142547909413473
-0.8225081602679651,-2.5177343527423304,-1.4397738615619105,-0.7137625853167933,-1.5963595549212855,-3.142547909413473
-0.822484318410055,-2.5177224318133753,-1.4397981802569788,-0.7137864271747034,-1.5963595549212855,-3.142524067555563
-0.8225200811969202,-2.5177343527423304,-1.4397624174701136,-0.7137864271747034,-1.5963957945453089,-3.142535988484518
-0.8225200811969202,-2.5177462736712855,-1.439833943043844,-0.7137745062457483,-1.596407715474264,-3.142524067555563
-0.8224962393390101,-2.5177581946002405,-1.4397738615619105,-0.7137387434588831,-1.5963595549212855,-3.142547909413473
-0.8224962393390101,-2.517782513295309,-1.4397862593280237,-0.7138107458697718,-1.5963957945453089,-3.142524067555563
-0.8225081602679651,-2.5177343527423304,-1.4397738615619105,-0.7137988249408167,-1.596407715474264,-3.142524067555563
-0.8225200811969202,-2.5177224318133753,-1.4397981802569788,-0.7137988249408167,-1.5963476339923304,-3.142559830342428
-0.8225081602679651,-2.5177462736712855,-1.4397738615619105,-0.7137506643878382,-1.5963838736163538,-3.142535988484518
-0.8225081602679651,-2.5177343527423304,-1.4397981802569788,-0.7137506643878382,-1.5963476339923304,-3.142559830342428
-0.8225081602679651,-2.5177343527423304,-1.4397500197040003,-0.7137988249408167,-1.5963595549212855,-3.1424880663501185
-0.8225081602679651,-2.51771051088442,-1.4397500197040003,-0.7137864271747034,-1.5963957945453089,-3.142547909413473
-0.8225081602679651,-2.5177343527423304,-1.4397981802569788,-0.7137625853167933,-1.596419636403219,-3.1424880663501185
-0.8225324789630335,-2.5177581946002405,-1.4397981802569788,-0.7137988249408167,-1.596407715474264,-3.1424999872790735
-0.8225324789630335,-2.5177462736712855,-1.4397981802569788,-0.7137745062457483,-1.5963838736163538,-3.142535988484518
-0.822484318410055,-2.5177462736712855,-1.439822022114889,-0.7137988249408167,-1.5963595549212855,-3.1425119082080286
-0.8224962393390101,-2.5177462736712855,-1.4397624174701136,-0.7137745062457483,-1.5963595549212855,-3.142547909413473
-0.8225200811969202,-2.51771051088442,-1.4397624174701136,-0.7137864271747034,-1.5963838736163538,-3.142571989689962
-0.8225324789630335,-2.5177224318133753,-1.4397500197040003,-0.7137864271747034,-1.5963957945453089,-3.142524067555563
-0.8225200811969202,-2.5177462736712855,-1.4397738615619105,-0.7137864271747034,-1.596419636403219,-3.142547909413473
-0.822484318410055,-2.5177581946002405,-1.439822022114889,-0.7137625853167933,-1.5963714758502405,-3.142535988484518
-0.8225200811969202,-2.5177701155291956,-1.4397500197040003,-0.7138107458697718,-1.5963595549212855,-3.142524067555563
-0.8225200811969202,-2.5177343527423304,-1.4397862593280237,-0.7137745062457483,-1.5963957945453089,-3.1425119082080286
-0.8225563208209437,-2.517698589955465,-1.4397981802569788,-0.7137506643878382,-1.5963957945453089,-3.142547909413473
-0.8224962393390101,-2.5177581946002405,-1.4397624174701136,-0.7137745062457483,-1.5963838736163538,-3.142535988484518
-0.8224962393390101,-2.5177581946002405,-1.4398101011859339,-0.7137988249408167,-1.5963957945453089,-3.142524067555563
-0.8225200811969202,-2.51771051088442,-1.4397624174701136,-0.7137864271747034,-1.5963595549212855,-3.142535988484518
-0.8225200811969202,-2.5177224318133753,-1.4397981802569788,-0.7137864271747034,-1.5963957945453089,-3.142524067555563
-0.8225200811969202,-2.5177581946002405,-1.4397738615619105,-0.7137745062457483,-1.5963714758502405,-3.1424999872790735
-0.8225324789630335,-2.5177224318133753,-1.4398101011859339,-0.7137625853167933,-1.5963838736163538,-3.142535988484518
-0.8225200811969202,-2.5177462736712855,-1.4397981802569788,-0.7137864271747034,-1.5963714758502405,-3.142535988484518
-0.8225324789630335,-2.5177343527423304,-1.4397738615619105,-0.7137745062457483,-1.5963838736163538,-3.142547909413473
-0.8225324789630335,-2.517782513295309,-1.4398101011859339,-0.7138107458697718,-1.5963714758502405,-3.142524067555563
-0.8225081602679651,-2.5177462736712855,-1.4397981802569788,-0.7137625853167933,-1.596407715474264,-3.142535988484518
-0.8225324789630335,-2.5177701155291956,-1.4397738615619105,-0.7137506643878382,-1.5963714758502405,-3.142535988484518
-0.8225200811969202,-2.5177581946002405,-1.4398101011859339,-0.7138226667987269,-1.5963957945453089,-3.142535988484518
-0.8225443998919886,-2.5177343527423304,-1.4397738615619105,-0.7137864271747034,-1.5963838736163538,-3.142535988484518
-0.8225081602679651,-2.5177343527423304,-1.4397738615619105,-0.7137745062457483,-1.5963957945453089,-3.1425119082080286
-0.8225443998919886,-2.5177462736712855,-1.4398101011859339,-0.7137864271747034,-1.5963838736163538,-3.142524067555563
-0.8224962393390101,-2.5177462736712855,-1.4398101011859339,-0.7137745062457483,-1.5963957945453089,-3.142559830342428
-0.8225324789630335,-2.5177224318133753,-1.4397862593280237,-0.7137864271747034,-1.5963714758502405,-3.1425119082080286
-0.8225200811969202,-2.5177343527423304,-1.4397862593280237,-0.7137625853167933,-1.5963714758502405,-3.1425119082080286
-0.8225324789630335,-2.5177462736712855,-1.4398101011859339,-0.7137506643878382,-1.596407715474264,-3.1424880663501185
-0.8225324789630335,-2.5177343527423304,-1.4397738615619105,-0.7137988249408167,-1.5963957945453089,-3.142559830342428
-0.8225200811969202,-2.5177343527423304,-1.4397981802569788,-0.7137745062457483,-1.5963595549212855,-3.142524067555563
-0.8224962393390101,-2.5177343527423304,-1.4398101011859339,-0.7137745062457483,-1.5963714758502405,-3.1424999872790735
-0.8225324789630335,-2.5177581946002405,-1.4397624174701136,-0.7137506643878382,-1.5963838736163538,-3.1424761454211634
-0.8225081602679651,-2.5177224318133753,-1.439833943043844,-0.7137988249408167,-1.5963838736163538,-3.142547909413473
-0.8225563208209437,-2.5177343527423304,-1.4397738615619105,-0.7138107458697718,-1.5963714758502405,-3.142524067555563
-0.8225200811969202,-2.5177581946002405,-1.4397862593280237,-0.7137988249408167,-1.5963714758502405,-3.1424999872790735
-0.8225563208209437,-2.51771051088442,-1.4397624174701136,-0.7137745062457483,-1.5963595549212855,-3.142535988484518
-0.8225324789630335,-2.5177343527423304,-1.4397738615619105,-0.7137988249408167,-1.5963838736163538,-3.142547909413473
-0.8225081602679651,-2.5177224318133753,-1.439822022114889,-0.7137745062457483,-1.5963714758502405,-3.142535988484518
-0.8225081602679651,-2.51771051088442,-1.4397981802569788,-0.7137745062457483,-1.5964315573321741,-3.142524067555563
-0.8225081602679651,-2.5177343527423304,-1.439833943043844,-0.7137625853167933,-1.5963838736163538,-3.1425119082080286
-0.8225324789630335,-2.5177343527423304,-1.4398101011859339,-0.7138107458697718,-1.5963476339923304,-3.142524067555563
-0.8225443998919886,-2.5177343527423304,-1.4397738615619105,-0.7137988249408167,-1.596407715474264,-3.142535988484518
-0.8224962393390101,-2.5177462736712855,-1.4397380987750452,-0.7137864271747034,-1.596407715474264,-3.142559830342428
-0.8225200811969202,-2.5177343527423304,-1.4397738615619105,-0.7137988249408167,-1.5963957945453089,-3.1425119082080286
-0.8224962393390101,-2.5177462736712855,-1.4397862593280237,-0.7137625853167933,-1.5963595549212855,-3.1424880663501185
-0.8225081602679651,-2.5177343527423304,-1.4397624174701136,-0.7137864271747034,-1.5963714758502405,-3.142547909413473
-0.8225200811969202,-2.5177224318133753,-1.4397738615619105,-0.7137745062457483,-1.5963714758502405,-3.1425119082080286
-0.8225200811969202,-2.5177224318133753,-1.4398101011859339,-0.7137864271747034,-1.596407715474264,-3.142524067555563
-0.8225324789630335,-2.5177343527423304,-1.439822022114889,-0.7137745062457483,-1.5963595549212855,-3.142524067555563
-0.8225200811969202,-2.5177224318133753,-1.439822022114889,-0.7137506643878382,-1.5963957945453089,-3.142559830342428
-0.8225081602679651,-2.5177581946002405,-1.439822022114889,-0.7137625853167933,-1.5963595549212855,-3.142524067555563
-0.8224962393390101,-2.5177701155291956,-1.439822022114889,-0.7137506643878382,-1.5963838736163538,-3.142547909413473
-0.8225324789630335,-2.5177462736712855,-1.4397981802569788,-0.7137506643878382,-1.5963714758502405,-3.1425119082080286
-0.8225200811969202,-2.51771051088442,-1.4397981802569788,-0.7137625853167933,-1.5963714758502405,-3.1424880663501185
-0.8225200811969202,-2.5177462736712855,-1.439822022114889,-0.7137745062457483,-1.5963957945453089,-3.142535988484518
-0.8224962393390101,-2.5177462736712855,-1.4397981802569788,-0.7137864271747034,-1.5963957945453089,-3.1425119082080286
-0.8225324789630335,-2.5177462736712855,-1.4398101011859339,-0.7137506643878382,-1.596407715474264,-3.142547909413473
-0.8224962393390101,-2.5177343527423304,-1.439822022114889,-0.7137988249408167,-1.596407715474264,-3.142524067555563
-0.8225324789630335,-2.5177343527423304,-1.439822022114889,-0.7137864271747034,-1.5963957945453089,-3.142524067555563
-0.8224962393390101,-2.51771051088442,-1.439833943043844,-0.7137506643878382,-1.5963957945453089,-3.142535988484518
-0.8224962393390101,-2.5177343527423304,-1.4397981802569788,-0.7137864271747034,-1.596419636403219,-3.1425119082080286
-0.8224962393390101,-2.5177343527423304,-1.4397862593280237,-0.7137745062457483,-1.596419636403219,-3.142535988484518
-0.8225081602679651,-2.5177224318133753,-1.4397862593280237,-0.7137745062457483,-1.5963957945453089,-3.142571989689962
-0.822484318410055,-2.5177343527423304,-1.4398101011859339,-0.7137625853167933,-1.596407715474264,-3.142524067555563
-0.8225200811969202,-2.5177462736712855,-1.4397738615619105,-0.7137988249408167,-1.5963595549212855,-3.142524067555563
-0.8225081602679651,-2.5177581946002405,-1.4398463408099573,-0.7137864271747034,-1.5963957945453089,-3.1425119082080286
-0.822484318410055,-2.51771051088442,-1.4397862593280237,-0.7137864271747034,-1.5963838736163538,-3.142535988484518
-0.8225081602679651,-2.5177581946002405,-1.4397981802569788,-0.7137864271747034,-1.5963957945453089,-3.142547909413473
-0.8225081602679651,-2.5177343527423304,-1.4397981802569788,-0.7137864271747034,-1.5963838736163538,-3.142524067555563
-0.8225200811969202,-2.5177462736712855,-1.4397862593280237,-0.7137625853167933,-1.5964315573321741,-3.142524067555563
-0.8224962393390101,-2.5177343527423304,-1.4397862593280237,-0.7137625853167933,-1.596419636403219,-3.142535988484518
-0.8225801626788538,-2.5177581946002405,-1.4398101011859339,-0.7137625853167933,-1.5963595549212855,-3.1425119082080286
-0.8225081602679651,-2.51771051088442,-1.4398101011859339,-0.7137864271747034,-1.5963714758502405,-3.1424999872790735
-0.8224723974810999,-2.51771051088442,-1.4397738615619105,-0.7137864271747034,-1.5963957945453089,-3.1425119082080286
-0.8225081602679651,-2.5177701155291956,-1.439833943043844,-0.7137864271747034,-1.596407715474264,-3.142547909413473
-0.8225200811969202,-2.5177343527423304,-1.4397981802569788,-0.7137625853167933,-1.5963714758502405,-3.142559830342428
-0.8225081602679651,-2.5177581946002405,-1.4397862593280237,-0.7137864271747034,-1.5963714758502405,-3.142524067555563
-0.8225443998919886,-2.5177343527423304,-1.439833943043844,-0.7137864271747034,-1.596407715474264,-3.1425119082080286
-0.8225443998919886,-2.5177343527423304,-1.4397981802569788,-0.7137625853167933,-1.5963838736163538,-3.142571989689962
-0.8224604765521448,-2.5177462736712855,-1.4397981802569788,-0.7137745062457483,-1.5963838736163538,-3.1425119082080286
-0.8225200811969202,-2.5177581946002405,-1.4397624174701136,-0.7137625853167933,-1.5963957945453089,-3.142547909413473
-0.8225443998919886,-2.5177343527423304,-1.439822022114889,-0.7137864271747034,-1.5963714758502405,-3.142524067555563
-0.8225324789630335,-2.51771051088442,-1.4397981802569788,-0.7137988249408167,-1.5963714758502405,-3.142547909413473
-0.8224962393390101,-2.5177581946002405,-1.4397738615619105,-0.7137625853167933,-1.5963957945453089,-3.1425119082080286
-0.822484318410055,-2.5177462736712855,-1.4397981802569788,-0.7137387434588831,-1.5963595549212855,-3.142524067555563
-0.8225081602679651,-2.5177343527423304,-1.4397862593280237,-0.7138107458697718,-1.5963714758502405,-3.142559830342428
-0.8224962393390101,-2.5177462736712855,-1.4397862593280237,-0.7137625853167933,-1.596419636403219,-3.142535988484518
-0.8225563208209437,-2.5177343527423304,-1.4397738615619105,-0.7137506643878382,-1.5963957945453089,-3.142571989689962
-0.8225200811969202,-2.5177581946002405,-1.4397738615619105,-0.7137745062457483,-1.5963714758502405,-3.1424999872790735
-0.8225200811969202,-2.5177224318133753,-1.439822022114889,-0.7137506643878382,-1.5963838736163538,-3.142535988484518
-0.8224962393390101,-2.5177343527423304,-1.4398463408099573,-0.7137745062457483,-1.5963838736163538,-3.1425119082080286
-0.8225563208209437,-2.5177343527423304,-1.4398101011859339,-0.7137387434588831,-1.5963957945453089,-3.1425119082080286
-0.8225324789630335,-2.5177462736712855,-1.4397981802569788,-0.7137625853167933,-1.5963476339923304,-3.1425119082080286
-0.8225200811969202,-2.5177343527423304,-1.4397981802569788,-0.7137625853167933,-1.5963714758502405,-3.1425119082080286
-0.8225200811969202,-2.5177343527423304,-1.4397738615619105,-0.7137864271747034,-1.5963595549212855,-3.142547909413473
-0.8225081602679651,-2.5177581946002405,-1.4397981802569788,-0.7137864271747034,-1.596407715474264,-3.142547909413473
-0.8225324789630335,-2.5177462736712855,-1.4398101011859339,-0.7137988249408167,-1.5963838736163538,-3.142535988484518
-0.8225200811969202,-2.5177343527423304,-1.4397981802569788,-0.7137988249408167,-1.5963957945453089,-3.142524067555563
-0.8224962393390101,-2.5177343527423304,-1.4397981802569788,-0.7137506643878382,-1.5963957945453089,-3.142535988484518
-0.8225081602679651,-2.5177462736712855,-1.4397981802569788,-0.7137625853167933,-1.5963957945453089,-3.142547909413473
-0.8225443998919886,-2.5177343527423304,-1.4398463408099573,-0.7137864271747034,-1.5963957945453089,-3.142535988484518
-0.8225563208209437,-2.5177343527423304,-1.4398101011859339,-0.7137988249408167,-1.5964315573321741,-3.142524067555563
-0.8225324789630335,-2.5177224318133753,-1.4397981802569788,-0.7137625853167933,-1.596407715474264,-3.142535988484518
-0.8225200811969202,-2.5177343527423304,-1.439822022114889,-0.7137745062457483,-1.5963714758502405,-3.1425119082080286
-0.8225200811969202,-2.5177462736712855,-1.4397624174701136,-0.7137745062457483,-1.596407715474264,-3.142535988484518
-0.8224962393390101,-2.5177343527423304,-1.4397738615619105,-0.7137745062457483,-1.5963237921344202,-3.142524067555563
-0.8225324789630335,-2.5177343527423304,-1.4398101011859339,-0.7137864271747034,-1.5963838736163538,-3.142524067555563
-0.8225324789630335,-2.5177343527423304,-1.4397738615619105,-0.7137988249408167,-1.5963957945453089,-3.1424999872790735
-0.8225081602679651,-2.5177343527423304,-1.439833943043844,-0.7137625853167933,-1.596407715474264,-3.142524067555563
-0.8224962393390101,-2.5177224318133753,-1.4397862593280237,-0.7137745062457483,-1.5963957945453089,-3.142547909413473
-0.8225200811969202,-2.5177343527423304,-1.4398101011859339,-0.7137625853167933,-1.5963595549212855,-3.142524067555563
-0.8225200811969202,-2.5177701155291956,-1.4397981802569788,-0.7138107458697718,-1.5963957945453089,-3.1424999872790735
-0.822484318410055,-2.5177224318133753,-1.4398463408099573,-0.7137625853167933,-1.5963838736163538,-3.142524067555563
-0.8225324789630335,-2.51771051088442,-1.4397624174701136,-0.7137745062457483,-1.5963595549212855,-3.142524067555563
-0.8224962393390101,-2.5177224318133753,-1.4398101011859339,-0.7137625853167933,-1.596419636403219,-3.142535988484518
-0.8225200811969202,-2.5177224318133753,-1.4397862593280237,-0.7137864271747034,-1.5963714758502405,-3.142524067555563
-0.8224962393390101,-2.5177343527423304,-1.4397862593280237,-0.7137864271747034,-1.5963595549212855,-3.1424999872790735
-0.8225324789630335,-2.5177462736712855,-1.4397862593280237,-0.7137745062457483,-1.5963957945453089,-3.1424999872790735
-0.8225324789630335,-2.5177224318133753,-1.4398101011859339,-0.7137988249408167,-1.5963714758502405,-3.1424880663501185
-0.8225081602679651,-2.5177581946002405,-1.4397624174701136,-0.7137864271747034,-1.596407715474264,-3.142535988484518
-0.8225200811969202,-2.51771051088442,-1.4397981802569788,-0.7137625853167933,-1.5963957945453089,-3.1425119082080286
-0.8224962393390101,-2.5177343527423304,-1.4397624174701136,-0.7137864271747034,-1.5963714758502405,-3.142524067555563
-0.8225081602679651,-2.5177462736712855,-1.4397624174701136,-0.7137387434588831,-1.5963714758502405,-3.142524067555563
-0.8224485556231897,-2.5177462736712855,-1.4397738615619105,-0.7137988249408167,-1.596407715474264,-3.142571989689962
-0.8225324789630335,-2.5177343527423304,-1.4397738615619105,-0.7137625853167933,-1.596407715474264,-3.142524067555563
-0.8224962393390101,-2.5177701155291956,-1.4397862593280237,-0.7137625853167933,-1.5963595549212855,-3.142571989689962
-0.8225200811969202,-2.5177581946002405,-1.4397738615619105,-0.7137506643878382,-1.5963957945453089,-3.142524067555563
-0.8224962393390101,-2.5177343527423304,-1.439822022114889,-0.7137745062457483,-1.5963595549212855,-3.142535988484518
-0.8224962393390101,-2.5177581946002405,-1.4397738615619105,-0.7137864271747034,-1.5963595549212855,-3.142559830342428
-0.8224723974810999,-2.5177462736712855,-1.4397738615619105,-0.7137506643878382,-1.5963838736163538,-3.142571989689962
-0.8225563208209437,-2.51771051088442,-1.439822022114889,-0.7137506643878382,-1.5963714758502405,-3.1425119082080286
-0.8225443998919886,-2.5177343527423304,-1.4397862593280237,-0.7137864271747034,-1.5963714758502405,-3.1424999872790735
-0.8225200811969202,-2.5177224318133753,-1.4398101011859339,-0.7137864271747034,-1.5963595549212855,-3.1424999872790735
-0.8225200811969202,-2.5177581946002405,-1.4397862593280237,-0.7137864271747034,-1.5963714758502405,-3.142535988484518
-0.8225081602679651,-2.5177343527423304,-1.4398101011859339,-0.7138107458697718,-1.5963957945453089,-3.1425119082080286
-0.8224962393390101,-2.5177343527423304,-1.439822022114889,-0.7137864271747034,-1.596407715474264,-3.142535988484518
-0.8224962393390101,-2.5177462736712855,-1.4398101011859339,-0.7137864271747034,-1.5963838736163538,-3.142559830342428
-0.8225200811969202,-2.5177343527423304,-1.4397862593280237,-0.7138345877276819,-1.5963595549212855,-3.142535988484518
-0.8225200811969202,-2.5177343527423304,-1.4397862593280237,-0.7137745062457483,-1.5963595549212855,-3.1425119082080286
-0.8225200811969202,-2.5177462736712855,-1.439822022114889,-0.7137864271747034,-1.5963838736163538,-3.142524067555563
-0.8225324789630335,-2.5177343527423304,-1.4398101011859339,-0.7137625853167933,-1.5963838736163538,-3.142524067555563
-0.8225443998919886,-2.5177581946002405,-1.4397862593280237,-0.7137745062457483,-1.5963957945453089,-3.1425119082080286
-0.8224962393390101,-2.5177343527423304,-1.4397738615619105,-0.7137625853167933,-1.5963595549212855,-3.142524067555563
-0.8225200811969202,-2.5177343527423304,-1.4397862593280237,-0.7138107458697718,-1.5963714758502405,-3.142535988484518
-0.8225200811969202,-2.5177462736712855,-1.4397862593280237,-0.7138107458697718,-1.5963957945453089,-3.1425119082080286
-0.8225200811969202,-2.5177224318133753,-1.4397981802569788,-0.7137864271747034,-1.5963714758502405,-3.142547909413473
-0.8225200811969202,-2.5177462736712855,-1.4398101011859339,-0.7137506643878382,-1.596407715474264,-3.142524067555563
-0.822484318410055,-2.51771051088442,-1.4397862593280237,-0.7137745062457483,-1.5963838736163538,-3.1425119082080286
-0.822484318410055,-2.51771051088442,-1.4398101011859339,-0.7137625853167933,-1.5963957945453089,-3.1425119082080286
-0.8225324789630335,-2.5177462736712855,-1.439833943043844,-0.7137625853167933,-1.596407715474264,-3.142535988484518
-0.8225081602679651,-2.5177343527423304,-1.4398101011859339,-0.7137625853167933,-1.596407715474264,-3.142547909413473
-0.8225563208209437,-2.5177343527423304,-1.4397862593280237,-0.7137625853167933,-1.596407715474264,-3.1425119082080286
-0.8224962393390101,-2.5177462736712855,-1.4397981802569788,-0.7137864271747034,-1.5963838736163538,-3.1425119082080286
-0.8225443998919886,-2.5177224318133753,-1.4397624174701136,-0.7137506643878382,-1.5963957945453089,-3.142524067555563
-0.8225200811969202,-2.5177224318133753,-1.439833943043844,-0.7137988249408167,-1.5963957945453089,-3.1425119082080286
-0.8225081602679651,-2.5177581946002405,-1.4398101011859339,-0.7137864271747034,-1.5963714758502405,-3.142547909413473
-0.8225200811969202,-2.5177581946002405,-1.4398101011859339,-0.7137988249408167,-1.5963957945453089,-3.142524067555563
-0.8224962393390101,-2.5177701155291956,-1.439833943043844,-0.7137988249408167,-1.5963957945453089,-3.1424880663501185
-0.822484318410055,-2.5177343527423304,-1.4397981802569788,-0.7137506643878382,-1.596407715474264,-3.142559830342428
-0.8225200811969202,-2.5177224318133753,-1.439822022114889,-0.7137864271747034,-1.5963957945453089,-3.142559830342428
-0.8224962393390101,-2.5177343527423304,-1.4397981802569788,-0.7137745062457483,-1.5963838736163538,-3.142571989689962
-0.8225443998919886,-2.5177224318133753,-1.4397862593280237,-0.7137745062457483,-1.5963838736163538,-3.142524067555563
-0.8225200811969202,-2.5177462736712855,-1.4397862593280237,-0.7137506643878382,-1.5963957945453089,-3.1425119082080286
-0.8225081602679651,-2.5177462736712855,-1.4397862593280237,-0.7137864271747034,-1.5963838736163538,-3.142524067555563
-0.822484318410055,-2.5177343527423304,-1.439822022114889,-0.7137745062457483,-1.5963957945453089,-3.142547909413473
-0.8225081602679651,-2.5177343527423304,-1.4397738615619105,-0.7137988249408167,-1.5963595549212855,-3.142524067555563
-0.8225200811969202,-2.5177224318133753,-1.4397862593280237,-0.7137988249408167,-1.5963476339923304,-3.142524067555563
-0.8225081602679651,-2.5177701155291956,-1.4397862593280237,-0.7137745062457483,-1.5963714758502405,-3.142535988484518
-0.8225563208209437,-2.517782513295309,-1.4397738615619105,-0.7137988249408167,-1.5963957945453089,-3.1425119082080286
-0.8224962393390101,-2.5177462736712855,-1.439833943043844,-0.7137745062457483,-1.5963957945453089,-3.1425119082080286
-0.8225324789630335,-2.5177462736712855,-1.439833943043844,-0.7137506643878382,-1.5963714758502405,-3.1425119082080286
-0.8225324789630335,-2.5177462736712855,-1.4397862593280237,-0.7138226667987269,-1.5963838736163538,-3.142547909413473
-0.8225081602679651,-2.517698589955465,-1.4397981802569788,-0.7137864271747034,-1.5963957945453089,-3.142559830342428
-0.8225443998919886,-2.517782513295309,-1.4398101011859339,-0.7137745062457483,-1.5963595549212855,-3.142547909413473
-0.8225081602679651,-2.5177343527423304,-1.439822022114889,-0.7137864271747034,-1.5963714758502405,-3.1424999872790735
-0.8225324789630335,-2.5177462736712855,-1.4397981802569788,-0.7137625853167933,-1.5963714758502405,-3.142547909413473
-0.8225200811969202,-2.5177462736712855,-1.4398101011859339,-0.7137506643878382,-1.5963957945453089,-3.1425119082080286
-0.8225324789630335,-2.5177343527423304,-1.4397380987750452,-0.7137988249408167,-1.5963595549212855,-3.142535988484518
-0.8225200811969202,-2.5177343527423304,-1.4397981802569788,-0.7137988249408167,-1.596407715474264,-3.1424761454211634
-0.8225200811969202,-2.5177701155291956,-1.439822022114889,-0.7137864271747034,-1.5963957945453089,-3.142524067555563
-0.8225324789630335,-2.5177701155291956,-1.4397981802569788,-0.7137864271747034,-1.5963714758502405,-3.1425119082080286
-0.8224962393390101,-2.5177224318133753,-1.439822022114889,-0.7137625853167933,-1.5963957945453089,-3.142559830342428
-0.8225200811969202,-2.5177581946002405,-1.439822022114889,-0.7138107458697718,-1.5963714758502405,-3.142559830342428
-0.8224962393390101,-2.517698589955465,-1.4397624174701136,-0.7137745062457483,-1.596419636403219,-3.142535988484518
-0.8225081602679651,-2.5177462736712855,-1.4397862593280237,-0.7138107458697718,-1.5963714758502405,-3.142535988484518
-0.8225200811969202,-2.5177343527423304,-1.4397862593280237,-0.7137745062457483,-1.5963957945453089,-3.1425119082080286
-0.8225081602679651,-2.51771051088442,-1.4397981802569788,-0.7137625853167933,-1.5963595549212855,-3.1425119082080286
-0.8225443998919886,-2.5177343527423304,-1.4397981802569788,-0.7137625853167933,-1.5963838736163538,-3.142524067555563
-0.8225200811969202,-2.5177343527423304,-1.439822022114889,-0.7137745062457483,-1.5963714758502405,-3.142524067555563
-0.8225081602679651,-2.5177462736712855,-1.4397624174701136,-0.7137506643878382,-1.5963595549212855,-3.142524067555563
-0.822484318410055,-2.5177701155291956,-1.4397624174701136,-0.7137745062457483,-1.596407715474264,-3.1425119082080286
-0.8225200811969202,-2.5177343527423304,-1.4397981802569788,-0.7137864271747034,-1.5963957945453089,-3.142535988484518
-0.8225324789630335,-2.5177581946002405,-1.4397862593280237,-0.7137625853167933,-1.596407715474264,-3.142535988484518
-0.8225324789630335,-2.51771051088442,-1.4397981802569788,-0.7137625853167933,-1.596407715474264,-3.142535988484518
-0.8224962393390101,-2.51771051088442,-1.4397981802569788,-0.7137625853167933,-1.596419636403219,-3.142547909413473
-0.8224962393390101,-2.5177462736712855,-1.4397981802569788,-0.7137625853167933,-1.596419636403219,-3.1425119082080286
-0.8225081602679651,-2.5177581946002405,-1.4397981802569788,-0.7137864271747034,-1.5963595549212855,-3.142524067555563
-0.8225324789630335,-2.5177462736712855,-1.4397862593280237,-0.7137864271747034,-1.596407715474264,-3.142524067555563
-0.8225563208209437,-2.5177343527423304,-1.4397981802569788,-0.7137625853167933,-1.596407715474264,-3.142535988484518
-0.8225081602679651,-2.5177343527423304,-1.4398101011859339,-0.7137745062457483,-1.5963957945453089,-3.1425119082080286
-0.8224723974810999,-2.5177343527423304,-1.4397862593280237,-0.7137745062457483,-1.5963957945453089,-3.142535988484518
-0.8225200811969202,-2.5177343527423304,-1.4397862593280237,-0.7137625853167933,-1.5963838736163538,-3.142547909413473
-0.8225081602679651,-2.5177343527423304,-1.4397738615619105,-0.7137745062457483,-1.596407715474264,-3.142535988484518
-0.8225200811969202,-2.5177581946002405,-1.4397500197040003,-0.7137988249408167,-1.5963957945453089,-3.1424999872790735
-0.8224962393390101,-2.5177701155291956,-1.4397624174701136,-0.7138107458697718,-1.5963838736163538,-3.142547909413473
-0.8224962393390101,-2.5177224318133753,-1.439833943043844,-0.7137625853167933,-1.5963838736163538,-3.1425119082080286
-0.8225200811969202,-2.5177462736712855,-1.4397624174701136,-0.7137864271747034,-1.5963957945453089,-3.142524067555563
-0.8225563208209437,-2.5177581946002405,-1.4397862593280237,-0.7137625853167933,-1.5963957945453089,-3.1424999872790735
-0.8225200811969202,-2.5177343527423304,-1.4397624174701136,-0.7138107458697718,-1.5963957945453089,-3.142535988484518
-0.822484318410055,-2.5177224318133753,-1.4397862593280237,-0.7137625853167933,-1.5963957945453089,-3.142524067555563
-0.8225081602679651,-2.5177462736712855,-1.4398577849017542,-0.7137988249408167,-1.5963714758502405,-3.142547909413473
-0.8225324789630335,-2.5177462736712855,-1.439833943043844,-0.7137625853167933,-1.5963957945453089,-3.1424999872790735
-0.8225200811969202,-2.5177224318133753,-1.4397738615619105,-0.7137864271747034,-1.5963595549212855,-3.142571989689962
-0.8225081602679651,-2.5177701155291956,-1.439833943043844,-0.7137745062457483,-1.5963957945453089,-3.142547909413473
-0.8225200811969202,-2.5177343527423304,-1.439822022114889,-0.7137625853167933,-1.5963595549212855,-3.142524067555563
-0.8225324789630335,-2.5177343527423304,-1.4397862593280237,-0.7137625853167933,-1.5963595549212855,-3.142547909413473
-0.8224962393390101,-2.51771051088442,-1.4397981802569788,-0.7137988249408167,-1.5964315573321741,-3.142547909413473
-0.8225200811969202,-2.5177343527423304,-1.439822022114889,-0.7137864271747034,-1.5963957945453089,-3.1424880663501185
-0.8224962393390101,-2.51771051088442,-1.4397862593280237,-0.7137864271747034,-1.5963838736163538,-3.142535988484518
-0.8225324789630335,-2.5177224318133753,-1.4397738615619105,-0.7137988249408167,-1.5963838736163538,-3.142535988484518
-0.8225200811969202,-2.5177343527423304,-1.4397624174701136,-0.7137625853167933,-1.5963957945453089,-3.1425119082080286
-0.8225081602679651,-2.5177581946002405,-1.4397981802569788,-0.7137864271747034,-1.5963838736163538,-3.1425119082080286
-0.8225200811969202,-2.51771051088442,-1.4397981802569788,-0.7137625853167933,-1.5963957945453089,-3.142547909413473
-0.8225200811969202,-2.5177343527423304,-1.4398101011859339,-0.7137988249408167,-1.5963595549212855,-3.142535988484518
-0.8225200811969202,-2.5177343527423304,-1.439833943043844,-0.7137864271747034,-1.5963476339923304,-3.1425119082080286
-0.8225200811969202,-2.5177462736712855,-1.4397981802569788,-0.7137625853167933,-1.5963838736163538,-3.142535988484518
-0.8224962393390101,-2.5177343527423304,-1.439822022114889,-0.7137864271747034,-1.5963595549212855,-3.142524067555563
-0.8225200811969202,-2.5177343527423304,-1.4397624174701136,-0.7137745062457483,-1.596407715474264,-3.142524067555563
-0.8225200811969202,-2.5177343527423304,-1.4397862593280237,-0.7137625853167933,-1.5963957945453089,-3.142524067555563
-0.822484318410055,-2.5177462736712855,-1.439822022114889,-0.7137988249408167,-1.5963957945453089,-3.1425119082080286
-0.8225324789630335,-2.5177462736712855,-1.4397981802569788,-0.7138107458697718,-1.5963838736163538,-3.142547909413473
-0.8225200811969202,-2.5177701155291956,-1.4397981802569788,-0.7137988249408167,-1.596407715474264,-3.1424880663501185
-0.8225443998919886,-2.5177224318133753,-1.4397862593280237,-0.7137625853167933,-1.5963838736163538,-3.1424880663501185
-0.8225200811969202,-2.5177701155291956,-1.4398463408099573,-0.7137625853167933,-1.5963957945453089,-3.142535988484518
-0.8225324789630335,-2.5177343527423304,-1.4398101011859339,-0.7137625853167933,-1.5963957945453089,-3.142547909413473
-0.8224962393390101,-2.5177462736712855,-1.4397738615619105,-0.7137506643878382,-1.5963838736163538,-3.142524067555563
-0.8225563208209437,-2.5177343527423304,-1.4398101011859339,-0.7137745062457483,-1.5963838736163538,-3.142571989689962
-0.8225324789630335,-2.5177462736712855,-1.4397981802569788,-0.7137745062457483,-1.5963838736163538,-3.1424999872790735
-0.8225081602679651,-2.517782513295309,-1.4397862593280237,-0.7137506643878382,-1.596419636403219,-3.1425119082080286
-0.8224962393390101,-2.5177343527423304,-1.4397624174701136,-0.7137506643878382,-1.5963838736163538,-3.142524067555563
-0.822484318410055,-2.5177343527423304,-1.4397981802569788,-0.7137745062457483,-1.596407715474264,-3.142547909413473
-0.8225081602679651,-2.5177462736712855,-1.439822022114889,-0.7137988249408167,-1.5963957945453089,-3.142524067555563
-0.8225081602679651,-2.5177343527423304,-1.4397981802569788,-0.7137745062457483,-1.5963838736163538,-3.1425119082080286
-0.8225200811969202,-2.5177343527423304,-1.4397981802569788,-0.7137988249408167,-1.596407715474264,-3.142571989689962
-0.8225200811969202,-2.5177343527423304,-1.4397981802569788,-0.7137988249408167,-1.5963838736163538,-3.1425119082080286
-0.8225081602679651,-2.5177343527423304,-1.4397981802569788,-0.7137745062457483,-1.5963957945453089,-3.1425119082080286
-0.822484318410055,-2.51771051088442,-1.4397862593280237,-0.7137745062457483,-1.5963957945453089,-3.1425119082080286
-0.8225200811969202,-2.5177462736712855,-1.4398101011859339,-0.7137625853167933,-1.5963957945453089,-3.142547909413473
-0.822484318410055,-2.5177701155291956,-1.4397380987750452,-0.7137745062457483,-1.5963714758502405,-3.142535988484518
-0.8225563208209437,-2.5177462736712855,-1.4397862593280237,-0.7137625853167933,-1.5963714758502405,-3.1425119082080286
-0.8224962393390101,-2.5177462736712855,-1.4397862593280237,-0.7137988249408167,-1.5963714758502405,-3.142524067555563
-0.8224723974810999,-2.5177462736712855,-1.4398463408099573,-0.7137625853167933,-1.5963838736163538,-3.1425119082080286
-0.8225443998919886,-2.5177343527423304,-1.4398101011859339,-0.7137988249408167,-1.5963957945453089,-3.142535988484518
-0.8224723974810999,-2.5177224318133753,-1.439822022114889,-0.7137625853167933,-1.5963838736163538,-3.142571989689962
-0.8225324789630335,-2.5177224318133753,-1.4397624174701136,-0.7137864271747034,-1.596407715474264,-3.142524067555563
-0.8224962393390101,-2.5177581946002405,-1.4397981802569788,-0.7137988249408167,-1.5963714758502405,-3.142535988484518
-0.8225200811969202,-2.51771051088442,-1.4397981802569788,-0.7137745062457483,-1.5963957945453089,-3.142559830342428
-0.822484318410055,-2.5177701155291956,-1.4397981802569788,-0.7137988249408167,-1.596407715474264,-3.142524067555563
-0.8225324789630335,-2.5177343527423304,-1.4397624174701136,-0.7137864271747034,-1.596419636403219,-3.142571989689962
-0.8225200811969202,-2.51771051088442,-1.4398101011859339,-0.7137745062457483,-1.5963957945453089,-3.142524067555563
-0.8225081602679651,-2.5177343527423304,-1.4397738615619105,-0.7137988249408167,-1.5963714758502405,-3.142547909413473
-0.8225200811969202,-2.5177462736712855,-1.4397500197040003,-0.7137506643878382,-1.5963838736163538,-3.1425119082080286
-0.8224962393390101,-2.5177462736712855,-1.4397981802569788,-0.7137988249408167,-1.5963957945453089,-3.1425119082080286
-0.8225081602679651,-2.5177343527423304,-1.4397738615619105,-0.7137864271747034,-1.5963714758502405,-3.142535988484518
-0.8224962393390101,-2.5177701155291956,-1.4397862593280237,-0.7137988249408167,-1.5963957945453089,-3.142547909413473
-0.8225200811969202,-2.5177224318133753,-1.4397862593280237,-0.7137864271747034,-1.596407715474264,-3.1424880663501185
-0.8225200811969202,-2.5177581946002405,-1.4397500197040003,-0.7137745062457483,-1.5963714758502405,-3.1425119082080286
-0.8225324789630335,-2.5177224318133753,-1.4398101011859339,-0.7137864271747034,-1.5963714758502405,-3.142571989689962
-0.8225081602679651,-2.5177462736712855,-1.4397862593280237,-0.7137864271747034,-1.5963957945453089,-3.142535988484518
-0.8225443998919886,-2.5177224318133753,-1.439822022114889,-0.7137988249408167,-1.5963838736163538,-3.1425119082080286
-0.8225200811969202,-2.5177224318133753,-1.4397862593280237,-0.7137745062457483,-1.596407715474264,-3.1425119082080286
-0.8224962393390101,-2.5177224318133753,-1.4397981802569788,-0.7137864271747034,-1.5963595549212855,-3.1424999872790735
-0.8225081602679651,-2.5177462736712855,-1.4397981802569788,-0.7137745062457483,-1.5963838736163538,-3.142524067555563
-0.822484318410055,-2.51771051088442,-1.4398101011859339,-0.7137745062457483,-1.5963714758502405,-3.142524067555563
-0.8225324789630335,-2.5177581946002405,-1.439833943043844,-0.7137625853167933,-1.5963838736163538,-3.142547909413473
-0.8225563208209437,-2.5177462736712855,-1.439833943043844,-0.7137745062457483,-1.5963838736163538,-3.142547909413473
-0.8225081602679651,-2.5177462736712855,-1.4397981802569788,-0.7137864271747034,-1.596407715474264,-3.1425119082080286
-0.8225081602679651,-2.5177462736712855,-1.4397738615619105,-0.7137745062457483,-1.5963476339923304,-3.142524067555563
-0.822484318410055,-2.51771051088442,-1.4397862593280237,-0.7137988249408167,-1.5963838736163538,-3.142571989689962
-0.8225081602679651,-2.5177462736712855,-1.4397624174701136,-0.7137745062457483,-1.596407715474264,-3.142547909413473
-0.8225081602679651,-2.5177462736712855,-1.4397738615619105,-0.7137988249408167,-1.5963957945453089,-3.142559830342428
-0.8225200811969202,-2.5177462736712855,-1.4397981802569788,-0.7137864271747034,-1.5963714758502405,-3.142535988484518
-0.8224962393390101,-2.5177343527423304,-1.4397738615619105,-0.7137387434588831,-1.5963838736163538,-3.1425119082080286
-0.8225324789630335,-2.517782513295309,-1.4398101011859339,-0.7137625853167933,-1.5963957945453089,-3.1424999872790735
-0.8225324789630335,-2.5177224318133753,-1.4397981802569788,-0.7137864271747034,-1.5963957945453089,-3.1425119082080286
-0.8225443998919886,-2.5177343527423304,-1.4397981802569788,-0.7137745062457483,-1.5963838736163538,-3.142535988484518
-0.8224962393390101,-2.51771051088442,-1.4397738615619105,-0.7137745062457483,-1.5963957945453089,-3.1425839106189173
-0.8225081602679651,-2.5177462736712855,-1.4397738615619105,-0.7137625853167933,-1.5963957945453089,-3.142559830342428
-0.8224962393390101,-2.5177343527423304,-1.439822022114889,-0.7137864271747034,-1.5963838736163538,-3.142524067555563
-0.8225324789630335,-2.5177462736712855,-1.4397738615619105,-0.7137864271747034,-1.5963838736163538,-3.1424999872790735
-0.8225443998919886,-2.5177343527423304,-1.4397624174701136,-0.7137864271747034,-1.5963957945453089,-3.1425119082080286
-0.8225324789630335,-2.5177701155291956,-1.4397862593280237,-0.7137387434588831,-1.5963595549212855,-3.142559830342428
-0.822484318410055,-2.5177462736712855,-1.4398101011859339,-0.7137625853167933,-1.5963838736163538,-3.1424880663501185
-0.8225081602679651,-2.51771051088442,-1.439833943043844,-0.7137745062457483,-1.5963714758502405,-3.1424999872790735
-0.8225081602679651,-2.5177462736712855,-1.4398101011859339,-0.7137625853167933,-1.5963838736163538,-3.142524067555563
-0.8225081602679651,-2.5177462736712855,-1.4397862593280237,-0.7137625853167933,-1.5963714758502405,-3.142524067555563
-0.8224962393390101,-2.5177224318133753,-1.439822022114889,-0.7137745062457483,-1.5963957945453089,-3.1425119082080286
-0.8225443998919886,-2.5177462736712855,-1.439822022114889,-0.7137864271747034,-1.5963957945453089,-3.1424999872790735
-0.8225081602679651,-2.5177462736712855,-1.4397862593280237,-0.7137745062457483,-1.5963838736163538,-3.142524067555563
-0.8225081602679651,-2.5177224318133753,-1.4398101011859339,-0.7137745062457483,-1.5963957945453089,-3.142559830342428
-0.8224962393390101,-2.5177343527423304,-1.4397862593280237,-0.7137387434588831,-1.5963838736163538,-3.142524067555563
-0.8225200811969202,-2.5177343527423304,-1.4398101011859339,-0.7137625853167933,-1.5963595549212855,-3.142535988484518
-0.8225443998919886,-2.5177343527423304,-1.439822022114889,-0.7137988249408167,-1.5963595549212855,-3.1425119082080286
-0.8225324789630335,-2.5177343527423304,-1.4397862593280237,-0.7137864271747034,-1.5963714758502405,-3.142547909413473
-0.8225443998919886,-2.5177343527423304,-1.439822022114889,-0.7137864271747034,-1.5963957945453089,-3.142535988484518
-0.8225200811969202,-2.5177343527423304,-1.439822022114889,-0.7137864271747034,-1.596407715474264,-3.142535988484518
-0.8225081602679651,-2.5177701155291956,-1.4397862593280237,-0.7137745062457483,-1.5963714758502405,-3.142535988484518
-0.8225200811969202,-2.5177581946002405,-1.439822022114889,-0.7137988249408167,-1.5963838736163538,-3.142547909413473
-0.8225081602679651,-2.5177462736712855,-1.4397981802569788,-0.7137864271747034,-1.5963714758502405,-3.142524067555563
-0.822484318410055,-2.5177224318133753,-1.4397981802569788,-0.7137506643878382,-1.596407715474264,-3.142547909413473
-0.8225443998919886,-2.5177462736712855,-1.4397500197040003,-0.7137864271747034,-1.5963714758502405,-3.142547909413473
-0.8224962393390101,-2.5177343527423304,-1.4397981802569788,-0.7137625853167933,-1.5963714758502405,-3.142524067555563
-0.8224723974810999,-2.5177343527423304,-1.439822022114889,-0.7137387434588831,-1.5963595549212855,-3.142547909413473
-0.8224723974810999,-2.5177462736712855,-1.4397862593280237,-0.7137745062457483,-1.5963957945453089,-3.142535988484518
-0.8225081602679651,-2.5177224318133753,-1.4398101011859339,-0.7137625853167933,-1.5963838736163538,-3.142547909413473
-0.8225081602679651,-2.5177343527423304,-1.4398463408099573,-0.7138107458697718,-1.5963714758502405,-3.142535988484518
-0.8225200811969202,-2.5177581946002405,-1.4397981802569788,-0.7137988249408167,-1.5963714758502405,-3.1425119082080286
-0.8225200811969202,-2.5177581946002405,-1.4397981802569788,-0.7137864271747034,-1.5964553991900843,-3.142524067555563
-0.8225081602679651,-2.5177462736712855,-1.4397981802569788,-0.7137988249408167,-1.596419636403219,-3.1424999872790735
-0.8224962393390101,-2.5177343527423304,-1.4397981802569788,-0.7137988249408167,-1.596407715474264,-3.142524067555563
-0.8225443998919886,-2.5177462736712855,-1.4398101011859339,-0.7137864271747034,-1.5963595549212855,-3.142524067555563
-0.8225081602679651,-2.51771051088442,-1.4397981802569788,-0.7137745062457483,-1.5963714758502405,-3.1424761454211634
-0.8225081602679651,-2.5177224318133753,-1.4397500197040003,-0.7137864271747034,-1.5963714758502405,-3.142547909413473
-0.8225324789630335,-2.5177701155291956,-1.4397738615619105,-0.7137988249408167,-1.596407715474264,-3.142547909413473
-0.8225200811969202,-2.5177462736712855,-1.439822022114889,-0.7137745062457483,-1.596407715474264,-3.1425119082080286
-0.8225443998919886,-2.5177701155291956,-1.4397738615619105,-0.7137745062457483,-1.5963957945453089,-3.142524067555563
-0.8225324789630335,-2.5177224318133753,-1.4398101011859339,-0.7137625853167933,-1.5963957945453089,-3.142524067555563
-0.8225081602679651,-2.5177581946002405,-1.4397981802569788,-0.7137988249408167,-1.5964315573321741,-3.1425119082080286
-0.8224962393390101,-2.5177343527423304,-1.4397500197040003,-0.7137506643878382,-1.5963595549212855,-3.142535988484518
-0.8225081602679651,-2.5177462736712855,-1.4397862593280237,-0.7137745062457483,-1.5963595549212855,-3.142535988484518
-0.8225443998919886,-2.5177224318133753,-1.4397981802569788,-0.7137625853167933,-1.5963838736163538,-3.1425119082080286
-0.8225200811969202,-2.51771051088442,-1.4397981802569788,-0.7137625853167933,-1.5963957945453089,-3.1425119082080286
-0.8225682417498987,-2.517698589955465,-1.4397981802569788,-0.7137625853167933,-1.5963595549212855,-3.1424999872790735
-0.8225081602679651,-2.5177462736712855,-1.439822022114889,-0.7137625853167933,-1.5963357130633753,-3.142524067555563
-0.8224962393390101,-2.5177343527423304,-1.4397862593280237,-0.7137988249408167,-1.5963957945453089,-3.1425119082080286
-0.8225443998919886,-2.5177343527423304,-1.4397862593280237,-0.7137988249408167,-1.5963838736163538,-3.142547909413473
-0.8225443998919886,-2.5177224318133753,-1.4398101011859339,-0.7137625853167933,-1.596407715474264,-3.142547909413473
-0.8225081602679651,-2.5177224318133753,-1.4398101011859339,-0.7137745062457483,-1.5963957945453089,-3.142524067555563
-0.8224723974810999,-2.5177462736712855,-1.4397862593280237,-0.7137864271747034,-1.5963595549212855,-3.142535988484518
-0.8225081602679651,-2.5177462736712855,-1.4397981802569788,-0.7137864271747034,-1.5963957945453089,-3.142559830342428
-0.8225081602679651,-2.5177701155291956,-1.439822022114889,-0.7137506643878382,-1.5963957945453089,-3.142535988484518
-0.8225200811969202,-2.5177343527423304,-1.4397981802569788,-0.7137625853167933,-1.5963714758502405,-3.142547909413473
-0.8225081602679651,-2.5177462736712855,-1.4397862593280237,-0.7138107458697718,-1.5963838736163538,-3.1424999872790735
-0.8225200811969202,-2.5177462736712855,-1.4398101011859339,-0.7137745062457483,-1.5963838736163538,-3.142535988484518
-0.8225324789630335,-2.51771051088442,-1.4397981802569788,-0.7137864271747034,-1.5963838736163538,-3.1425119082080286
-0.8225324789630335,-2.5177581946002405,-1.439822022114889,-0.7138107458697718,-1.5963957945453089,-3.1424880663501185
-0.8225324789630335,-2.517698589955465,-1.4397738615619105,-0.7137864271747034,-1.5963957945453089,-3.142524067555563
-0.8225324789630335,-2.5177462736712855,-1.4397981802569788,-0.7137745062457483,-1.5963595549212855,-3.1425119082080286
-0.8225200811969202,-2.5177343527423304,-1.4397981802569788,-0.7137506643878382,-1.5963838736163538,-3.142535988484518
-0.8225443998919886,-2.5177224318133753,-1.4397500197040003,-0.7137864271747034,-1.596407715474264,-3.1425119082080286
-0.8224962393390101,-2.5177581946002405,-1.4397862593280237,-0.7137864271747034,-1.5963957945453089,-3.142571989689962
-0.8225324789630335,-2.5177462736712855,-1.439833943043844,-0.7137506643878382,-1.5963838736163538,-3.142559830342428
-0.8225324789630335,-2.5177343527423304,-1.439833943043844,-0.7137625853167933,-1.5963714758502405,-3.1425119082080286
-0.822484318410055,-2.5177343527423304,-1.4397862593280237,-0.7137506643878382,-1.5963714758502405,-3.1425119082080286
-0.8225200811969202,-2.5177343527423304,-1.439833943043844,-0.7137988249408167,-1.5963838736163538,-3.142524067555563
-0.8225324789630335,-2.5177224318133753,-1.4397624174701136,-0.7137625853167933,-1.5963714758502405,-3.142559830342428
-0.8224723974810999,-2.51771051088442,-1.4398101011859339,-0.7137864271747034,-1.5963714758502405,-3.142524067555563
-0.8225324789630335,-2.5177224318133753,-1.439833943043844,-0.7137506643878382,-1.5963838736163538,-3.142535988484518
-0.8225324789630335,-2.5177343527423304,-1.4397738615619105,-0.7137625853167933,-1.596407715474264,-3.142524067555563
-0.8225081602679651,-2.5177343527423304,-1.4397738615619105,-0.7137864271747034,-1.5963838736163538,-3.142535988484518
-0.8224962393390101,-2.5177462736712855,-1.4397738615619105,-0.7137625853167933,-1.5963476339923304,-3.142535988484518
-0.822484318410055,-2.517782513295309,-1.4397981802569788,-0.7137864271747034,-1.5963714758502405,-3.1425119082080286
-0.8224723974810999,-2.5177581946002405,-1.4398101011859339,-0.7137745062457483,-1.5963595549212855,-3.142524067555563
-0.8225324789630335,-2.5177224318133753,-1.4397981802569788,-0.7137988249408167,-1.5963595549212855,-3.142535988484518
-0.8224962393390101,-2.5177462736712855,-1.4398101011859339,-0.7137988249408167,-1.5963714758502405,-3.142524067555563
-0.8225324789630335,-2.5177224318133753,-1.4397981802569788,-0.7137864271747034,-1.5963838736163538,-3.142535988484518
-0.8225443998919886,-2.51771051088442,-1.4398101011859339,-0.7137988249408167,-1.5963957945453089,-3.142524067555563
-0.8225324789630335,-2.51771051088442,-1.4397981802569788,-0.7137745062457483,-1.5963714758502405,-3.142535988484518
-0.8225563208209437,-2.51771051088442,-1.439822022114889,-0.7137745062457483,-1.5963838736163538,-3.142535988484518
-0.8225081602679651,-2.5177224318133753,-1.4397981802569788,-0.7137864271747034,-1.5963838736163538,-3.142524067555563
-0.8225081602679651,-2.5177462736712855,-1.4397862593280237,-0.7137864271747034,-1.5963714758502405,-3.1425119082080286
-0.8225443998919886,-2.5177462736712855,-1.439833943043844,-0.7137864271747034,-1.5963838736163538,-3.142535988484518
-0.8224485556231897,-2.5177224318133753,-1.439822022114889,-0.7137625853167933,-1.5963957945453089,-3.142524067555563
-0.8225324789630335,-2.5177462736712855,-1.4397738615619105,-0.7137745062457483,-1.5963838736163538,-3.142571989689962
-0.8225324789630335,-2.5177462736712855,-1.4397981802569788,-0.7137864271747034,-1.5963838736163538,-3.1425119082080286
-0.8225081602679651,-2.51771051088442,-1.4397981802569788,-0.7137625853167933,-1.5963714758502405,-3.1425119082080286
-0.8225200811969202,-2.5177343527423304,-1.4397380987750452,-0.7137506643878382,-1.596407715474264,-3.142535988484518
-0.822484318410055,-2.5177343527423304,-1.4397981802569788,-0.7137506643878382,-1.5963838736163538,-3.142535988484518
-0.8225200811969202,-2.51771051088442,-1.4397862593280237,-0.7137745062457483,-1.5963714758502405,-3.142524067555563
-0.8225324789630335,-2.5177462736712855,-1.4397981802569788,-0.7137988249408167,-1.596407715474264,-3.142524067555563
-0.8225443998919886,-2.5177701155291956,-1.4397500197040003,-0.7137864271747034,-1.5963838736163538,-3.1425119082080286
-0.8225324789630335,-2.5177343527423304,-1.439822022114889,-0.7137988249408167,-1.596407715474264,-3.1425119082080286
-0.8225200811969202,-2.5177462736712855,-1.4397624174701136,-0.7137864271747034,-1.5963714758502405,-3.142535988484518
-0.822484318410055,-2.5177343527423304,-1.4397862593280237,-0.7137864271747034,-1.5963714758502405,-3.142535988484518
-0.8224962393390101,-2.5177701155291956,-1.4398101011859339,-0.7137864271747034,-1.5963595549212855,-3.142547909413473
-0.8224962393390101,-2.5177462736712855,-1.4397981802569788,-0.7138107458697718,-1.5963357130633753,-3.142535988484518
-0.8225081602679651,-2.5177462736712855,-1.439833943043844,-0.7137387434588831,-1.5963595549212855,-3.142559830342428
-0.8225324789630335,-2.5177581946002405,-1.439833943043844,-0.7137625853167933,-1.5963838736163538,-3.1424880663501185
-0.8225081602679651,-2.5177462736712855,-1.4397862593280237,-0.7137864271747034,-1.5963714758502405,-3.142524067555563
-0.8225443998919886,-2.5177343527423304,-1.4397738615619105,-0.7137625853167933,-1.5963595549212855,-3.142524067555563
-0.8224962393390101,-2.5177701155291956,-1.439822022114889,-0.7137988249408167,-1.5963957945453089,-3.142524067555563
-0.8225081602679651,-2.517698589955465,-1.4397862593280237,-0.7137625853167933,-1.5963714758502405,-3.142547909413473
-0.8225200811969202,-2.5177581946002405,-1.4397862593280237,-0.7137988249408167,-1.5963957945453089,-3.142559830342428
-0.8225443998919886,-2.5177581946002405,-1.4397738615619105,-0.7137745062457483,-1.5963957945453089,-3.1425839106189173
-0.8225682417498987,-2.5177462736712855,-1.4397862593280237,-0.7137506643878382,-1.5963838736163538,-3.142535988484518
-0.8225200811969202,-2.5177224318133753,-1.439822022114889,-0.7137745062457483,-1.5963838736163538,-3.142524067555563
-0.8225081602679651,-2.5177343527423304,-1.4398101011859339,-0.7137864271747034,-1.5963957945453089,-3.142524067555563
-0.8225081602679651,-2.5177581946002405,-1.4397624174701136,-0.7137864271747034,-1.5963957945453089,-3.1425119082080286
-0.8225443998919886,-2.5177224318133753,-1.4397981802569788,-0.7137506643878382,-1.5963714758502405,-3.142547909413473
-0.8225081602679651,-2.5177462736712855,-1.439822022114889,-0.7137625853167933,-1.5964315573321741,-3.1424999872790735
-0.822484318410055,-2.5177581946002405,-1.439822022114889,-0.7137625853167933,-1.5963957945453089,-3.142547909413473
-0.8225324789630335,-2.5177343527423304,-1.4397981802569788,-0.7137864271747034,-1.5963595549212855,-3.1424880663501185
-0.8225324789630335,-2.5177462736712855,-1.4397981802569788,-0.7137625853167933,-1.5963838736163538,-3.142547909413473
-0.8225200811969202,-2.5177343527423304,-1.439822022114889,-0.7137625853167933,-1.5963838736163538,-3.1424999872790735
-0.8225443998919886,-2.5177224318133753,-1.439833943043844,-0.7137625853167933,-1.5963714758502405,-3.142547909413473
-0.8225200811969202,-2.5177462736712855,-1.4397981802569788,-0.7137625853167933,-1.5963595549212855,-3.142547909413473
-0.8225324789630335,-2.5177462736712855,-1.4398101011859339,-0.7137864271747034,-1.5963714758502405,-3.1425119082080286
-0.8225200811969202,-2.5177581946002405,-1.4398101011859339,-0.7137864271747034,-1.5963957945453089,-3.1425839106189173
-0.8225443998919886,-2.5177224318133753,-1.439822022114889,-0.7137506643878382,-1.5963476339923304,-3.142535988484518
-0.8224723974810999,-2.5177224318133753,-1.439833943043844,-0.7137745062457483,-1.596419636403219,-3.142559830342428
-0.822484318410055,-2.5177224318133753,-1.439833943043844,-0.7137988249408167,-1.5963957945453089,-3.142547909413473
-0.8224962393390101,-2.5177343527423304,-1.4398101011859339,-0.7137745062457483,-1.5963838736163538,-3.1424880663501185
-0.8225200811969202,-2.5177581946002405,-1.4397862593280237,-0.7137625853167933,-1.5963595549212855,-3.142535988484518
-0.8225200811969202,-2.5177224318133753,-1.4397981802569788,-0.7137745062457483,-1.596419636403219,-3.142524067555563
-0.8225200811969202,-2.5177224318133753,-1.4398101011859339,-0.7137625853167933,-1.596407715474264,-3.1425119082080286
-0.822484318410055,-2.5177581946002405,-1.4397981802569788,-0.7138107458697718,-1.5963838736163538,-3.142535988484518
-0.822484318410055,-2.5177462736712855,-1.4397981802569788,-0.7137506643878382,-1.5964315573321741,-3.142535988484518
-0.8225200811969202,-2.5177343527423304,-1.4397624174701136,-0.7137864271747034,-1.5963838736163538,-3.142524067555563
-0.8225443998919886,-2.5177462736712855,-1.4397738615619105,-0.7137864271747034,-1.5963957945453089,-3.142535988484518
-0.8225324789630335,-2.5177343527423304,-1.4398101011859339,-0.7137864271747034,-1.5963714758502405,-3.142547909413473
-0.8225324789630335,-2.5177343527423304,-1.4397862593280237,-0.7137625853167933,-1.5963957945453089,-3.142535988484518
-0.8225200811969202,-2.5177701155291956,-1.439822022114889,-0.7137864271747034,-1.5963714758502405,-3.1424880663501185
-0.8225324789630335,-2.5177581946002405,-1.4397862593280237,-0.7137625853167933,-1.5963595549212855,-3.142524067555563
-0.8225200811969202,-2.5177343527423304,-1.439822022114889,-0.7137506643878382,-1.5963714758502405,-3.142524067555563
-0.8225200811969202,-2.5177224318133753,-1.439833943043844,-0.7137864271747034,-1.596407715474264,-3.1425839106189173
-0.8225443998919886,-2.5177224318133753,-1.439833943043844,-0.7137745062457483,-1.5963595549212855,-3.142559830342428
-0.8225324789630335,-2.5177343527423304,-1.4398101011859339,-0.7137625853167933,-1.5963595549212855,-3.142571989689962
-0.8225081602679651,-2.5177462736712855,-1.4397862593280237,-0.7137864271747034,-1.5963838736163538,-3.142524067555563
-0.8225324789630335,-2.5177343527423304,-1.4398101011859339,-0.7137625853167933,-1.5963957945453089,-3.142535988484518
-0.8225324789630335,-2.51771051088442,-1.439833943043844,-0.7137864271747034,-1.5963838736163538,-3.142571989689962
-0.8225081602679651,-2.5177581946002405,-1.4398101011859339,-0.7137745062457483,-1.5963595549212855,-3.1425119082080286
-0.8225443998919886,-2.5177462736712855,-1.4397862593280237,-0.7137988249408167,-1.5963595549212855,-3.1425119082080286
-0.8224723974810999,-2.5177224318133753,-1.4397738615619105,-0.7137864271747034,-1.5963957945453089,-3.142524067555563
-0.8225200811969202,-2.5177224318133753,-1.4397624174701136,-0.7137387434588831,-1.596407715474264,-3.142535988484518
-0.822484318410055,-2.51771051088442,-1.4397981802569788,-0.7137625853167933,-1.596407715474264,-3.142559830342428
-0.8224604765521448,-2.5177224318133753,-1.4397738615619105,-0.7137864271747034,-1.5963838736163538,-3.1426077524768274
-0.8224361578570765,-2.5177462736712855,-1.4398101011859339,-0.7137625853167933,-1.5963957945453089,-3.142667833958761
-0.8222926298724573,-2.5177343527423304,-1.4398101011859339,-0.7137625853167933,-1.5963957945453089,-3.142775599156515
-0.8221605459796351,-2.51771051088442,-1.4398101011859339,-0.7137625853167933,-1.5963838736163538,-3.1429069677936
-0.8220408598529261,-2.517698589955465,-1.4399297873126429,-0.713726822529928,-1.5963957945453089,-3.1429906527148646
-0.8218849341021937,-2.51771051088442,-1.4399898687945765,-0.7136905829059046,-1.5964315573321741,-3.1431942621814173
-0.8215139547931116,-2.517686192189352,-1.4400618712054651,-0.7136667410479944,-1.5964797178851526,-3.1435893217669886
-0.8212383429156702,-2.5176504294024866,-1.4400981108294886,-0.7136548201190394,-1.5964797178851526,-3.143745247517721
-0.8210466543780726,-2.5176385084735315,-1.4401457945453089,-0.7136428991900843,-1.5964916388141077,-3.1439605394946497
-0.8207348028766077,-2.5176146666156214,-1.4401701132403772,-0.7136548201190394,-1.5965035597430628,-3.144212309514181
-0.8201115767108362,-2.517566506062643,-1.4403017202960413,-0.7136667410479944,-1.5965874830829065,-3.1448829809771937
-0.8197763601886194,-2.5175188223468226,-1.44037372270693,-0.7136190573321741,-1.5965636412249964,-3.14526611963381
-0.8194049040423792,-2.517494503651754,-1.4404099623309534,-0.7135947386371058,-1.5965994040118616,-3.1455894152270716
-0.8191049734698694,-2.517446819935934,-1.4404338041888636,-0.7135589758502405,-1.5965755621539515,-3.145972792302267
-0.818362061177389,-2.5174229780780237,-1.4405658880816858,-0.7135232130633753,-1.5966232458697718,-3.1467750708209437
-0.8178947607623499,-2.517374817525045,-1.4406498114215296,-0.7135351339923304,-1.5966594854937952,-3.147158447896139
-0.8174994627581995,-2.5174105803119105,-1.4407342115985315,-0.713510815297262,-1.5967071692096155,-3.147541586552755
-0.8170560042010706,-2.51736289659609,-1.4407461325274866,-0.7135470549212855,-1.5966952482806605,-3.147972647343771
-0.8162172476397913,-2.5172670523272913,-1.440902058278219,-0.7134149710284632,-1.596755329762594,-3.1487272421466272
-0.815737549458639,-2.517230812703268,-1.441009823475973,-0.7134030500995081,-1.5967672506915491,-3.149158302937643
-0.8153064886676233,-2.5171831289874476,-1.441033665333883,-0.7134268919574183,-1.5967791716205042,-3.149553362523214
-0.8148749510394495,-2.5171473662005823,-1.4411175886737269,-0.7134149710284632,-1.5967429319964808,-3.14998442331423
-0.8139641920672815,-2.5170872847186487,-1.4412015120135706,-0.7133429686175745,-1.5968511740313929,-3.1508830229388636
-0.8135212103473108,-2.5170634428607386,-1.4413335959063929,-0.7133310476886194,-1.596863094960348,-3.1513260046588343
-0.8131254355060022,-2.5170510450946253,-1.441369358693258,-0.7133429686175745,-1.596875015889303,-3.151673142110006
-0.8126099745379847,-2.517003361378805,-1.44145375887026,-0.7132952849017542,-1.5968988577472132,-3.1521881262408655
-0.8117955366717737,-2.5169199148761194,-1.4415977636920374,-0.713271443043844,-1.5969226996051233,-3.153098169957296
-0.8112919966327112,-2.516871754323141,-1.441669766102926,-0.713198486958639,-1.5969589392291468,-3.1535890738116663
-0.8108485380755823,-2.5167997519122522,-1.4417179266559046,-0.713198486958639,-1.5969470183001917,-3.154008213673727
-0.8104174772845667,-2.516752068196432,-1.4418495337115687,-0.713210407887594,-1.5969708601581019,-3.1544511953936976
-0.8094585577594202,-2.5166800657855433,-1.4420293013202112,-0.7131508032428187,-1.5970309416400355,-3.1553612391101282
-0.8090155760394495,-2.516668144856588,-1.4420655409442347,-0.7131150404559534,-1.5970786253558558,-3.1558287779437464
-0.8085001150714319,-2.5166080633746546,-1.4421370665179651,-0.7130430380450647,-1.5970428625689905,-3.1563196817981165
-0.8080685774432581,-2.5165723005877894,-1.4422333876239222,-0.7130668799029749,-1.5970786253558558,-3.156762663518087
-0.8070023695575159,-2.5164764563189905,-1.4423897902118128,-0.7129710356341761,-1.5971387068377894,-3.157792631779806
-0.8065107504474085,-2.516392532979147,-1.4425213972674769,-0.7129347960101526,-1.597198788319723,-3.1582475344287317
-0.805971924458639,-2.5163567701922815,-1.4425933996783655,-0.7129347960101526,-1.597198788319723,-3.1587746779071253
-0.8054440657245081,-2.5163443724261683,-1.4426291624652308,-0.7128751913653772,-1.597222630177633,-3.159313503895895
-0.8043778578387659,-2.516200844441549,-1.4428332487689417,-0.7128270308123987,-1.5972946325885218,-3.1603553930865687
-0.8038385550128382,-2.516188923512594,-1.4429171721087855,-0.7127674261676233,-1.5973542372332972,-3.1609182993518274
-0.8032878080951136,-2.516080681477682,-1.4430254141436976,-0.7128151098834437,-1.597330395375387,-3.161457125340597
-0.8026765028582972,-2.516068760548727,-1.4431098143206995,-0.7127192656146448,-1.5973904768573206,-3.1620081106769007
-0.801513973866598,-2.515937153493063,-1.4433134237872522,-0.7126472632037562,-1.597450081502096,-3.163109842930929
-0.8009269873248499,-2.5159013907061976,-1.443409268056051,-0.7126115004168909,-1.597450081502096,-3.163696829472677
-0.8003276030169886,-2.515829388295309,-1.4434931913958948,-0.7125633398639124,-1.5974982420550745,-3.164295498524801
-0.7997286955462855,-2.5157931486712855,-1.4435895125018519,-0.7125275770770472,-1.5976298491107386,-3.164774243031637
-0.7984827200519007,-2.5156734625445765,-1.4437812010394495,-0.7125394980060022,-1.597678009663717,-3.1661277453051966
-0.7978470961200159,-2.515625301991598,-1.4439252058612269,-0.7124555746661585,-1.5976899305926722,-3.166762177144186
-0.7971404234515589,-2.5155537764178675,-1.4440215269671839,-0.7124198118792933,-1.5977137724505823,-3.1674328486071985
-0.7964690367328089,-2.5154579321490687,-1.4440692106830042,-0.7123716513263147,-1.5978458563434046,-3.1681035200702112
-0.7950909773456019,-2.5153496901141565,-1.4443329016314905,-0.7123239676104944,-1.59790546098818,-3.169480864201681
-0.7943723837481897,-2.5152538458453577,-1.4444769064532679,-0.7122638861285608,-1.5979297796832483,-3.170175377522604
-0.7936175505267542,-2.5151823202716272,-1.4445613066302698,-0.7122638861285608,-1.5979178587542933,-3.1709418932544153
-0.7928264776812952,-2.515169922505514,-1.4447405974017542,-0.7122281233416956,-1.5979893843280237,-3.1716962496386927
-0.7912805716144007,-2.5149787108050745,-1.4449570814715784,-0.7120960394488733,-1.5980852285968226,-3.1733010450946253
-0.7904060522662562,-2.5148947874652308,-1.4450891653644007,-0.7120841185199183,-1.59825307527651,-3.1741753260241907
-0.789591137562887,-2.514810864125387,-1.4452570120440882,-0.7120602766620081,-1.598241154347555,-3.1749895254718226
-0.7887166182147425,-2.5147512594806116,-1.4454005400287073,-0.711952034627096,-1.5983012358294886,-3.175875965748922
-0.7868111769305628,-2.514535729085104,-1.4456284681903284,-0.711952034627096,-1.5984328428851526,-3.1776602903949183
-0.7859004179583948,-2.51447564760317,-1.4458211104022425,-0.7118681112872522,-1.5985048452960413,-3.1785462538348597
-0.7849414984332483,-2.5143678824054163,-1.4459527174579065,-0.7117722670184534,-1.5986488501178187,-3.1795042196856897
-0.7839830557452601,-2.514332119618551,-1.446120564137594,-0.7117841879474085,-1.5986126104937952,-3.1804502646075647
-0.7820056120501917,-2.5141404310809534,-1.4464686552630823,-0.7116044203387659,-1.5988286177264612,-3.1824145952807825
-0.7809513250934046,-2.51408034959902,-1.44666034380068,-0.7115924994098108,-1.5988166967975062,-3.183396641408102
-0.7799809614764612,-2.514008347188131,-1.4467805067645472,-0.7114728132831019,-1.5988529364215296,-3.184462372456686
-0.7789862791644495,-2.513864819203512,-1.446972672139303,-0.7114008108722132,-1.5989964644061487,-3.1854682604419153
-0.7769253889666956,-2.5137327353106897,-1.4473207632647913,-0.7112329641925257,-1.5990803877459925,-3.187563959752218
-0.7758587042437952,-2.513624970112936,-1.4474404493915003,-0.7112925688373011,-1.5991881529437464,-3.1886537710772913
-0.7748163382159632,-2.513505283986227,-1.4476683775531214,-0.7112448851214808,-1.5991523901568812,-3.1897197405444544
-0.7737620512591761,-2.5134809652911585,-1.4477999846087855,-0.7110884825335901,-1.5992243925677698,-3.190749708806173
-0.771580998097555,-2.5132415930377405,-1.448160473500387,-0.7110407988177698,-1.5992963949786585,-3.1929052511798304
-0.7704909483539026,-2.513181511555807,-1.4483283201800745,-0.7109687964068812,-1.5994518438922327,-3.194019142781393
-0.7694242636310022,-2.5131095091449183,-1.448496166859762,-0.7110045591937464,-1.5994041601764124,-3.195084873829977
-0.7683699766742151,-2.5130375067340296,-1.448700253163473,-0.7108371893512171,-1.5995720068561,-3.1961386839496058
-0.7662246862994593,-2.512869660054342,-1.4490364233600062,-0.7108128706561487,-1.599703613911764,-3.1982584635363978
-0.7650983969317835,-2.512738052998678,-1.4492281118976038,-0.7107046286212366,-1.5996678511248987,-3.1993120352374476
-0.7639120260821741,-2.5126903692828577,-1.4493840376483362,-0.710728947316305,-1.5998833815204065,-3.200401846562521
-0.7627618948565882,-2.5125821272479456,-1.4495518843280237,-0.7105611006366175,-1.5998595396624964,-3.20147949854006
-0.7604854742633265,-2.5123794714557093,-1.4499600569354456,-0.7105010191546839,-1.6000273863421839,-3.2036951223956507
-0.7593229452716272,-2.512271229420797,-1.4501760641681116,-0.710512940083639,-1.5999553839312952,-3.204797093068258
-0.7582324186908167,-2.5121753851519983,-1.4503796736346644,-0.7104290167437952,-1.6000750700580042,-3.205958668385641
-0.7570703665362757,-2.5120914618121546,-1.450571362172262,-0.7102854887591761,-1.6000750700580042,-3.2070604006396692
-0.7546857039081019,-2.511899773274557,-1.4509437719928187,-0.7101414839373987,-1.6002910772906702,-3.2093480269061487
-0.7535231749164026,-2.5118282477008265,-1.4511597792254847,-0.7103093306170862,-1.6001232306109827,-3.2105935255633753
-0.7523253599749964,-2.511696163808004,-1.4513514677630823,-0.7100938002215784,-1.6003387610064905,-3.211719338093893
-0.7510908285724085,-2.5116360823260706,-1.451531712208883,-0.7100694815265101,-1.6003745237933558,-3.212904755269186
-0.7486704031573694,-2.5113847891436976,-1.45195180574526,-0.7098658720599573,-1.6004226843463343,-3.2152400652514856
-0.7474005858050745,-2.5112527052508753,-1.452179257069723,-0.7100337187396448,-1.6004708448993128,-3.216449801121847
-0.7461660544024866,-2.5111330191241663,-1.4523232618915003,-0.7096980253802698,-1.6004827658282679,-3.2176833788501185
-0.7449081579791468,-2.5110252539264124,-1.4525635878192347,-0.7098420302020472,-1.6006506125079554,-3.218844715748922
-0.7423680464373987,-2.510761562977926,-1.4529593626605433,-0.7097099463092249,-1.6006744543658655,-3.2213359514819544
-0.7410858313189905,-2.510629479085104,-1.4532230536090296,-0.7094462553607386,-1.6008179823504847,-3.222605291997091
-0.7397316137896937,-2.510533634816305,-1.4534509817706507,-0.7094700972186487,-1.600734059010641,-3.223910633717672
-0.7384255568133753,-2.510413948689596,-1.4536669890033167,-0.709266487752096,-1.6009858290301722,-3.2252638975726526
-0.7357175985919397,-2.510174576436178,-1.4541352430926722,-0.7092064062701624,-1.6011417547809046,-3.2278273741351526
-0.7343996206866663,-2.510042969380514,-1.454339329396383,-0.7090385595904749,-1.6011298338519495,-3.229180399571554
-0.7330215612994593,-2.509934727345602,-1.4545310179339808,-0.70905048051943,-1.6013215223895472,-3.2305458227740687
-0.7317393461810511,-2.509826962147848,-1.454782787953512,-0.7089784781085413,-1.6013453642474573,-3.23189884821047
-0.7290075461017054,-2.50958758989443,-1.4552272001849573,-0.7088826338397425,-1.6015613714801233,-3.234593454991476
-0.727701489125387,-2.509444061909811,-1.45543080965151,-0.7087028662310999,-1.6016810576068323,-3.2359469572650355
-0.7263596693622034,-2.5093959013568323,-1.4556463400470179,-0.7087748686419886,-1.601753060017721,-3.2372880617724817
-0.7250531355487269,-2.509228054677145,-1.4558990637408655,-0.7085707823382776,-1.6019333044635218,-3.238581720982687
-0.7224410215960901,-2.509012524281637,-1.4563067595111292,-0.7084153334247034,-1.602088753377096,-3.2411204020129603
-0.7210992018329065,-2.5088446776019495,-1.456522289906637,-0.7085707823382776,-1.6020649115191858,-3.2424379030810755
-0.7198408285724085,-2.5087488333331507,-1.4567626158343714,-0.708294693623678,-1.602292839680807,-3.243707243596212
-0.7185471693622034,-2.5086291472064417,-1.4569905439959925,-0.7084272543536585,-1.602304760609762,-3.2449167410479944
-0.7160308996783655,-2.508437458668844,-1.4573982397662562,-0.7083066145526331,-1.6024602095233362,-3.2474079767810267
-0.7147849241839808,-2.508329216633932,-1.457590405141012,-0.708043400441305,-1.602532211934225,-3.2485933939563196
-0.713538948689596,-2.508197609578268,-1.4577701727496546,-0.708175007496969,-1.6026881376849573,-3.249838892613546
-0.7123168150531214,-2.508101765309469,-1.458010498677389,-0.7079232374774378,-1.6026399771319788,-3.251120630894796
-0.7098363081561487,-2.5079100767718714,-1.4584062735186976,-0.707827393208639,-1.602879826222555,-3.2535515467273157
-0.7086618582354944,-2.507754627858297,-1.45856219926943,-0.707839314137594,-1.603011433278219,-3.2548094431506556
-0.7073681990252894,-2.5076468626605433,-1.458766285573141,-0.7077797094928187,-1.6030238310443323,-3.256031099949972
-0.7061694304095667,-2.507526699696676,-1.4589341322528284,-0.7075637022601526,-1.6031554380999964,-3.2572527567492884
-0.7037609259234827,-2.5073350111590784,-1.4593423048602503,-0.7075040976153772,-1.6033709684955042,-3.259575668965475
-0.7025750319110315,-2.5072630087481897,-1.459545914326803,-0.7073600927935999,-1.6032393614398401,-3.260761562977926
-0.7013047377215784,-2.507179085408346,-1.4597380797015589,-0.707372013722555,-1.6034792105304163,-3.261947218571798
-0.7000950018512171,-2.507059399281637,-1.459893528615133,-0.7072404066668909,-1.6035149733172815,-3.2631447950946253
-0.6976984182940882,-2.5068681875811976,-1.4603255430804651,-0.7071564833270472,-1.6037305037127894,-3.265491787587301
-0.6964767614947718,-2.5067604223834437,-1.4604819456683558,-0.70703632036318,-1.6036227385150355,-3.266677443181173
-0.6953023115741175,-2.5066521803485315,-1.46063739458193,-0.7070601622210901,-1.6037305037127894,-3.2678633371936243
-0.6940682570086878,-2.506580654774801,-1.4608662764178675,-0.7069523970233362,-1.6038387457477015,-3.2690728346454065
-0.6917074362384241,-2.506364647542135,-1.4612258116351526,-0.7068799177752894,-1.6039345900165003,-3.2714319864856165
-0.6905329863177698,-2.5063169638263147,-1.4614775816546839,-0.7067959944354456,-1.6039345900165003,-3.2726057211505335
-0.6893709341632288,-2.5061968008624476,-1.4616459051715296,-0.7066763083087366,-1.6039465109454554,-3.2737553755389612
-0.6881731192218226,-2.506124798451559,-1.4618733564959925,-0.7066763083087366,-1.6041024366961878,-3.2749415079699915
-0.6858366171466272,-2.505873505269186,-1.462245289479391,-0.706604305897848,-1.6041143576251429,-3.277133051549093
-0.6846979300128382,-2.5058258215533655,-1.4624012152301233,-0.7065685431109827,-1.6042822043048304,-3.2782588640796106
-0.6835716406451624,-2.5057299772845667,-1.4625814596759241,-0.7064126173602503,-1.6042221228228968,-3.2793365160571497
-0.682469669972555,-2.5055978933917444,-1.4627493063556116,-0.706484619771139,-1.6043418089496058,-3.2804744879352015
-0.6802890936480921,-2.5054662863360804,-1.4631570021258753,-0.7062929312335413,-1.6043060461627405,-3.2826061884509485
-0.6791508833514612,-2.505334202443258,-1.463313404713766,-0.7063048521624964,-1.6045096556292933,-3.2836599985705774
-0.6780965963946741,-2.505286518727438,-1.4635289351092737,-0.7061970869647425,-1.604473892842428,-3.2847378889666956
-0.6770413557635706,-2.505166832600729,-1.463649098073141,-0.7060888449298304,-1.6045454184161585,-3.285719696675436
-0.6748974959002894,-2.504975144063131,-1.4640329519854944,-0.7059090773211878,-1.604593578969137,-3.287839714680807
-0.6738546530352991,-2.5049269835101526,-1.4641526381122034,-0.7059209982501429,-1.6047733465777796,-3.28890568414797
-0.6728842894183558,-2.5047953764544886,-1.4643572012530726,-0.705825153981344,-1.6047971884356897,-3.2898276487933558
-0.6718414465533655,-2.50474721590151,-1.4645488897906702,-0.7056692282306116,-1.6047971884356897,-3.290881935750143
-0.6698887983905237,-2.5045555273639124,-1.4648245016681116,-0.7055614630328577,-1.6049049536334437,-3.2928219477282923
-0.668894116078512,-2.504507366810934,-1.4650166670428675,-0.705477539693014,-1.6051691214190882,-3.293827835713522
-0.6679595152484339,-2.504411522542135,-1.4651969114886683,-0.7055013815509241,-1.6050131956683558,-3.2947378794299524
-0.6670854727374476,-2.5043156782733362,-1.4653285185443323,-0.705357853566305,-1.605276886616842,-3.295636240636007
-0.6652639547931116,-2.504124466572897,-1.4655926863299769,-0.7053697744952601,-1.6053851286517542,-3.2974804083453577
-0.6643651167498987,-2.504040543233053,-1.4657605330096644,-0.7052496115313929,-1.6054089705096644,-3.298307005559103
-0.6635502020465296,-2.503944698964254,-1.4658687750445765,-0.7052739302264612,-1.6054328123675745,-3.299181048070089
-0.66266376176943,-2.5038965384112757,-1.4660728613482874,-0.7052257696734827,-1.6056607405291956,-3.3000438849078577
-0.660926644002096,-2.5037768522845667,-1.4663246313678187,-0.7051900068866175,-1.6057923475848597,-3.3016966024981897
-0.6601241270648401,-2.5037172476397913,-1.4664681593524378,-0.7051656881915491,-1.6057565847979944,-3.302546803151266
-0.6592729727374476,-2.5036333242999476,-1.4666484037982386,-0.7051180044757288,-1.6058161894427698,-3.3033252398120325
-0.6584222952472132,-2.503573719655172,-1.4667566458331507,-0.7049739996539515,-1.6059601942645472,-3.3041513601886194
-0.6568048636065882,-2.503345791493551,-1.467032257710592,-0.7049739996539515,-1.6061161200152796,-3.305732313786642
-0.6560023466693323,-2.503345791493551,-1.4671161810504358,-0.7048304716693323,-1.6060078779803675,-3.3065229097949427
-0.6552589575396937,-2.503214184437887,-1.4672601858722132,-0.7048781553851526,-1.6061518828021448,-3.30730110803713
-0.6544683615313929,-2.5031660238849085,-1.4674041906939905,-0.7048423925982874,-1.6061399618731897,-3.3080557028399866
-0.6529586950885218,-2.5030821005450647,-1.4677041212665003,-0.7047579924212855,-1.6063197294818323,-3.309612814580099
-0.6522277037249964,-2.502998177205221,-1.4678004423724573,-0.7046855131732386,-1.6062596479998987,-3.310343567525045
-0.6514609495746058,-2.5029385725604456,-1.467884365712301,-0.7045777479754847,-1.606403652821676,-3.3110857645617884
-0.6507065931903284,-2.502854649220602,-1.4680522123919886,-0.704590145741598,-1.6063435713397425,-3.3119004408465784
-0.6492446104632776,-2.5027464071856897,-1.4682677427874964,-0.7044699827777308,-1.6064875761615198,-3.313301388417379
-0.6485737005816858,-2.5026868025409144,-1.4683883825885218,-0.7044938246356409,-1.6064637343036097,-3.313984219227926
-0.6479147116290491,-2.502650562916891,-1.468520466481344,-0.7044461409198206,-1.6066554228412073,-3.314678970967428
-0.6472433249102991,-2.5026267210589808,-1.4686039129840296,-0.7043383757220667,-1.6065471808062952,-3.315289560948507
-0.6459854284869593,-2.502518955861227,-1.4688075224505823,-0.7042306105243128,-1.6065953413592737,-3.316594902669088
-0.6453388373004358,-2.5024588743792933,-1.4689281622516077,-0.7043140570269983,-1.6066792646991175,-3.3171218077289026
-0.6448114554034632,-2.502446953450338,-1.4690359274493616,-0.7043021360980433,-1.6067512671100062,-3.317756477986471
-0.6442721525775355,-2.5023868719684046,-1.4691556135760706,-0.7040866057025355,-1.6066792646991175,-3.3182719389544886
-0.6431940237628382,-2.5023511091815394,-1.4693477789508265,-0.7039545218097132,-1.6067269484149378,-3.319373671208517
-0.6427391211139124,-2.5022791067706507,-1.46940786043276,-0.7041586081134241,-1.6068108717547815,-3.319864575062887
-0.6421874205218714,-2.5022195021258753,-1.4695161024676722,-0.7040026823626917,-1.606847111378805,-3.3202956358539026
-0.6416843573199671,-2.502195183430807,-1.469623867665426,-0.7039664427386683,-1.6067751089679163,-3.320775095616476
-0.640749756489889,-2.5021231810199183,-1.469719711934225,-0.7038586775409144,-1.6068947950946253,-3.3216970602618616
-0.6403186956988733,-2.502111260090963,-1.469743553792135,-0.704050366078512,-1.6069310347186487,-3.322104279194967
-0.6398275534259241,-2.502063576375143,-1.4698393980609339,-0.7038229147540491,-1.6070149580584925,-3.322583262120382
-0.6394079367267054,-2.5020273367511194,-1.4699471632586878,-0.7038829962359827,-1.6068709532367151,-3.3230860869037073
-0.6385090986834925,-2.5020273367511194,-1.470055882130758,-0.7037628332721155,-1.6070149580584925,-3.3238049189196985
-0.6381257216082972,-2.5019314924823206,-1.470163647328512,-0.703918759022848,-1.6069429556476038,-3.3242479006396692
-0.6376226584063929,-2.501955811177389,-1.4702118078814905,-0.7036789099322718,-1.6071465651141565,-3.324702803288595
-0.637179199849264,-2.5018957296954554,-1.470259968434469,-0.7038829962359827,-1.6070507208453577,-3.3250981012927454
-0.6363642851458948,-2.50185996690859,-1.4704034964190882,-0.7036789099322718,-1.6071584860431116,-3.325960938130514
-0.6359089056598108,-2.5017998854266565,-1.4704516569720667,-0.7038949171649378,-1.6070507208453577,-3.326451841984884
-0.6355379263507288,-2.501751724873678,-1.4705475012408655,-0.703583065663473,-1.6071704069720667,-3.326810900365011
-0.6351302305804651,-2.5016921202289026,-1.4705713430987757,-0.7037747542010706,-1.6072662512408655,-3.3271945158587855
-0.6342681089984339,-2.501608673726217,-1.4707158247577112,-0.7035592238055628,-1.6072185675250452,-3.3280206362353724
-0.6338608900653284,-2.5015724341021937,-1.4707754294024866,-0.7037628332721155,-1.6073382536517542,-3.3284037748919886
-0.6334770361529749,-2.5015128294574183,-1.4708355108844202,-0.7035353819476526,-1.6072066465960901,-3.3288591543780726
-0.6331055800067347,-2.501476589833395,-1.4709075132953089,-0.7036312262164515,-1.6073744932757776,-3.3292303721057337
-0.6322549025165003,-2.501368824635641,-1.4710634390460413,-0.703475300465719,-1.6072905699359339,-3.3300564924823206
-0.6318600813495081,-2.501357380543844,-1.4710992018329065,-0.7036431471454065,-1.6074584166156214,-3.3303800264941614
-0.6314643065081995,-2.5013330618487757,-1.471147362385885,-0.7034152189837855,-1.6073501745807093,-3.3307631651507776
-0.6310566107379358,-2.501249138508932,-1.471243683491842,-0.7035473028766077,-1.6073620955096644,-3.3310983816729944
-0.6303136984454554,-2.5012853781329554,-1.471339527760641,-0.7033312956439417,-1.6074703375445765,-3.3319249788867396
-0.6299427191363733,-2.5011776129352015,-1.4713996092425745,-0.703594986592428,-1.607446018849508,-3.3322840372668665
-0.629547421132223,-2.501129452382223,-1.4714835325824183,-0.7034390608416956,-1.607638184224264,-3.3326435724841517
-0.6292598883258265,-2.501129452382223,-1.4715073744403284,-0.7034152189837855,-1.6075061003314417,-3.3330026308642786
-0.6285651365863245,-2.5010574499713343,-1.4716032187091272,-0.703247372304098,-1.6077097097979944,-3.333733860646383
-0.6282652060138147,-2.501033608113424,-1.4716509024249476,-0.7034629026996058,-1.6075299421893519,-3.3340209166156214
-0.6280253569232386,-2.501033608113424,-1.471675221120016,-0.7033432165728968,-1.6076620260821741,-3.3342486063586634
-0.6276782194720667,-2.500997845326559,-1.4717229048358362,-0.703259293233053,-1.6076620260821741,-3.3345359007464808
-0.627138916646139,-2.5009735266314905,-1.4718197027789515,-0.7031992117511194,-1.6077340284930628,-3.335014883671896
-0.6269233862506312,-2.50092584291567,-1.4718077818499964,-0.703378979359762,-1.607650105153219,-3.3353145758258265
-0.6267197767840784,-2.500913921986715,-1.4718554655658167,-0.7032712141620081,-1.6076620260821741,-3.335493866597311
-0.6265042463885706,-2.5008419195758265,-1.4718793074237269,-0.7031515280352991,-1.6078298727618616,-3.3356617132769983
-0.626108471547262,-2.5008538405047815,-1.4719756285296839,-0.7030556837665003,-1.607769791279928,-3.3359974066363733
-0.6258934179889124,-2.5008180777179163,-1.471999470387594,-0.7033193747149866,-1.607757870350973,-3.336200539265768
-0.6257613340960901,-2.500793759022848,-1.4720471541034144,-0.703139607106344,-1.6076739470111292,-3.336332384740011
-0.6256535688983362,-2.500793759022848,-1.4720233122455042,-0.7030676046954554,-1.6078656355487269,-3.336547915135519
-0.6254132429706019,-2.5007579962359827,-1.4720709959613245,-0.7029956022845667,-1.607769791279928,-3.3368473688708704
-0.625317398701803,-2.500697914754049,-1.4720709959613245,-0.7031992117511194,-1.607877556477682,-3.3368714491473597
-0.625185791646139,-2.500709835683004,-1.4720833937274378,-0.7031272093402308,-1.6076858679400843,-3.3369553724872034
-0.6251137892352503,-2.5007341543780726,-1.4720833937274378,-0.7030313650714319,-1.6078417936908167,-3.3370986620532435
-0.6250184218036097,-2.5007222334491175,-1.4720709959613245,-0.7029956022845667,-1.607757870350973,-3.3370986620532435
-0.6250065008746546,-2.500697914754049,-1.472119156514303,-0.7031872908221644,-1.6079257170306605,-3.3371227423297327
-0.6249945799456995,-2.5007222334491175,-1.472107235585348,-0.7031272093402308,-1.607769791279928,-3.3371227423297327
-0.6250184218036097,-2.500709835683004,-1.4721429983722132,-0.7031515280352991,-1.6079376379596155,-3.337039057408468
-0.62506610551943,-2.5007341543780726,-1.472131077443258,-0.703139607106344,-1.6079137961017054,-3.3370867411242884
-0.62506610551943,-2.500709835683004,-1.472119156514303,-0.7031152884112757,-1.607901398335592,-3.3370867411242884
-0.6250899473773401,-2.5007222334491175,-1.4721429983722132,-0.7031634489642542,-1.607889477406637,-3.3370512167560022
-0.62506610551943,-2.500674072896139,-1.472107235585348,-0.7031515280352991,-1.607901398335592,-3.3370512167560022
-0.6250184218036097,-2.500709835683004,-1.4720953146563929,-0.7031515280352991,-1.607877556477682,-3.3370748201953333
-0.6250541845904749,-2.5007222334491175,-1.472107235585348,-0.7031634489642542,-1.607901398335592,-3.3370512167560022
-0.6250184218036097,-2.5007579962359827,-1.4721549193011683,-0.7031753698932093,-1.6079137961017054,-3.337039057408468
-0.6250422636615198,-2.500697914754049,-1.472131077443258,-0.703139607106344,-1.607901398335592,-3.337027136479513
-0.6250541845904749,-2.500685993825094,-1.472107235585348,-0.703139607106344,-1.6079376379596155,-3.3370867411242884
-0.6250541845904749,-2.5007222334491175,-1.4721549193011683,-0.7031753698932093,-1.607901398335592,-3.3370631376849573
-0.6250303427325647,-2.5007341543780726,-1.472107235585348,-0.7031152884112757,-1.607901398335592,-3.3370867411242884
-0.6250785032855433,-2.500709835683004,-1.472107235585348,-0.7031515280352991,-1.607901398335592,-3.3370867411242884
-0.6250541845904749,-2.500685993825094,-1.472107235585348,-0.7031753698932093,-1.6078656355487269,-3.337039057408468
-0.6250541845904749,-2.500685993825094,-1.472131077443258,-0.703139607106344,-1.607889477406637,-3.337015215550558
-0.6250303427325647,-2.500697914754049,-1.472107235585348,-0.7031634489642542,-1.6079376379596155,-3.3370867411242884
-0.6250422636615198,-2.500674072896139,-1.4720953146563929,-0.7031033674823206,-1.6079257170306605,-3.3370986620532435
-0.62506610551943,-2.500709835683004,-1.472131077443258,-0.7031515280352991,-1.607901398335592,-3.3370867411242884
-0.6250422636615198,-2.500709835683004,-1.4721673170672815,-0.7031515280352991,-1.6079137961017054,-3.3370867411242884
-0.62506610551943,-2.500685993825094,-1.4721911589251917,-0.7031634489642542,-1.6078656355487269,-3.3370748201953333
-0.6250422636615198,-2.5007341543780726,-1.4721792379962366,-0.703139607106344,-1.607889477406637,-3.3370748201953333
-0.62506610551943,-2.500697914754049,-1.4722030798541468,-0.7031634489642542,-1.607877556477682,-3.337039057408468
-0.6250899473773401,-2.500662151967184,-1.4721549193011683,-0.703139607106344,-1.6079376379596155,-3.3370867411242884
-0.6250422636615198,-2.500674072896139,-1.4722150007831019,-0.7031634489642542,-1.6079257170306605,-3.3370748201953333
-0.6250899473773401,-2.500685993825094,-1.4721792379962366,-0.7031634489642542,-1.607877556477682,-3.3370512167560022
-0.6250541845904749,-2.500674072896139,-1.4721792379962366,-0.703139607106344,-1.607889477406637,-3.3370748201953333
-0.62506610551943,-2.500709835683004,-1.4722030798541468,-0.7031515280352991,-1.6079495588885706,-3.3370748201953333
-0.6250184218036097,-2.500697914754049,-1.4721549193011683,-0.7031033674823206,-1.6079137961017054,-3.3370512167560022
-0.62506610551943,-2.500709835683004,-1.4721549193011683,-0.7031272093402308,-1.607901398335592,-3.3369792143451136
-0.6251738707171839,-2.5007222334491175,-1.4721429983722132,-0.7031634489642542,-1.6079137961017054,-3.3369792143451136
-0.625197712575094,-2.500709835683004,-1.4721429983722132,-0.7032111326800745,-1.607901398335592,-3.33689529100527
-0.6253297964679163,-2.500685993825094,-1.4720352331744593,-0.703259293233053,-1.607901398335592,-3.3368354479419153
-0.6253774801837366,-2.5007341543780726,-1.471987549458639,-0.7033312956439417,-1.6079137961017054,-3.3367634455310267
-0.6256535688983362,-2.5007341543780726,-1.4718793074237269,-0.7033193747149866,-1.607901398335592,-3.3366077581988733
-0.6258214155780237,-2.500781838093893,-1.471795384083883,-0.7033670584308069,-1.6079137961017054,-3.336416308079855
-0.6260011831866663,-2.500769917164938,-1.4717109839068812,-0.7034629026996058,-1.607877556477682,-3.3362725416766565
-0.6261685530291956,-2.500793759022848,-1.4716032187091272,-0.7034509817706507,-1.6079257170306605,-3.3360329310046595
-0.6266120115863245,-2.500889603291647,-1.471339527760641,-0.703594986592428,-1.607901398335592,-3.335637871419088
-0.6268156210528772,-2.500913921986715,-1.4712079207049769,-0.703594986592428,-1.607877556477682,-3.3354581038104456
-0.6270311514483851,-2.5009854475604456,-1.4710872809039515,-0.7037032286273401,-1.607901398335592,-3.3351827303515833
-0.6273306051837366,-2.5010817686664026,-1.4709556738482874,-0.7037270704852503,-1.607901398335592,-3.334907118474142
-0.6279056707965296,-2.5012133757220667,-1.4705475012408655,-0.703918759022848,-1.607877556477682,-3.3342846075641077
-0.6282408873187464,-2.5013211409198206,-1.470379654561178,-0.7038829962359827,-1.6078537146197718,-3.3339372316943567
-0.6285770575152796,-2.501392666493551,-1.4702118078814905,-0.7039907614337366,-1.607901398335592,-3.3336380163775843
-0.6289604345904749,-2.50148851076235,-1.4699953238116663,-0.704146687184469,-1.607889477406637,-3.333290402089254
-0.6297028700457972,-2.5016921202289026,-1.4695518652545374,-0.7043741385089319,-1.607901398335592,-3.3324998060809534
-0.6300862471209925,-2.5017998854266565,-1.4693720976458948,-0.704386059437887,-1.6078537146197718,-3.332068745289938
