youngblood1998/my_ws/src/ur5_platform/ur5_platform_manipulation/wzq/testx1.csv
j0,j1,j2,j3,j4,j5
-0.762402359639303,-2.491664711629049,-1.401320759450094,-0.7797086874591272,-1.581904713307516,-3.1790013949023646
-0.7610481421100062,-2.4913294951068323,-1.4020288626300257,-0.779360596333639,-1.5819528738604944,-3.180258814488546
-0.7597783247577112,-2.4909818808185022,-1.4027369658099573,-0.7789891401873987,-1.582024876271383,-3.1814921537982386
-0.7585437933551233,-2.4906461874591272,-1.4035041967975062,-0.7785809675799769,-1.5821564833270472,-3.1826897303210657
-0.7572978178607386,-2.490335289631979,-1.4042122999774378,-0.7781732718097132,-1.5821564833270472,-3.183983389531271
-0.7547457853900355,-2.4896519819842737,-1.4056761900531214,-0.7774904409991663,-1.5823600927936,-3.186474148427145
-0.7534392515765589,-2.489292923604147,-1.4064081350909632,-0.7770465056048792,-1.5823600927936,-3.1877437273608606
-0.7522175947772425,-2.4889214674579065,-1.40715200105776,-0.7766392866717737,-1.5826118628131312,-3.189060990010397
-0.7508991400348108,-2.4885976950274866,-1.4079082647906702,-0.7762311140643519,-1.5824678579913538,-3.1903064886676233
-0.7483471075641077,-2.4878786245929163,-1.409419361745016,-0.7754877249347132,-1.5827315489398401,-3.192857329045431
-0.7470768133746546,-2.4875672499286097,-1.4101274649249476,-0.7750442663775843,-1.5826719442950647,-3.194150988255636
-0.7457826773272913,-2.4872081915484827,-1.4109070936786097,-0.7745884100543421,-1.5828755537616175,-3.195456329976217
-0.7445367018329065,-2.4868486563311976,-1.4115913550006312,-0.7742293516742151,-1.5828035513507288,-3.196725670491354
-0.7420204321490687,-2.4861777464496058,-1.4130671660052698,-0.7733777205096644,-1.583043400441305,-3.199264113103048
-0.7407501379596155,-2.4858062903033655,-1.4137628714190882,-0.7729819456683558,-1.5829833189593714,-3.20052153268923
-0.7394083181964319,-2.485482994710104,-1.4145062605487269,-0.7725861708270472,-1.583163086568014,-3.20180327097048
-0.7381857077227991,-2.4850876967059534,-1.4153106848346155,-0.7722623983966272,-1.5831154028521937,-3.2030604521380823
-0.7356217543231409,-2.4843929449664515,-1.4167502562152308,-0.7714350859271448,-1.5832951704608362,-3.205623451863424
-0.7343276182757776,-2.484021011983053,-1.417506519948141,-0.7710631529437464,-1.5832589308368128,-3.2068331877337855
-0.7330692450152796,-2.483650032673971,-1.418286148701803,-0.7706440130816858,-1.5834506193744105,-3.2081504503833216
-0.7317994276629847,-2.4832785765277308,-1.41905385652651,-0.7702840010272425,-1.5833547751056116,-3.2094200293170374
-0.7292593161212366,-2.4825595060931605,-1.4206374327289026,-0.7694924513446253,-1.5835707823382776,-3.211886707936422
-0.7279537359820765,-2.4821999708758753,-1.4212854544269007,-0.7691209951983851,-1.5836547056781214,-3.2130723635302942
-0.7267311255084437,-2.4818647543536585,-1.4220650831805628,-0.7687614599810999,-1.5837629477130335,-3.2142820994006556
-0.7254250685321253,-2.4815056959735315,-1.4227851072894495,-0.7683900038348597,-1.5837629477130335,-3.2154913584338587
-0.7229927221881312,-2.4808104673968714,-1.4242008368121546,-0.7675865332232874,-1.5838945547686976,-3.217886749898092
-0.7217581907855433,-2.4804628531085413,-1.4249447027789515,-0.7672384420977991,-1.5840862433062952,-3.2190244833575647
-0.7205246130572718,-2.4801633993731897,-1.4256885687457483,-0.7668545881854456,-1.584038559590475,-3.220246140156881
-0.7192662397967737,-2.479863945637838,-1.4263485113727015,-0.7664831320392054,-1.5842302481280726,-3.221419874821798
-0.7168577353106897,-2.479241196309225,-1.427788559590475,-0.7656796614276331,-1.5842779318438929,-3.223766867314474
-0.7156713644610804,-2.4789298216449183,-1.42847186723818,-0.7654040495501917,-1.5843856970416468,-3.224952522908346
-0.7145450750934046,-2.478582207356588,-1.42920428911318,-0.7650802771197718,-1.5843260923968714,-3.2261622587787073
-0.71332294145693,-2.4782589117633265,-1.4299238363849085,-0.7647202650653284,-1.584517780934469,-3.227276388798849
-0.7109263578998011,-2.4776237646686,-1.4312556425677698,-0.7639172712909144,-1.5845778624164026,-3.229779307042257
-0.7097166220294397,-2.4773362318622034,-1.4320476690875452,-0.7635696570025843,-1.5846856276141565,-3.230953041707174
-0.7084820906268519,-2.476964775715963,-1.43268329301943,-0.7632220427142542,-1.5846136252032679,-3.2321866194354456
-0.7073319594012659,-2.4766534010516565,-1.4333789984332483,-0.7628262678729456,-1.5847094694720667,-3.233431879674093
-0.7049115339862269,-2.475994888936178,-1.4347708860980433,-0.7620828787433069,-1.5847213904010218,-3.235791269932882
-0.7036412397967737,-2.4756954352008265,-1.435478989277975,-0.7617352644549769,-1.5849493185626429,-3.2370486895190638
-0.7024672667132776,-2.4753835836993616,-1.436150375996725,-0.7613871733294886,-1.5848773161517542,-3.23827034631838
-0.7011974493609827,-2.4750478903399866,-1.4368227163897913,-0.7610037962542933,-1.5849970022784632,-3.2394917646991175
-0.6987527052508753,-2.4744370619403284,-1.4382742086993616,-0.7602480093585413,-1.5850451628314417,-3.241899077092306
-0.6975305716144007,-2.4741137663470667,-1.438934628163473,-0.7598884741412562,-1.5852845350848597,-3.2430368105517786
-0.6963208357440394,-2.473813835774557,-1.439617935811178,-0.7595170179950159,-1.5852010885821741,-3.244293991719381
-0.6950743834124964,-2.4734790960894983,-1.4403379599200647,-0.7591093222247522,-1.5854046980487269,-3.2454796473132532
-0.6926539579974573,-2.4727957884417933,-1.4417417685138147,-0.7583897749530237,-1.5855243841754358,-3.2478631178485315
-0.6914919058429163,-2.4724844137774866,-1.4425213972674769,-0.7580779234515589,-1.585656468068258,-3.2490246931659144
-0.6902454535113733,-2.47217303911318,-1.4432051817523401,-0.7577183882342737,-1.5855844656573694,-3.250269953404562
-0.6890714804278772,-2.47182542482485,-1.4439128080951136,-0.757298771535055,-1.585752312337057,-3.2513957659350794
-0.6867354551898401,-2.4711902777301233,-1.445340935383932,-0.7566035429583948,-1.5858600775348108,-3.2537675539599817
-0.6855972448932093,-2.470903221760885,-1.4459646383868616,-0.7562912146197718,-1.5859678427325647,-3.2548933664904993
-0.6844466368304651,-2.4705680052386683,-1.4466365019427698,-0.7559798399554651,-1.5859196821795862,-3.256019179021017
-0.6833685080157679,-2.4702442328082483,-1.4472602049456995,-0.7555840651141565,-1.5861237684832972,-3.257120911275045
-0.6812837759601038,-2.4696572462665003,-1.4485204855548304,-0.7549245993243616,-1.5861714521991175,-3.2591806093799036
-0.6801932493792933,-2.469393555318014,-1.4490364233600062,-0.7546609083758753,-1.586231533681051,-3.2601385752307337
-0.6791866461383265,-2.469153706227438,-1.4496482054339808,-0.7543252150165003,-1.5861957708941858,-3.2611685434924524
-0.6782401243792933,-2.4689024130450647,-1.4502480665790003,-0.7540133635150355,-1.58635121980776,-3.262043062840597
-0.6763828436480921,-2.4684231917010706,-1.4513395468341272,-0.7534497419940394,-1.58635121980776,-3.2638750712024134
-0.6755684057818812,-2.4681718985186976,-1.4518559614764612,-0.7532098929034632,-1.586458985005514,-3.2647255102740687
-0.6747053305255335,-2.4679439703570765,-1.452310864125387,-0.7529581228839319,-1.5863154570208948,-3.2655158678637903
-0.6739142576800745,-2.467776123677389,-1.4527915159808558,-0.7526705900775355,-1.5865309874164026,-3.266282383595602
-0.6724289099322718,-2.4673927466021937,-1.453691307698385,-0.7522032896624964,-1.586555306111471,-3.2677794138537806
-0.6716974417315882,-2.467201058064596,-1.4540870825396937,-0.7519748846637171,-1.5866511503802698,-3.2684741655932825
-0.6710150877581995,-2.4670217672931116,-1.4545186201678675,-0.7517831961261194,-1.5865190664874476,-3.269120756779806
-0.6703441778766077,-2.466841999684469,-1.4549153486834925,-0.7516153494464319,-1.5867112318622034,-3.2698751131640833
-0.6690381209002894,-2.4664581457721155,-1.4556344191180628,-0.7512314955340784,-1.5866873900042933,-3.271144692097799
-0.6683910528766077,-2.466278378163473,-1.4561145941363733,-0.7510641256915491,-1.5867951552020472,-3.2718034426318567
-0.6677439848529261,-2.4660986105548304,-1.4564507643329065,-0.7507641951190394,-1.586759392415182,-3.2724018732654017
-0.6671212355243128,-2.465931240712301,-1.45683461824526,-0.7505839506732386,-1.586902920399801,-3.273036781941549
-0.6659110228167933,-2.465607468281881,-1.4575308004962366,-0.7502124945269983,-1.5869267622577112,-3.27419883409609
-0.6653001944171351,-2.465428177510397,-1.4578660170184534,-0.7500327269183558,-1.5869987646686,-3.2748575846301478
-0.6647246519671839,-2.4652965704547327,-1.4582741896258753,-0.7498882452594202,-1.5869510809527796,-3.2753964106189173
-0.6641019026385706,-2.46506911913027,-1.45856219926943,-0.7496488730060022,-1.5871546904193323,-3.2759953180896204
-0.6628077665912073,-2.464733425770895,-1.4593060652362269,-0.7492893377887171,-1.5871785322772425,-3.2772050539599817
-0.6622207800494593,-2.464613739644186,-1.4596417585956019,-0.7490852514850062,-1.5871785322772425,-3.277827803288595
-0.661513630543844,-2.46439773241152,-1.4600260893451136,-0.7488816420184534,-1.5871546904193323,-3.2784622351275843
-0.6608784834491175,-2.4642418066607874,-1.460409943257467,-0.7487137953387659,-1.5872862974749964,-3.2790969053851526
-0.6595848242389124,-2.4638946692096155,-1.4611418882953089,-0.7483060995685022,-1.58734637895693,-3.280414406453268
-0.6588781515704554,-2.463738743458883,-1.4615138212787073,-0.7481501738177698,-1.587334458027975,-3.281024996434347
-0.6581586042987269,-2.4635594526873987,-1.461909596120016,-0.747934643422262,-1.587334458027975,-3.28171950975527
-0.65747577348818,-2.4634154478656214,-1.4623053709613245,-0.7478025595294397,-1.5875023047076624,-3.282306496297018
-0.6561339537249964,-2.463043991719381,-1.4630849997149866,-0.747298542653219,-1.5875380674945276,-3.2836838404284876
-0.6554387251483362,-2.4628642241107386,-1.463433090840475,-0.7470830122577112,-1.5875499884234827,-3.28433067003359
-0.6548040548907679,-2.462684933339254,-1.4638293425189417,-0.7469032446490687,-1.5875142256366175,-3.2849531809436243
-0.6541569868670862,-2.4625170866595667,-1.4642012755023401,-0.7466872374164026,-1.5877178351031702,-3.2856958548175257
-0.6528509298907679,-2.4621456305133265,-1.4649689833270472,-0.746291462575094,-1.587682072316305,-3.287037197743551
-0.6521919409381312,-2.461977783833639,-1.4653766790973108,-0.7460158506976526,-1.5877059141742151,-3.2876959482776087
-0.651581112538473,-2.4618104139911097,-1.4657004515277308,-0.7458604017840784,-1.58767015138735,-3.288318697606222
-0.6509102026568812,-2.461606804524557,-1.4660967032061976,-0.7456086317645472,-1.5878256003009241,-3.2889655272113245
-0.6497238318072718,-2.461283032094137,-1.4668405691729944,-0.7452123800860804,-1.5877779165851038,-3.2901392618762415
-0.6491606871234339,-2.4611271063434046,-1.4671767393695276,-0.7450802961932581,-1.587921444569723,-3.2907262484179896
-0.6485737005816858,-2.460959259663717,-1.4675119558917444,-0.744948689137594,-1.587813679371969,-3.2913370768176478
-0.6479867140399378,-2.460815731679098,-1.4678242842303675,-0.7448046843158167,-1.5879934469806116,-3.2919119040118616
-0.6468718687640589,-2.4605401198016565,-1.468531910573141,-0.7445171515094202,-1.5879696051227015,-3.293037239705221
-0.6463688055621546,-2.460384194050924,-1.4688437620746058,-0.7443736235248011,-1.5881012121783655,-3.2935882250415247
-0.6458542982684534,-2.46025258699526,-1.4691317717181605,-0.7441332975970667,-1.588029686604635,-3.2940314451800745
-0.6453025976764124,-2.460109059010641,-1.469395939503805,-0.7439535299884241,-1.5880773703204554,-3.294534508381979
-0.6443799177752894,-2.459845844899313,-1.4699471632586878,-0.7436898390399378,-1.5880535284625452,-3.2954686323748987
-0.643984619771139,-2.4596899191485804,-1.4702237288104456,-0.7434623877154749,-1.5881732145892542,-3.29586369196047
-0.6435535589801233,-2.459557835255758,-1.4704635779010218,-0.7434142271624964,-1.588149372731344,-3.2962947527514856
-0.6430862585650843,-2.459450070058004,-1.4707158247577112,-0.7432101408587855,-1.5881612936602991,-3.2967141310321253
-0.6422837416278284,-2.4592226187335413,-1.4711955229388636,-0.743042294179098,-1.588149372731344,-3.2975881735431116
-0.64191180864443,-2.459102455769674,-1.4714353720294397,-0.7429822126971644,-1.588257137929098,-3.2978995482074183
-0.6415165106402796,-2.45899469057192,-1.4716151396380823,-0.7428863684283655,-1.588280979787008,-3.298307005559103
-0.6411092917071741,-2.458863083516256,-1.4718793074237269,-0.7427905241595667,-1.588257137929098,-3.298677984868185
-0.6403783003436487,-2.4586952368365687,-1.4722750822650355,-0.7425506750689905,-1.588280979787008,-3.2993367354022425
-0.6400426069842737,-2.4585874716388147,-1.472442928944723,-0.7425506750689905,-1.5883892218219202,-3.299720350896017
-0.6397078672992151,-2.458504025136129,-1.4726594130145472,-0.7422989050494593,-1.5884607473956507,-3.3000078837024134
-0.6394079367267054,-2.4584320227252405,-1.4728391806231897,-0.7423232237445276,-1.5883172194110315,-3.3003671805011194
-0.6387847105609339,-2.4582160154925745,-1.473199192677633,-0.7421191374408167,-1.5884130636798304,-3.300917927418844
-0.6384852568255823,-2.4581802527057093,-1.4733908812152308,-0.742047135029928,-1.5884130636798304,-3.3012412230121058
-0.6381614843951624,-2.4580724875079554,-1.4735353628741663,-0.7418554464923304,-1.5885327498065394,-3.3015287558185022
-0.637885872517721,-2.4580004850970667,-1.4736912886248987,-0.7418435255633753,-1.5883892218219202,-3.3018279711352747
-0.6373470465289515,-2.4578807989703577,-1.4740026632892054,-0.741711441670553,-1.5885089079486292,-3.3023789564715784
-0.6371315161334437,-2.457784954701559,-1.474074665700094,-0.7416394392596644,-1.5885809103595179,-3.3026304880725306
-0.6369035879718226,-2.4577248732196253,-1.47426683107485,-0.7414835135089319,-1.5886767546283167,-3.302821938191549
-0.6366165320025843,-2.457701031361715,-1.4744227568255823,-0.7415674368487757,-1.5885327498065394,-3.303013626729147
-0.6362445990191858,-2.457580868397848,-1.4746869246112269,-0.7414477507220667,-1.5886285940753382,-3.3034208456622522
-0.6359928289996546,-2.457568947468893,-1.474818531666891,-0.741375748311178,-1.5886285940753382,-3.3036845366107386
-0.6358969847308558,-2.4575212637530726,-1.4749024550067347,-0.7412679831134241,-1.5887487570392054,-3.303840223942892
-0.6356576124774378,-2.457485024129049,-1.4750588575946253,-0.7413399855243128,-1.588616673146383,-3.3040555159198206
-0.6353462378131312,-2.4574134985553187,-1.4752023855792444,-0.7413161436664026,-1.5887606779681605,-3.3043552080737513
-0.6352384726153772,-2.457353417073385,-1.4752982298480433,-0.7411358992206019,-1.5886767546283167,-3.3044148127185267
-0.6351426283465784,-2.45736533800234,-1.475358788167135,-0.7411358992206019,-1.5888446013080042,-3.304558579121725
-0.6350224653827112,-2.4573171774493616,-1.4754064718829554,-0.7410758177386683,-1.5886767546283167,-3.304582420979635
-0.6348074118243616,-2.4572694937335413,-1.4754903952227991,-0.7411239782916468,-1.5888803640948694,-3.304774347935812
-0.6347950140582483,-2.4572933355914515,-1.4755266348468226,-0.7409198919879358,-1.5887005964862269,-3.3048222700702112
-0.6347711722003382,-2.457245651875631,-1.4755385557757776,-0.7410519758807581,-1.5888922850238245,-3.304906193410055
-0.6347115675555628,-2.457245651875631,-1.4755623976336878,-0.7408478895770472,-1.5887725988971155,-3.30494195619692
-0.634747330342428,-2.457245651875631,-1.4754903952227991,-0.7408602873431605,-1.5888326803790491,-3.304894034062521
-0.6347830931292933,-2.457233730946676,-1.4754903952227991,-0.7409680525409144,-1.588928524647848,-3.3048582712756556
-0.6347711722003382,-2.457245651875631,-1.475478474293844,-0.7409561316119593,-1.5889042059527796,-3.304894034062521
-0.6347711722003382,-2.457233730946676,-1.4755147139178675,-0.7409561316119593,-1.5888565222369593,-3.3048461119281214
-0.6347711722003382,-2.457245651875631,-1.4754903952227991,-0.7409198919879358,-1.5888922850238245,-3.3048582712756556
-0.6347711722003382,-2.457221333180563,-1.4755385557757776,-0.7408960501300257,-1.5889161268817347,-3.304810110722677
-0.6347950140582483,-2.457245651875631,-1.4755147139178675,-0.7409079710589808,-1.5889161268817347,-3.3048582712756556
-0.6347950140582483,-2.457245651875631,-1.4754903952227991,-0.7408478895770472,-1.5888922850238245,-3.3048701922046106
-0.6347830931292933,-2.4572575728045862,-1.4755023161517542,-0.7408602873431605,-1.5889161268817347,-3.3048341909991663
-0.6347950140582483,-2.457245651875631,-1.4755023161517542,-0.7408841292010706,-1.5888684431659144,-3.3048582712756556
-0.6347592512713831,-2.457245651875631,-1.4755023161517542,-0.7408359686480921,-1.5888565222369593,-3.3048461119281214
-0.6347711722003382,-2.457245651875631,-1.4755266348468226,-0.7408121267901819,-1.5888803640948694,-3.3048701922046106
-0.634747330342428,-2.457221333180563,-1.4754903952227991,-0.7407401243792933,-1.5888565222369593,-3.304894034062521
-0.6347592512713831,-2.4572575728045862,-1.4754903952227991,-0.7407162825213831,-1.5888446013080042,-3.3048461119281214
-0.6347830931292933,-2.457245651875631,-1.475478474293844,-0.7406323591815394,-1.5888803640948694,-3.3048461119281214
-0.6347711722003382,-2.4572575728045862,-1.475478474293844,-0.7406204382525843,-1.5888565222369593,-3.3048461119281214
-0.6347950140582483,-2.457245651875631,-1.4754903952227991,-0.7405722776996058,-1.5888565222369593,-3.3048701922046106
-0.6347711722003382,-2.457221333180563,-1.4754903952227991,-0.7405603567706507,-1.5888684431659144,-3.3048582712756556
-0.6347711722003382,-2.4572694937335413,-1.4755147139178675,-0.7405484358416956,-1.5888684431659144,-3.3048461119281214
-0.6347592512713831,-2.457245651875631,-1.4755385557757776,-0.7405484358416956,-1.5888684431659144,-3.304906193410055
-0.6347592512713831,-2.4572575728045862,-1.4755147139178675,-0.7405603567706507,-1.5888803640948694,-3.3048821131335657
-0.634747330342428,-2.4572575728045862,-1.4755266348468226,-0.7405603567706507,-1.5888083616839808,-3.304906193410055
-0.6347711722003382,-2.4572694937335413,-1.4755023161517542,-0.7405841986285608,-1.5887964407550257,-3.3048582712756556
-0.6347592512713831,-2.457245651875631,-1.4755023161517542,-0.7405722776996058,-1.5888446013080042,-3.304906193410055
-0.6347830931292933,-2.4572575728045862,-1.4755023161517542,-0.7406204382525843,-1.5888326803790491,-3.304894034062521
-0.6347830931292933,-2.457245651875631,-1.4755147139178675,-0.7406442801104944,-1.5888684431659144,-3.30491811433901
-0.6347950140582483,-2.4572814146624964,-1.4755147139178675,-0.7406805197345179,-1.5888565222369593,-3.3048821131335657
-0.6348193327533167,-2.457245651875631,-1.4754546324359339,-0.7407644430743616,-1.5888803640948694,-3.3048582712756556
-0.6348908583270472,-2.4572575728045862,-1.4754183928119105,-0.7407162825213831,-1.5888446013080042,-3.304798189793722
-0.6349504629718226,-2.457245651875631,-1.4754064718829554,-0.7407763640033167,-1.5888326803790491,-3.3047383467303675
-0.6350343863116663,-2.4572814146624964,-1.4754064718829554,-0.7409198919879358,-1.5888684431659144,-3.304678503667013
-0.6351664702044886,-2.4573171774493616,-1.4753230253802698,-0.7408841292010706,-1.5888684431659144,-3.3046544233905237
-0.6353700796710413,-2.457329575215475,-1.4752143065081995,-0.7409918943988245,-1.5888565222369593,-3.304450813923971
-0.6355498472796839,-2.4573052565204065,-1.4751184622394007,-0.741028134022848,-1.5888684431659144,-3.304295365010397
-0.6357057730304163,-2.45734149614443,-1.4750350157367151,-0.7410519758807581,-1.5888922850238245,-3.304211441670553
-0.6358850638019007,-2.45734149614443,-1.4749262968646448,-0.7411716620074671,-1.5888922850238245,-3.303959671651022
-0.6362803618060511,-2.457449261342184,-1.4747584501849573,-0.7412074247943323,-1.5888803640948694,-3.3035405317889612
-0.6364482084857386,-2.457496945058004,-1.4745906035052698,-0.7413519064532679,-1.5889042059527796,-3.303277317677633
-0.6367242972003382,-2.4575451056109827,-1.4744704405414026,-0.7413399855243128,-1.5888565222369593,-3.303013626729147
-0.6370113531695765,-2.4576290289508265,-1.4743388334857386,-0.7414119879352015,-1.5888565222369593,-3.3027265707599085
-0.6376107374774378,-2.4577367941485804,-1.4740622679339808,-0.7415197531329554,-1.5888684431659144,-3.302175585423605
-0.6379459539996546,-2.4578564802752894,-1.4738829771624964,-0.7416394392596644,-1.5888565222369593,-3.3019118944751185
-0.6382816473590296,-2.4579647223102015,-1.4737027327166956,-0.7416875998126429,-1.5888684431659144,-3.301492754613058
-0.6386049429522913,-2.458024326954977,-1.4735472838031214,-0.7416875998126429,-1.5888083616839808,-3.3010857740985315
-0.6393597761737269,-2.458228413258688,-1.4731391111956995,-0.7417476812945765,-1.588736359273092,-3.300415102635519
-0.6397674719439905,-2.458348099385397,-1.472959343587057,-0.741915527974264,-1.5887845198260706,-3.2999959627734583
-0.6401508490191858,-2.4584677855121058,-1.4727790991412562,-0.7418554464923304,-1.5887606779681605,-3.299600426350729
-0.6405819098102015,-2.458504025136129,-1.4725630919085901,-0.7421072165118616,-1.5887606779681605,-3.299145046864645
-0.6414807478534144,-2.4587553183185022,-1.472131077443258,-0.7421792189227503,-1.588724438344137,-3.298330847417013
-0.6418755690204065,-2.4588750044452112,-1.4719155470477503,-0.7422393004046839,-1.5887005964862269,-3.2978995482074183
-0.6423433462726038,-2.4590066115008753,-1.471675221120016,-0.7423589865313929,-1.5887005964862269,-3.2974804083453577
-0.6428583304034632,-2.4591625372516077,-1.47145921388735,-0.7424905935870569,-1.5886767546283167,-3.2969895044909876
-0.6437333265887659,-2.4593542257892054,-1.4709556738482874,-0.7427542845355433,-1.5886767546283167,-3.2960193792926233
-0.6442483107196253,-2.459522072468893,-1.470727268849508,-0.7428501288043421,-1.588616673146383,-3.295504395161764
-0.6447513739215296,-2.459654156361715,-1.4704516569720667,-0.7430661360370081,-1.5885689894305628,-3.2951212565051478
-0.6452067534076136,-2.459773842488424,-1.4702237288104456,-0.7431381384478968,-1.5885809103595179,-3.2946065107928675
-0.6462252775775355,-2.460013214741842,-1.4696715513812464,-0.7433179060565394,-1.5885809103595179,-3.293648068104879
-0.646740738545553,-2.4601686636554163,-1.4694197813617151,-0.7435701529132288,-1.5885689894305628,-3.293145004902975
-0.6472552458392542,-2.460264507924215,-1.4691436926471155,-0.7435582319842737,-1.5885446707354944,-3.292558256779806
-0.6477950255023401,-2.4604323546039026,-1.4688556830035608,-0.7437017599688929,-1.5885689894305628,-3.2920313517199915
-0.6489093939410608,-2.460696045552389,-1.4682915846454065,-0.7439654509173792,-1.5884369055377405,-3.2909775416003626
-0.6494243780719202,-2.460827652608053,-1.4680283705340784,-0.7441695372210901,-1.588473145161764,-3.2904024759875696
-0.6499632040606897,-2.4609716574298304,-1.467668358479635,-0.7443254629718226,-1.588473145161764,-3.2898276487933558
-0.650550667439596,-2.4610794226275843,-1.4674041906939905,-0.7445171515094202,-1.5884249846087855,-3.289264742528097
-0.6516650358783167,-2.461402718220846,-1.4668048063861292,-0.7449005285846155,-1.5884249846087855,-3.2881749312030237
-0.6522396246539515,-2.4615705649005335,-1.4664323965655726,-0.7451046148883265,-1.5883892218219202,-3.2875641028033655
-0.652862850819723,-2.461726490651266,-1.4661567846881312,-0.7451165358172815,-1.5884130636798304,-3.2869532744037073
-0.6534140745746058,-2.46188193956484,-1.465844456349508,-0.7453325430499476,-1.588376824055807,-3.2863784472094935
-0.6546600500689905,-2.462205235158102,-1.4651487509356897,-0.7456086317645472,-1.5883649031268519,-3.2850850264178675
-0.6552951971637171,-2.462325398121969,-1.4648125807391565,-0.7456443945514124,-1.5883172194110315,-3.2845099608050745
-0.6559303442584437,-2.462468926106588,-1.4644768873797815,-0.7459200064288538,-1.5883052984820765,-3.283851210271017
-0.6565774122821253,-2.462661091481344,-1.4641888777362269,-0.7459800879107874,-1.5882332960711878,-3.283264462147848
-0.6579192320453089,-2.4629600683795374,-1.4634931723224085,-0.7463873068438929,-1.588257137929098,-3.281947199498312
-0.6586263815509241,-2.46311599413027,-1.4631331602679651,-0.7466872374164026,-1.588257137929098,-3.281372372304098
-0.659309212361471,-2.4633196035968226,-1.4627974669085901,-0.7467592398272913,-1.5882452170001429,-3.280665699635641
-0.6599682013141077,-2.4634512106524866,-1.4624493757831019,-0.7469990889178675,-1.588149372731344,-3.2800429503070276
-0.66138202348818,-2.4637988249408167,-1.4617293516742151,-0.7473347822772425,-1.5881612936602991,-3.2786899248706263
-0.6620648542987269,-2.4639304319964808,-1.4613693396197718,-0.7474425474749964,-1.5881851355182093,-3.2779832522021692
-0.662783447896139,-2.4641459623919886,-1.4610098044024866,-0.7477191130267542,-1.5881255308734339,-3.277348343526022
-0.6635144392596644,-2.464289967213766,-1.4606135527240198,-0.7478268782245081,-1.5880654493915003,-3.2766061464892786
-0.6649406591998499,-2.464613739644186,-1.459869686757223,-0.7482460180865687,-1.5880053679095667,-3.2752047220813196
-0.6657431761371058,-2.4648054281817835,-1.4594977537738245,-0.7484138647662562,-1.5879815260516565,-3.2745702902423304
-0.666485611592428,-2.4650209585772913,-1.459125820790426,-0.748509709035055,-1.5879815260516565,-3.2736955324756067
-0.6672170797931116,-2.4651768843280237,-1.4587538878070276,-0.7487376371966761,-1.5879696051227015,-3.2729886213885706
-0.6687262693988245,-2.4655593077289026,-1.4579623381244105,-0.7490852514850062,-1.5878737608539026,-3.2715516726123255
-0.6695058981524866,-2.4657633940326136,-1.4575546423541468,-0.7492650190936487,-1.5878856817828577,-3.2707374731646937
-0.6703203360186976,-2.465943161641256,-1.4571822325335901,-0.7494567076312464,-1.5878499189959925,-3.269982878361837
-0.6710270086871546,-2.4660986105548304,-1.4567626158343714,-0.7497323195086878,-1.5878737608539026,-3.2691922823535364
-0.6725848356830042,-2.466482464467184,-1.4559467474566858,-0.7501409689532679,-1.587801758443014,-3.267623488103048
-0.6734235922442835,-2.4666741530047815,-1.4554908911334437,-0.7503207365619105,-1.5877540747271937,-3.2667973677264612
-0.6741660276996058,-2.466865841542379,-1.4550827185260218,-0.7504761854754847,-1.5877898375140589,-3.2660067717181605
-0.6749332586871546,-2.4670570532428187,-1.454675022755758,-0.7506440321551722,-1.5877178351031702,-3.2651925722705286
-0.6765745321856897,-2.4674885908709925,-1.4537752310382288,-0.7510641256915491,-1.587682072316305,-3.2636118570910853
-0.6774008909808558,-2.46768027940859,-1.4533675352679651,-0.7513635794269007,-1.5876582304583948,-3.2628451029406946
-0.6781685988055628,-2.467883888875143,-1.4529832045184534,-0.7515671888934534,-1.58767015138735,-3.2619951407061976
-0.6789949576007288,-2.468099896107809,-1.4525516668902796,-0.7518070379840296,-1.5875981489764612,-3.2611685434924524
-0.6806486288653772,-2.4685071150409144,-1.4516637961017054,-0.752178970967428,-1.587574307118551,-3.25956374803652
-0.6815350691424769,-2.468722645436422,-1.4512317816363733,-0.7523711363421839,-1.5875023047076624,-3.258737627659933
-0.6823738257037562,-2.46891433397402,-1.450764004384176,-0.7525628248797815,-1.5875499884234827,-3.257803265248434
-0.683272663746969,-2.469153706227438,-1.450320068989889,-0.7527902762042444,-1.5874422232257288,-3.2570369879352015
-0.6850813070880335,-2.4695609251605433,-1.449336353932516,-0.7532699743853968,-1.5874903837787073,-3.255228583012716
-0.6860283056842249,-2.4698007742511194,-1.4488680998431605,-0.753521744404928,-1.5872986952411097,-3.254246536885397
-0.6869505087481897,-2.4700406233416956,-1.4483521620379847,-0.7537015120135706,-1.5874064604388636,-3.253336016331808
-0.6879451910602015,-2.470304314290182,-1.4478724638568323,-0.7539413611041468,-1.5872624556170862,-3.2523778120623987
-0.6900180021869105,-2.4708312193499964,-1.4468048254596155,-0.7544811407672327,-1.587226692830221,-3.250294033681051
-0.6910966078387659,-2.4711182753192347,-1.4462645689593714,-0.754732910786764,-1.5871427694903772,-3.249228064213888
-0.6921990553485315,-2.4714301268206995,-1.4457133452044886,-0.7550204435931605,-1.5871904532061976,-3.248150412236349
-0.6933248678790491,-2.471705738698141,-1.4451730887042444,-0.7553084532367151,-1.587010685597555,-3.2469645182238978
-0.6956732908831995,-2.472292725239889,-1.4439852873431605,-0.7558358351336878,-1.5869630018817347,-3.2446535269366663
-0.6968238989459437,-2.472639862691061,-1.4433015028582972,-0.7560995260821741,-1.5869987646686,-3.2434917132007044
-0.6981056372271937,-2.472903553639547,-1.4426773230182093,-0.7564709822284144,-1.5868671576129358,-3.2422221342669886
-0.6993282477008265,-2.4732630888568323,-1.4420774618731897,-0.756758991871969,-1.5868189970599573,-3.240953032170431
-0.7019522825824183,-2.473945919667379,-1.440674130116598,-0.7573588530169886,-1.5866754690753382,-3.2384257952319544
-0.7032583395587366,-2.474269692097799,-1.4400256315814417,-0.75763446489443,-1.586771313344137,-3.2371087710009974
-0.7045882383929651,-2.474628750477926,-1.4393780867206019,-0.7579820791827601,-1.5866511503802698,-3.2358151117907923
-0.705965820943014,-2.474963967000143,-1.4386819044696253,-0.7583535353290003,-1.5866511503802698,-3.2345336119281214
-0.7086618582354944,-2.4756115118609827,-1.43724233308901,-0.7590253988849085,-1.5864713827716272,-3.2318509260760706
-0.7100279966937464,-2.4759467283831995,-1.4365828672992151,-0.7593491713153284,-1.586555306111471,-3.2304979006396692
-0.7113817373858851,-2.476258103047506,-1.435826603566305,-0.7596848646747034,-1.5864113012896937,-3.229192320500509
-0.7127597967730921,-2.4766057173358362,-1.4352267424212855,-0.7600205580340784,-1.5863993803607386,-3.2278273741351526
-0.7154558340655726,-2.477300469075338,-1.4337990919696253,-0.7606919447528284,-1.5863154570208948,-3.2252281347857874
-0.7167976538287562,-2.477611843739645,-1.4330914656268519,-0.7610395590411585,-1.5864113012896937,-3.2238507906543177
-0.7181161085711878,-2.4779112974749964,-1.4323714415179651,-0.7613871733294886,-1.5862672964679163,-3.2225337664233606
-0.719433609639303,-2.478246513997213,-1.4317353407489222,-0.761759106312887,-1.5862792173968714,-3.2212401072131556
-0.7220457235919397,-2.4789417425738733,-1.4303200880633753,-0.7623942534076136,-1.5860875288592737,-3.218701426182882
-0.723327938710348,-2.4792655150042933,-1.4297078291522425,-0.7626941839801233,-1.586231533681051,-3.2174437681781214
-0.7245739142047327,-2.4795764128314417,-1.429000202809469,-0.7630179564105433,-1.5860398451434534,-3.2161980311023157
-0.7258322874652308,-2.4799116293536585,-1.4283278624164026,-0.7633298079120081,-1.5860636870013636,-3.215060297642843
-0.7283485571490687,-2.48051101366152,-1.4269846121417444,-0.7639535109149378,-1.585871998463766,-3.212653462086813
-0.7295468489276331,-2.4808223883258265,-1.4264205137835901,-0.7642410437213343,-1.585991684590475,-3.211491648350851
-0.7307451407061976,-2.4811223188983362,-1.4257963339435022,-0.7645285765277308,-1.5858600775348108,-3.2102580706225794
-0.7319191137896937,-2.481433693562643,-1.4251368681537073,-0.7648523489581507,-1.5858481566058558,-3.2090123335467737
-0.7342918554889124,-2.482020680104391,-1.4239009062396448,-0.765536133443014,-1.5857160727130335,-3.2066174189196985
-0.7354896704303187,-2.482307736073629,-1.4232772032367151,-0.7658117453204554,-1.5857880751239222,-3.2054198423968714
-0.7366521994220179,-2.482631508504049,-1.4226530233966272,-0.7660277525531214,-1.5856440703021448,-3.204222027455465
-0.737838093434469,-2.4828951994525355,-1.4220412413226526,-0.7663152853595179,-1.5857160727130335,-3.203000847493307
-0.7401869932757776,-2.4834941069232386,-1.4208539167987269,-0.7668426672564905,-1.5854523817645472,-3.200677458439962
-0.7413976828204554,-2.48379356065859,-1.4202654997455042,-0.767214600239889,-1.585536305104391,-3.199455801640646
-0.7426193396197718,-2.4840930143939417,-1.4196537176715296,-0.7674902121173304,-1.5853326956378382,-3.1983183065997522
-0.7438061873065394,-2.4843929449664515,-1.4190180937396448,-0.7677901426898401,-1.5853927771197718,-3.197073046361105
-0.7461779753314417,-2.485063378010885,-1.417769734059469,-0.7684615294085901,-1.585296932850973,-3.1946778933154505
-0.7474482695208948,-2.485387150441305,-1.4171102682696741,-0.7687614599810999,-1.5852487722979944,-3.193468157445089
-0.7486942450152796,-2.4857104460345667,-1.4164865652667444,-0.7690847555743616,-1.585080925618307,-3.1921990553485315
-0.7499287764178675,-2.4860337416278284,-1.4158027807818812,-0.7693246046649378,-1.5851767698871058,-3.1910131613360804
-0.7524812857257288,-2.486668888722555,-1.4144704977618616,-0.7699607054339808,-1.5850451628314417,-3.1884740034686487
-0.7538111845599573,-2.48698074022402,-1.4138105551349085,-0.7702720800982874,-1.5850570837603968,-3.187216822301046
-0.7550814787494105,-2.4872801939593714,-1.4131749312030237,-0.7705958525287073,-1.5849011580096644,-3.1859472433673304
-0.7564352194415491,-2.4875672499286097,-1.4125149885760706,-0.7708957831012171,-1.5850570837603968,-3.184582297001974
-0.7590592543231409,-2.4882023970233362,-1.4111593405352991,-0.7715666929828089,-1.5849011580096644,-3.1820550600634974
-0.7603414694415491,-2.4884899298297327,-1.410487476979391,-0.7718785444842737,-1.5848892370807093,-3.1807859579669397
-0.7617076078998011,-2.4887893835650843,-1.4097674528705042,-0.7722743193255823,-1.5847333113299769,-3.1794682184802454
-0.7629779020892542,-2.4890649954425257,-1.409107510243551,-0.7725742498980921,-1.584841553364889,-3.178103272114889
-0.7656257788287562,-2.489675823842184,-1.4077757040606897,-0.7731617132769983,-1.5847213904010218,-3.1755405108081263
-0.7669318358050745,-2.490011517201559,-1.4070919195758265,-0.7734974066363733,-1.5846737066852015,-3.17431885400881
-0.7682502905475062,-2.490335289631979,-1.4064562956439417,-0.773785416279928,-1.5845535437213343,-3.1729658285724085
-0.7695801893817347,-2.490634266530172,-1.40574819246401,-0.7741811911212366,-1.5846737066852015,-3.1716962496386927
-0.7721203009234827,-2.491281334553854,-1.404440704976217,-0.7748044172870081,-1.5844820181476038,-3.169145409260885
-0.7734025160418909,-2.4915927092181605,-1.4036849180804651,-0.7751401106463831,-1.5844939390765589,-3.1678877512561243
-0.7746484915362757,-2.4919284025775355,-1.4030244986163538,-0.7755115667926233,-1.5843618551837366,-3.166630570088522
-0.7759550253497522,-2.492251698170797,-1.4023287932025355,-0.7758234182940882,-1.584505860005514,-3.165385071431295
-0.7784832159625452,-2.492814842854635,-1.400985066090719,-0.7764228026019495,-1.5843380133258265,-3.1627867857562464
-0.7796810309039515,-2.493150059376852,-1.4003132025348108,-0.7766988913165491,-1.58439809480776,-3.1615410486804407
-0.7809155623065394,-2.4934499899493616,-1.3996294180499476,-0.7770345846759241,-1.5842064062701624,-3.160295550023214
-0.782149616871969,-2.493772808705465,-1.398945156727926,-0.7773225943194788,-1.5843141714679163,-3.1590502897845667
-0.7846782843219202,-2.4943602720843714,-1.3976734320269983,-0.7779219786273401,-1.5841940085040491,-3.156618897114889
-0.7859004179583948,-2.494671646748678,-1.3970139662372034,-0.7781851927386683,-1.5841344038592737,-3.1553733984576624
-0.7871463934527796,-2.494971577321188,-1.3963540236102503,-0.7784612814532679,-1.584062401448385,-3.15414005914797
-0.7883690039264124,-2.495235268269674,-1.3957536856280726,-0.7787736097918909,-1.5840862433062952,-3.1530023256884974
-0.7909091154681605,-2.495821777974264,-1.3945182005511683,-0.7794206778155726,-1.5840023199664515,-3.150571409855978
-0.79211932817568,-2.4960973898517054,-1.393834416066305,-0.7797206083880823,-1.5838106314288538,-3.1493857542621058
-0.7933896223651331,-2.4964445273028772,-1.3931620756732386,-0.7800081411944788,-1.5839064756976526,-3.1481524149524134
-0.7946713606463831,-2.496768299733297,-1.392550293599264,-0.7802718321429651,-1.583714787160055,-3.146930758153097
-0.797164265309469,-2.4973796049701136,-1.3913148085223597,-0.7809198538409632,-1.5835464636432093,-3.1444996039019983
-0.7984226385699671,-2.4977148214923304,-1.390606705342428,-0.78125507036318,-1.583595101033346,-3.1432064215289515
-0.7997167746173304,-2.498002354298727,-1.38995868364443,-0.7815306822406214,-1.5835345427142542,-3.1419132391559046
-0.8009508291827601,-2.498349968587057,-1.3893588224994105,-0.781806770955221,-1.5834148565875452,-3.140691582356588
-0.8034675757037562,-2.49894887605776,-1.3880751768695276,-0.7825258413897913,-1.5832708517657679,-3.138200585042135
-0.8047135511981409,-2.499272171651022,-1.3874028364764612,-0.7828376928912562,-1.5833428541766565,-3.13688308397402
-0.8060200850116175,-2.4995721022235315,-1.3867433706866663,-0.7831257025348108,-1.583175007496969,-3.135697905217306
-0.8072660605060022,-2.4999073187457483,-1.3861435095416468,-0.7834256331073206,-1.5832350889789026,-3.1344640890704554
-0.8097460905658167,-2.5004943052874964,-1.3848117033587855,-0.7840731779681605,-1.583163086568014,-3.1318658033954065
-0.8109806219684046,-2.500805679951803,-1.384223763142721,-0.7843964735614222,-1.583163086568014,-3.1306563059436243
-0.8122027556048792,-2.5010936895953577,-1.3835395018206995,-0.7847440878497522,-1.5829952398883265,-3.1293745676623743
-0.8134492079364222,-2.501392666493551,-1.382951561604635,-0.7849720160113733,-1.583043400441305,-3.128129307423727
-0.815953556691305,-2.5020397345172327,-1.381632153187887,-0.7855599562274378,-1.582923714314596,-3.1256147066699427
-0.8172476927386683,-2.5023391882525843,-1.3810079733477991,-0.7859433333026331,-1.5829713980304163,-3.124380890523092
-0.8185175100909632,-2.5026868025409144,-1.380348030720846,-0.786267105733053,-1.5828154722796839,-3.123063866292135
-0.8197525183307093,-2.5030582586871546,-1.3797124067889612,-0.7865307966815394,-1.5828035513507288,-3.121878210698263
-0.8223527113543909,-2.503669563923971,-1.378392521535055,-0.7871182600604456,-1.5826600233661097,-3.119291369115011
-0.8235986868487757,-2.5039804617511194,-1.3776963392840784,-0.7873819510089319,-1.5827677885638636,-3.118070189152853
-0.8248689810382288,-2.504291836415426,-1.3770249525653284,-0.7877300421344202,-1.582588020955221,-3.116824452077047
-0.8261154333697718,-2.5046632925616663,-1.376352612172262,-0.7880414167987269,-1.5826118628131312,-3.1155553499804896
-0.82867938676943,-2.505286518727438,-1.3750808874713343,-0.7886889616595667,-1.5824559370623987,-3.113028113042013
-0.829937760029928,-2.505634133015768,-1.3744571844684046,-0.7890008131610315,-1.5825517813311976,-3.1117950121508997
-0.831184212361471,-2.5059693495379847,-1.3736894766436976,-0.7893961111651819,-1.5824201742755335,-3.1105616728412073
-0.8324545065509241,-2.5062688032733362,-1.3730652968036097,-0.7897322813617151,-1.5823844114886683,-3.1092920939074915
-0.8349826971637171,-2.506915871297018,-1.3717697302447718,-0.7902839819537562,-1.582240406666891,-3.1068132559405726
-0.836252514516012,-2.5072034041034144,-1.3711336294757288,-0.790595833455221,-1.5823481718646448,-3.105567518864767
-0.8374870459185999,-2.507526699696676,-1.3704856077777308,-0.7909072081195276,-1.5821922461139124,-3.104382340108053
-0.8387334982501429,-2.507862393056051,-1.3698495070086878,-0.7912429014789026,-1.582264248524801,-3.1031726042376917
-0.8412140051471155,-2.5084732214557093,-1.368565861378805,-0.7918666044818323,-1.5821083227740687,-3.100609842930929
-0.8424485365497034,-2.5088208357440394,-1.3679660002337855,-0.7921541372882288,-1.5821803251849573,-3.099412266408102
-0.8437302748309534,-2.509156052266256,-1.3672578970538538,-0.7924540678607386,-1.5819767157184046,-3.098203245793478
-0.8449648062335413,-2.5095155874835413,-1.3665383497821253,-0.7928021589862269,-1.5820725599872034,-3.0969577471362513
-0.8474696318255823,-2.5101144949542444,-1.3652303854571741,-0.7934253851519983,-1.5819409529315394,-3.0945144335376185
-0.8487632910357874,-2.510437790547506,-1.364558521901266,-0.7936890761004847,-1.5819528738604944,-3.0932567755328577
-0.8500097433673304,-2.5107973257647913,-1.3639586607562464,-0.7939890066729944,-1.581808869038717,-3.092083756123678
-0.8513277212726038,-2.5111330191241663,-1.3633106390582483,-0.7943123022662562,-1.5819409529315394,-3.090814177189962
-0.8538325468646448,-2.5117443243609827,-1.3619430700885218,-0.794959847127096,-1.5817611853228968,-3.0883474985705774
-0.855102841054098,-2.5120437780963343,-1.3613069693194788,-0.7952960173236292,-1.5817249456988733,-3.0871501604663294
-0.8563368956195276,-2.512355152760641,-1.3606112639056605,-0.7956193129168909,-1.5815933386432093,-3.085940424595968
-0.8575595060931605,-2.5126660505877894,-1.3599870840655726,-0.7959311644183558,-1.5817249456988733,-3.0846827665912073
-0.8601239363299769,-2.5132654348956507,-1.3587034384356897,-0.7966144720660608,-1.5816291014300745,-3.0821920076953333
-0.8614061514483851,-2.5135768095599573,-1.3580430189715784,-0.7969263235675257,-1.581473175679342,-3.0809107462512415
-0.862652603779928,-2.513864819203512,-1.3574312368976038,-0.7972143332110804,-1.5814855734454554,-3.0796051661120813
-0.8638623396502894,-2.5141881147967737,-1.3567598501788538,-0.7975142637835901,-1.5814974943744105,-3.078347984944479
-0.866439167653219,-2.514775101338522,-1.355499569569723,-0.7981494108783167,-1.5814254919635218,-3.075857226048605
-0.8676736990558069,-2.5150864760028284,-1.354828182850973,-0.7984374205218714,-1.5812695662127894,-3.0745399633990687
-0.8689435164081019,-2.515421692525045,-1.3541796843158167,-0.7986767927752894,-1.581329647694723,-3.0733423868762415
-0.8701780478106897,-2.515721623097555,-1.3534839789019983,-0.7990129629718226,-1.5812814871417444,-3.07213265100588
-0.8727305571185511,-2.516332451497213,-1.3521760145770472,-0.7996962706195276,-1.5812457243548792,-3.06960636774172
-0.8739646116839808,-2.5167039076434534,-1.3515284697162073,-0.8000438849078577,-1.5811498800860804,-3.068420712147848
-0.8752473036395472,-2.5169556776629847,-1.3508685270892542,-0.8003314177142542,-1.5810540358172815,-3.0670791308032435
-0.8764808813678187,-2.517327133809225,-1.3502205053912562,-0.8005955854998987,-1.5811017195331019,-3.065810267125265
-0.8790343443499964,-2.5179136435138147,-1.3489607016192835,-0.8011944929706019,-1.581005875264303,-3.063366953526632
-0.8802440802203577,-2.5182374159442347,-1.348288361226217,-0.8015430609332483,-1.5809338728534144,-3.0620737711535853
-0.8815868536578577,-2.5185607115374964,-1.3476408163653772,-0.801854435597555,-1.5808141867267054,-3.0607805887805384
-0.8828566710101526,-2.518848721181051,-1.3469808737384241,-0.8021543661700647,-1.5809100309955042,-3.059571091328756
-0.8853614966021937,-2.519447151814596,-1.3456972281085413,-0.8027537504779261,-1.5808141867267054,-3.057044569646017
-0.8866198698626917,-2.5197227636920374,-1.3450973669635218,-0.8031252066241663,-1.580766503010885,-3.055774990712301
-0.8878658453570765,-2.520022694264547,-1.3444731871234339,-0.8035090605365198,-1.5806105772601526,-3.054577414189474
-0.8891003767596644,-2.520358387623922,-1.343825642262594,-0.8037613073932093,-1.580766503010885,-3.0533316771136683
-0.8916648069964808,-2.520944897328512,-1.3425291220294397,-0.8043845335589808,-1.580550495778219,-3.0508292357074183
-0.8929351011859339,-2.5213163534747522,-1.3418334166156214,-0.8046839872943323,-1.5805743376361292,-3.0495837370501917
-0.8942173163043421,-2.521604363118307,-1.341222111378805,-0.8049839178668421,-1.5804064909564417,-3.0483740011798304
-0.89545184770693,-2.5219152609454554,-1.3405497709857386,-0.8053553740130823,-1.5805266539203089,-3.0470572153674524
-0.8979323546039026,-2.522526566182272,-1.3392413298236292,-0.8059070746051233,-1.580454174672262,-3.0446019808398646
-0.8992026487933558,-2.5228503386126917,-1.3385580221759241,-0.8062189261065882,-1.5801785627948206,-3.0433808008777063
-0.9004729429828089,-2.5231497923480433,-1.337898079548971,-0.806530777608053,-1.5802987257586878,-3.0421233812915247
-0.9017675558673304,-2.52346116701235,-1.3372257391559046,-0.8069022337542933,-1.5800946394549769,-3.040853802357809
-0.9042838255511683,-2.524036232625143,-1.3359063307391565,-0.8075135389911097,-1.5800946394549769,-3.038363043461935
-0.9055059591876429,-2.5243352095233362,-1.3352702299701136,-0.8077295462237757,-1.5799511114703577,-3.0371177832232874
-0.9067524115191858,-2.5247190634356897,-1.3345983664142054,-0.8080413977252405,-1.5800350348102015,-3.03584868112673
-0.9079988638507288,-2.5250185171710413,-1.3339741865741175,-0.8083651701556605,-1.5798552672015589,-3.0346389452563685
-0.9105389753924769,-2.5256059805499476,-1.3326543013202112,-0.809000317250387,-1.5797832647906702,-3.0321720282184046
-0.9118698279010218,-2.525893513356344,-1.331970516835348,-0.8093364874469202,-1.5797351042376917,-3.0308788458453577
-0.9131158033954065,-2.5262168089496058,-1.3313348929034632,-0.8096120993243616,-1.5797713438617151,-3.0296693483935755
-0.9144223372088831,-2.526491943989889,-1.3306267897235315,-0.8099835554706019,-1.5796154181109827,-3.0284720102893274
-0.9169748465167444,-2.5271270910846155,-1.3292468229876917,-0.8106077353106897,-1.579531494771139,-3.0259810129748743
-0.9183171431170862,-2.527402702962057,-1.328623119984762,-0.8109310309039515,-1.579651180897848,-3.024759594594137
-0.9196112791644495,-2.527750317250387,-1.3279507795916956,-0.8111828009234827,-1.579543415700094,-3.0235381762133997
-0.9208458105670374,-2.5280259291278284,-1.3272669951068323,-0.8114827314959925,-1.5794475714312952,-3.022269074116842
-0.9234703222857874,-2.5286491552936,-1.325923267995016,-0.8121297995196741,-1.5793636480914515,-3.019670311604635
-0.9247883001910608,-2.5289958159076136,-1.3252275625811976,-0.8124778906451624,-1.5794356505023401,-3.0184012095080774
-0.9260466734515589,-2.529271427785055,-1.3246033827411097,-0.8127296606646937,-1.5793159643756312,-3.0171194712268274
-0.9273532072650355,-2.52960712114443,-1.3238595167743128,-0.8130415121661585,-1.5793398062335413,-3.0158143679248255
-0.9298937956439417,-2.5302661100970667,-1.3226593176471155,-0.8137729803668421,-1.5791838804828089,-3.013275686894552
-0.9311516920672815,-2.5305774847613733,-1.321939770375387,-0.8141086737262171,-1.5792558828936976,-3.0120182673083704
-0.932446304951803,-2.5309012571917933,-1.3213275114642542,-0.8143962065326136,-1.5791719595538538,-3.0107131640063685
-0.9336803595172327,-2.5311768690692347,-1.3206561247455042,-0.8147080580340784,-1.5790641943561,-3.009491507207052
-0.9361489454852503,-2.5318592230426233,-1.319455925618307,-0.8153317610370081,-1.578944508229391,-3.0070605913745325
-0.9374316374408167,-2.53214675584902,-1.3187721411334437,-0.815643612538473,-1.5790403524981897,-3.005827013646261
-0.9386661688434046,-2.5324705282794397,-1.3181727568255823,-0.8159192244159144,-1.5790041128741663,-3.004641596470968
-0.9398406187640589,-2.5328062216388147,-1.317524258290426,-0.816230599080221,-1.5788605848895472,-3.003408495579855
-0.9422972838031214,-2.533393208180563,-1.31622821489443,-0.8168066183673304,-1.5787647406207483,-3.0009895006762903
-0.9435432592975062,-2.5337165037738245,-1.3155925909625452,-0.8171899954425257,-1.5788844267474573,-2.9997199217425745
-0.9446943441974085,-2.5340397993670862,-1.3149808088885706,-0.8174660841571253,-1.5787766615497034,-2.9985345045672815
-0.9459760824786585,-2.534363094960348,-1.314369026814596,-0.81775409380068,-1.5786564985858362,-2.9973252455340784
-0.9483254591571253,-2.534950558339254,-1.3131325880633753,-0.818329159413473,-1.578501049672262,-2.994906489049093
-0.9495599905597132,-2.5352981726275843,-1.3125084082232874,-0.8186286131488245,-1.578632656727926,-2.993744675313131
-0.9507821241961878,-2.535609547291891,-1.3118727842914026,-0.8189166227923792,-1.5785248915301722,-2.9925230185138147
-0.951944653187887,-2.5358970800982874,-1.311249081288473,-0.8192046324359339,-1.578489128743307,-2.991349760686056
-0.9544013182269495,-2.536556069050924,-1.3100011984454554,-0.8197076956378382,-1.5783332029925745,-2.9889426867114466
-0.9555757681476038,-2.536891762410299,-1.3093169371234339,-0.8199723402606409,-1.578393284474508,-2.9877215067492884
-0.9567864576922815,-2.5371668974505823,-1.3087528387652796,-0.8203437964068812,-1.5782135168658655,-2.986487929021017
-0.9579728285418909,-2.537478272114889,-1.3081653753863733,-0.820679012929098,-1.578296963368551,-2.985314432774679
-0.9604414145099085,-2.538065735493795,-1.3068812529193323,-0.8212788740741175,-1.5781415144549769,-2.9828956762896937
-0.9617002646075647,-2.538365189229147,-1.3062456289874476,-0.8215544859515589,-1.5782254377948206,-2.981650416051046
-0.962898079548971,-2.5386646429644983,-1.3055971304522913,-0.8218777815448206,-1.5780094305621546,-2.980440680180685
-0.9640968481646937,-2.538964573537008,-1.304925266896383,-0.8222025076495569,-1.5781295935260218,-2.979278866444723
-0.9665415922748011,-2.539527241383688,-1.3036654631244105,-0.822789494191305,-1.5779135862933558,-2.9768720308886927
-0.967776123677389,-2.539802376423971,-1.3030179182635706,-0.8230655829059046,-1.5780094305621546,-2.9756150881396692
-0.9689624945269983,-2.5401023069964808,-1.3023937384234827,-0.8233893553363245,-1.5778539816485804,-2.974429432545797
-0.970161263142721,-2.540461842213766,-1.3017218748675745,-0.8237488905536097,-1.5779255072223108,-2.9732916990863245
-0.972569767628805,-2.5409892241107386,-1.300497833882467,-0.8243601957904261,-1.5777581373797815,-2.9709327856646937
-0.9737327734576624,-2.541300598775045,-1.2998741308795374,-0.8246362845050257,-1.5779135862933558,-2.9698551336871546
-0.9748948256122034,-2.541635815297262,-1.2992618719684046,-0.8248761335956019,-1.5777457396136683,-2.968717400227682
-0.9760335127459925,-2.5418995062457483,-1.2987578550921839,-0.8251641432391565,-1.577709976826803,-2.9676037470446985
-0.9782388846026819,-2.542414967213766,-1.2975824514972132,-0.8257392088519495,-1.5776498953448694,-2.965543810521261
-0.979281250630514,-2.5427377859698694,-1.2970665136920374,-0.8259666601764124,-1.5777338186847132,-2.9645140806781214
-0.9803121725665491,-2.5429657141314905,-1.2965148130999964,-0.8262303511248987,-1.577721897755758,-2.9635563532458704
-0.9813187758075159,-2.543217484151022,-1.296070400868551,-0.8264945189105433,-1.5775540510760706,-2.9625144640551966
-0.9832127729998987,-2.543720547352926,-1.2950742880450647,-0.8269503752337855,-1.5775302092181605,-2.9606943766223353
-0.9840872923480433,-2.543936554585592,-1.2946065107928675,-0.827249828969137,-1.5774458090411585,-2.959832255040304
-0.9849618116961878,-2.5441520849811,-1.2941744963275355,-0.8275020758258265,-1.5775540510760706,-2.958874050770895
-0.9858134428607386,-2.5443313757525843,-1.2937186400042933,-0.8276937643634241,-1.5773380438434046,-2.9579883257495325
-0.9873827139483851,-2.544762913380758,-1.2929027716266077,-0.8280532995807093,-1.5774338881122034,-2.9564552942859095
-0.9881261030780237,-2.544894520436422,-1.2925308386432093,-0.8282092253314417,-1.5772421995746058,-2.9556646982776087
-0.9888570944415491,-2.545098606740133,-1.292074982319967,-0.8283408323871058,-1.5773618857013147,-2.9549105803119105
-0.9895642439471644,-2.5452778975116175,-1.2917388121234339,-0.8284848372088831,-1.577266041432516,-2.9541803042041224
-0.9909666220294397,-2.5456135908709925,-1.2910426298724573,-0.828808609639303,-1.5773261229144495,-2.952826801930563
-0.9916017691241663,-2.545780960713522,-1.2906349341021937,-0.8290122191058558,-1.577170197163717,-2.952156368886129
-0.9922249952899378,-2.545913044606344,-1.2903350035296839,-0.829132382069723,-1.5772541205035608,-2.9514859358416956
-0.9928601423846644,-2.5460928122149866,-1.2899993101703089,-0.8293841520892542,-1.577170197163717,-2.9508512655841272
-0.9940465132342737,-2.5464404265033167,-1.289375130330221,-0.8296483198748987,-1.5771821180926722,-2.949665609990255
-0.994765583668844,-2.546583954487936,-1.2890632788287562,-0.8297680060016077,-1.5770743528949183,-2.949019257222311
-0.9953649679767054,-2.5467637220965784,-1.288750950490133,-0.8299716154681605,-1.5770743528949183,-2.9483962694751185
-0.9959762732135218,-2.5469558874713343,-1.2883790175067347,-0.8300798575030726,-1.5770862738238733,-2.947773520146505
-0.9972108046161097,-2.5472310225116175,-1.2877791563617151,-0.8303912321673792,-1.5770862738238733,-2.9465163389789026
-0.9978941122638147,-2.547422711049215,-1.287442986165182,-0.8306553999530237,-1.5769308249102991,-2.945953432713644
-0.9984810988055628,-2.5475662390338343,-1.2871077696429651,-0.830703083668844,-1.577050511037008,-2.9453190008746546
-0.9991281668292444,-2.5477221647845667,-1.2867830435382288,-0.8310030142413538,-1.5769065062152308,-2.944660250340597
-1.0003989378558558,-2.5480216185199183,-1.2861111799823206,-0.8312905470477503,-1.5769546667682093,-2.94334322610964
-1.0010340849505823,-2.548213307057516,-1.2857754866229456,-0.8312667051898401,-1.5767987410174769,-2.942744318638937
-1.001716438923971,-2.5484049955951136,-1.2854512373553675,-0.8315427939044397,-1.5769308249102991,-2.94203764597048
-1.0024235884295862,-2.548572842274801,-1.285079304371969,-0.8315308729754847,-1.5767868200885218,-2.941355291997091
-1.0037902037249964,-2.5488842169391077,-1.284407917653219,-0.8318904081927698,-1.5768349806415003,-2.9400261084186
-1.0044973532306116,-2.54904014268984,-1.2840593496905726,-0.832130257283346,-1.576714817677633,-2.939343516026632
-1.0051925818072718,-2.549243752156393,-1.2837231794940394,-0.8322141806231897,-1.576810661946432,-2.9386606852160853
-1.0058515707599085,-2.549375836049215,-1.2833994070636194,-0.8324654738055628,-1.5766308943377894,-2.9379666487323206
-1.0073135534869593,-2.5496752897845667,-1.2827156225787562,-0.8328374067889612,-1.5766189734088343,-2.936517302189962
-1.0079730192767542,-2.549843136464254,-1.282368008290426,-0.8329694906817835,-1.5766070524798792,-2.935894552861349
-1.0086682478534144,-2.54995042482485,-1.2820194403277796,-0.8331492582904261,-1.5766070524798792,-2.9352601210223597
-1.0092671553241175,-2.5501421133624476,-1.2816832701312464,-0.8332331816302698,-1.5764630476581019,-2.9346018473254603
-1.010573689137594,-2.5504301230060022,-1.2810118834124964,-0.8335207144366663,-1.576379124318258,-2.933308188115255
-1.0111249128924769,-2.550537888203756,-1.2806995550738733,-0.8337729612933558,-1.5765112082110804,-2.9327216784106653
-1.011712376271383,-2.5507171789752405,-1.2803762594806116,-0.8338568846331995,-1.5764392058001917,-2.9321587721454065
-1.012263600026266,-2.5508368651019495,-1.2800400892840784,-0.8341324965106409,-1.5763314406024378,-2.9315479437457483
-1.01341420808901,-2.551124874745504,-1.2794039885150355,-0.8344443480121058,-1.5763433615313929,-2.9304586092578333
-1.0139654318438929,-2.551220719014303,-1.2791040579425257,-0.8345521132098597,-1.5764511267291468,-2.9298837820636194
-1.0144684950457972,-2.5514004866229456,-1.278804127370016,-0.8347561995135706,-1.5764392058001917,-2.92939263979067
-1.0149725119220179,-2.5515320936786097,-1.2785161177264612,-0.8347800413714808,-1.5763075987445276,-2.9289377371417444
-1.0161226431476038,-2.5517600218402308,-1.2780240217791956,-0.8349598089801233,-1.5763195196734827,-2.927823845540182
-1.016590420399801,-2.5518797079669397,-1.2777121702777308,-0.8351276556598108,-1.5763314406024378,-2.927357021962301
-1.0170334021197718,-2.5519636313067835,-1.2775443235980433,-0.8350794951068323,-1.576379124318258,-2.9269259611712855
-1.0175612608539026,-2.552143398915426,-1.2772558371173304,-0.8352955023394983,-1.5761874357806605,-2.9264588991748255
-1.018411938344137,-2.5523231665240687,-1.2768362204181116,-0.8353913466082972,-1.5762832800494593,-2.9256442228900355
-1.0188310782061976,-2.5524309317218226,-1.2766202131854456,-0.8355949560748499,-1.5761635939227503,-2.9252496401416224
-1.0191906134234827,-2.552526299153463,-1.2764280478106897,-0.8355711142169397,-1.5762832800494593,-2.9247944990741175
-1.0195983091937464,-2.552634064351217,-1.2762001196490687,-0.8358233610736292,-1.5761993567096155,-2.9244471232043665
-1.02032977739443,-2.552838150654928,-1.275792423878805,-0.8358948866473597,-1.5762713591205042,-2.9237046877490442
-1.0206649939166468,-2.552922073994772,-1.2756245771991175,-0.8360269705401819,-1.5761035124408167,-2.923321310673849
-1.0210846106158655,-2.5529935995685022,-1.2754438559161585,-0.8360865751849573,-1.576127831135885,-2.922950092946188
-1.0213964621173304,-2.5531018416034144,-1.275276009236471,-0.8362906614886683,-1.5762236754046839,-2.9225552717791956
-1.0220430533038538,-2.5532334486590784,-1.274928394948141,-0.8365185896502894,-1.5762117544757288,-2.922028366719381
-1.0223549048053187,-2.553317371998922,-1.2747605482684534,-0.836470905934469,-1.5761755148517054,-2.9217167536364954
-1.0226543585406702,-2.5534489790545862,-1.274616543446676,-0.8366144339190882,-1.5760439077960413,-2.9213696161853235
-1.022966210042135,-2.5534728209124964,-1.2744720617877405,-0.8365662733661097,-1.5761874357806605,-2.9210341612445276
-1.023529354725973,-2.5536168257342737,-1.2741606871234339,-0.8367703596698206,-1.5761993567096155,-2.9205074946032923
-1.0237692038165491,-2.553652588521139,-1.2740519682513636,-0.8367341200457972,-1.5761755148517054,-2.920267883931295
-1.0240805784808558,-2.5537245909320276,-1.273884121571676,-0.8368423620807093,-1.576019589100973,-2.9199686686145228
-1.0243085066424769,-2.5537965933429163,-1.273764435444967,-0.8369625250445765,-1.576235596333639,-2.919741455708639
-1.0248120466815394,-2.5538561979876917,-1.2735241095172327,-0.837130371724264,-1.5760915915118616,-2.919274393712179
-1.025015656148092,-2.5539401213275355,-1.273440186177389,-0.836914364491598,-1.5761635939227503,-2.9190946261035364
-1.0252555052386683,-2.5539639631854456,-1.27332050005068,-0.837130371724264,-1.5759957472430628,-2.9188547770129603
-1.025459114705221,-2.553988281880514,-1.273224178944723,-0.8370941321002405,-1.576127831135885,-2.9187234083758753
-1.025806728993551,-2.554119888936178,-1.2730324904071253,-0.8371899763690394,-1.5759957472430628,-2.9183879534350794
-1.0259745756732386,-2.554131809865133,-1.2729366461383265,-0.8372738997088831,-1.5761635939227503,-2.9181485811816614
-1.026130501423971,-2.5541561285602015,-1.2728641668902796,-0.8372381369220179,-1.5759838263141077,-2.918100659047262
-1.02625018755068,-2.5541918913470667,-1.2728403250323694,-0.8374179045306605,-1.5760319868670862,-2.917884890233175
-1.026489559804098,-2.5542638937579554,-1.2727206389056605,-0.8375733534442347,-1.575911823903219,-2.9177051226245325
-1.0265615622149866,-2.5542519728290003,-1.2727082411395472,-0.8373940626727503,-1.5760677496539515,-2.917586151753561
-1.0266574064837855,-2.5542758146869105,-1.2726243177997034,-0.8376572767840784,-1.5759599844561976,-2.917490069066183
-1.0267294088946741,-2.554335896168844,-1.2726600805865687,-0.8375018278705042,-1.5759361425982874,-2.9174183050738733
-1.0267532507525843,-2.554347817097799,-1.2726119200335901,-0.837597672139303,-1.5759237448321741,-2.917394224797384
-1.0267651716815394,-2.5543234984027308,-1.2726119200335901,-0.8376815954791468,-1.5761035124408167,-2.9174183050738733
-1.0267532507525843,-2.5543234984027308,-1.2726481596576136,-0.8375256697284144,-1.5759957472430628,-2.917478148137228
-1.0267294088946741,-2.5543115774737757,-1.2726481596576136,-0.8375614325152796,-1.576019589100973,-2.917502228413717
-1.0266812483416956,-2.554347817097799,-1.2726481596576136,-0.8375733534442347,-1.5760319868670862,-2.917478148137228
-1.0267294088946741,-2.5543115774737757,-1.2726600805865687,-0.837585751210348,-1.5761035124408167,-2.9175260702716272
-1.0267170111285608,-2.5542877356158655,-1.2726720015155237,-0.8375375906573694,-1.5760677496539515,-2.917514149342672
-1.0267413298236292,-2.554335896168844,-1.2726720015155237,-0.837597672139303,-1.5760558287249964,-2.917490069066183
-1.0266931692706507,-2.5543115774737757,-1.2726362387286585,-0.837585751210348,-1.5760677496539515,-2.917490069066183
-1.0267050901996058,-2.5543234984027308,-1.2726481596576136,-0.837585751210348,-1.5761035124408167,-2.917478148137228
-1.0267170111285608,-2.554335896168844,-1.2726720015155237,-0.837585751210348,-1.5760796705829065,-2.9174662272082728
-1.0267294088946741,-2.554335896168844,-1.2726720015155237,-0.837585751210348,-1.5760796705829065,-2.917478148137228
-1.0267170111285608,-2.5543234984027308,-1.272696320210592,-0.837597672139303,-1.5760677496539515,-2.917514149342672
-1.0267294088946741,-2.554347817097799,-1.2726600805865687,-0.8375733534442347,-1.5760558287249964,-2.917502228413717
-1.0267294088946741,-2.5543234984027308,-1.2726481596576136,-0.837585751210348,-1.5760677496539515,-2.917502228413717
-1.0267532507525843,-2.554347817097799,-1.2726481596576136,-0.837597672139303,-1.5760558287249964,-2.917502228413717
-1.0267170111285608,-2.554359738026754,-1.2726243177997034,-0.8376095930682581,-1.5760558287249964,-2.9174662272082728
-1.0267294088946741,-2.554335896168844,-1.2726481596576136,-0.8375733534442347,-1.5760319868670862,-2.917478148137228
-1.0267170111285608,-2.554347817097799,-1.2726720015155237,-0.8376215139972132,-1.5760796705829065,-2.9174662272082728
-1.0267413298236292,-2.5543234984027308,-1.2726362387286585,-0.8376095930682581,-1.5760558287249964,-2.9175260702716272
-1.0267050901996058,-2.554335896168844,-1.2726362387286585,-0.8376095930682581,-1.5760319868670862,-2.917502228413717
-1.0267532507525843,-2.554335896168844,-1.2726243177997034,-0.8376696745501917,-1.5760439077960413,-2.917514149342672
-1.0267170111285608,-2.5543234984027308,-1.2726362387286585,-0.8376572767840784,-1.5760076681720179,-2.917478148137228
-1.0267294088946741,-2.5543234984027308,-1.2726481596576136,-0.8376815954791468,-1.576019589100973,-2.9174543062793177
-1.0267294088946741,-2.554347817097799,-1.2726600805865687,-0.8376935164081019,-1.5760076681720179,-2.9174421469317835
-1.0267294088946741,-2.5543234984027308,-1.2726600805865687,-0.8376935164081019,-1.5760076681720179,-2.917478148137228
-1.0266812483416956,-2.554335896168844,-1.2726600805865687,-0.8376572767840784,-1.5760319868670862,-2.917478148137228
-1.0266931692706507,-2.554335896168844,-1.2726362387286585,-0.8376334349261683,-1.5760677496539515,-2.917490069066183
-1.0266574064837855,-2.554335896168844,-1.2727206389056605,-0.837585751210348,-1.5760439077960413,-2.917586151753561
-1.0265615622149866,-2.5543115774737757,-1.2727564016925257,-0.8375614325152796,-1.5760558287249964,-2.917586151753561
-1.0265372435199183,-2.5543234984027308,-1.2727444807635706,-0.8375375906573694,-1.5760319868670862,-2.917586151753561
-1.026489559804098,-2.554359738026754,-1.2728403250323694,-0.8375733534442347,-1.576019589100973,-2.9177051226245325
-1.026238266621725,-2.5542996565448206,-1.2729724089251917,-0.8374536673175257,-1.5760319868670862,-2.917861048375265
-1.0260823408709925,-2.5543115774737757,-1.2730205694781702,-0.8373339811908167,-1.5760677496539515,-2.9179568926440638
-1.0259626547442835,-2.5542758146869105,-1.2730925718890589,-0.8373697439776819,-1.5760915915118616,-2.9180765787707728
-1.025806728993551,-2.554215733204977,-1.2731402556048792,-0.8373220602618616,-1.57611591020693,-2.918208424245016
-1.0253751913653772,-2.5541561285602015,-1.273332420979635,-0.8372381369220179,-1.5761397520648401,-2.9186514059649866
-1.0251835028277796,-2.554107968007223,-1.2734759489642542,-0.8372018972979944,-1.5761516729937952,-2.918926779423849
-1.0249798933612269,-2.554084126149313,-1.2735961119281214,-0.8370583693133753,-1.5761397520648401,-2.9191306273089808
-1.0246923605548304,-2.554024044667379,-1.2737162748919886,-0.8370822111712855,-1.5761635939227503,-2.9193697611438196
-1.0241764227496546,-2.55390435854067,-1.2740042845355433,-0.8368786017047327,-1.5761397520648401,-2.9199445883380335
-1.0239008108722132,-2.5538323561297815,-1.2741363684283655,-0.836914364491598,-1.5761755148517054,-2.9202798048602503
-1.0235655943499964,-2.553760353718893,-1.274304215108053,-0.8367703596698206,-1.5761635939227503,-2.920626942311422
-1.0232775847064417,-2.553628746663229,-1.2744477430926722,-0.8367703596698206,-1.5761635939227503,-2.9209147135363978
-1.0225828329669397,-2.5534489790545862,-1.2748563925372522,-0.8364947477923792,-1.576235596333639,-2.9216330687152308
-1.0221989790545862,-2.5533655325519007,-1.2750361601458948,-0.8364947477923792,-1.576235596333639,-2.9220643679248255
-1.0217798391925257,-2.5532572905169886,-1.2752521673785608,-0.8363507429706019,-1.5761874357806605,-2.922483507786886
-1.021360222493307,-2.5531137625323694,-1.2754438559161585,-0.8363269011126917,-1.576247517262594,-2.922854248677389
-1.020449463521139,-2.552922073994772,-1.2758758703814905,-0.8361108938800257,-1.576235596333639,-2.9237287680255335
-1.0200660864459437,-2.5528019110309046,-1.276116196309225,-0.8360746542560022,-1.5763075987445276,-2.924123827611105
-1.0196340719806116,-2.5527060667621058,-1.276344124470846,-0.8358233610736292,-1.5762713591205042,-2.924614731465475
-1.0191310087787073,-2.552586380635397,-1.2765963713275355,-0.8357632795916956,-1.5762956778155726,-2.92506987253298
-1.018195931111471,-2.552358929310934,-1.277099911366598,-0.8354752699481409,-1.5763075987445276,-2.9259918371783655
-1.0177047888385218,-2.552263085042135,-1.2773998419391077,-0.8352597395526331,-1.5764153639422815,-2.9264469782458704
-1.0172613302813929,-2.5521071592914026,-1.277628246937887,-0.8352234999286097,-1.5764034430133265,-2.9269138018237513
-1.0167940298663538,-2.5519636313067835,-1.2778680960284632,-0.835031811391012,-1.576379124318258,-2.927440945302145
-1.0157750288592737,-2.5517118612872522,-1.2783835569964808,-0.8348878065692347,-1.5764272848712366,-2.9283745924579065
-1.0152838865863245,-2.551580254231588,-1.2787078062640589,-0.8347080389605921,-1.5764873663531702,-2.9289017359363
-1.0147441069232386,-2.5514243284808558,-1.2789595762835901,-0.8347323576556605,-1.5764992872821253,-2.9294047991382044
-1.0142048040973108,-2.5512922445880335,-1.2792356649981897,-0.8344681898700159,-1.5765112082110804,-2.929931704198019
-1.0131505171405237,-2.551004711781637,-1.2798355261432093,-0.8342402617083948,-1.5765112082110804,-2.931033198033468
-1.012599293385641,-2.550885025654928,-1.280135456715719,-0.834144417439596,-1.5765469709979456,-2.9315839449511927
-1.0120475927936,-2.550777260457174,-1.2804597059832972,-0.833905045186178,-1.5766308943377894,-2.9321230093585413
-1.0115082899676722,-2.5505855719195765,-1.2807114760028284,-0.8337128798114222,-1.5766428152667444,-2.9327097574817103
-1.0103462378131312,-2.550309960042135,-1.2813718954669397,-0.8333647886859339,-1.5766552130328577,-2.933847252522604
-1.0097582975970667,-2.550166432057516,-1.281708065663473,-0.8331731001483362,-1.5767267386065882,-2.934470001851217
-1.0091593901263636,-2.5500343481646937,-1.2819955984698694,-0.8330052534686487,-1.5768349806415003,-2.935032908116476
-1.0085724035846155,-2.549866501485006,-1.2823198477374476,-0.8328374067889612,-1.5767868200885218,-2.9356077353106897
-1.0073617140399378,-2.549567524586813,-1.2829673925982874,-0.8324897925006312,-1.5767386595355433,-2.936805073414938
-1.0067504088031214,-2.549459759389059,-1.2833154837237757,-0.832369629536764,-1.576810661946432,-2.937427822743551
-1.00612718263735,-2.5492919127093714,-1.2836993376361292,-0.832130257283346,-1.5769308249102991,-2.938158098851339
-1.0055039564715784,-2.549147907887594,-1.2839873472796839,-0.8319743315326136,-1.5768588224994105,-2.938744608555929
-1.004185978566305,-2.5488365332232874,-1.2847073713885706,-0.8316028753863733,-1.5769184271441858,-2.9400740305529993
-1.0034907499896448,-2.5486329237567347,-1.2849834601031702,-0.831374470387594,-1.5770624319659632,-2.940744702016012
-1.0027955214129847,-2.548440758381979,-1.2853673140155237,-0.8312667051898401,-1.5769904295550745,-2.941474739705221
-1.0021241346942347,-2.5482733885394495,-1.2856910864459437,-0.831026856099264,-1.5770743528949183,-2.9421454111682337
-1.0008061567889612,-2.547878090535299,-1.2864111105548304,-0.830703083668844,-1.5770743528949183,-2.9435108343707483
-1.0000508467303675,-2.5477102438556116,-1.2868073622332972,-0.8306072394000452,-1.5772302786456507,-2.944205347691671
-0.9994037787066858,-2.547518555318014,-1.287119213734762,-0.830367390309469,-1.5771225134478968,-2.9448755423175257
-0.9987085501300257,-2.5473387877093714,-1.2874911467181605,-0.8302114645587366,-1.577266041432516,-2.945594374333517
-0.9972942511187952,-2.5469558874713343,-1.288295094166891,-0.8297680060016077,-1.577170197163717,-2.947066847478048
-0.9965394178973597,-2.5467761198626917,-1.2886551062213343,-0.8295524756060999,-1.5773618857013147,-2.9477976004229944
-0.9957965056048792,-2.5465481917010706,-1.2890389601336878,-0.8293722311602991,-1.5771821180926722,-2.9485281149493616
-0.9950411955462855,-2.546356503163473,-1.289482895527975,-0.8291924635516565,-1.5773261229144495,-2.949282471333639
-0.9935672918902796,-2.5459731260882776,-1.2902749220477503,-0.8287485281573694,-1.5772541205035608,-2.950719420109884
-0.9927881399737757,-2.5457332769977015,-1.2905986944781702,-0.8284371534930628,-1.5774338881122034,-2.9514620939837855
-0.9919970671283167,-2.5455177466021937,-1.2910426298724573,-0.828256909047262,-1.5773981253253382,-2.9523001352893274
-0.9912779966937464,-2.545337978993551,-1.291546646748678,-0.8280413786517542,-1.5773499647723597,-2.9531143347369593
-0.9896963278399866,-2.5449546019183558,-1.2923267523394983,-0.8277176062213343,-1.5773738066302698,-2.9546592871295374
-0.988964859639303,-2.544762913380758,-1.2927468458758753,-0.8275259176837366,-1.577493969594137,-2.95542556444277
-0.9881742636310022,-2.5445712248431605,-1.2932503859149378,-0.827346150075094,-1.5775659720050257,-2.956179682408468
-0.9873588720904749,-2.5443676153766077,-1.2936824003802698,-0.8271659056292933,-1.577482048665182,-2.9570303598987024
-0.9857772032367151,-2.5439723173724573,-1.2945941130267542,-0.826698128377096,-1.5776022116290491,-2.9585748354541224
-0.9850218931781214,-2.5437567869769495,-1.2950385252581995,-0.826446835194723,-1.5775421301471155,-2.9594011942492884
-0.9841230551349085,-2.543588940297262,-1.295422379170553,-0.8261945883380335,-1.577721897755758,-2.9602513949023646
-0.9833563009845179,-2.543361012135641,-1.295854393635885,-0.8259909788714808,-1.577578369771139,-2.9610300699817103
-0.9817259947406214,-2.5429895559894007,-1.2967303434955042,-0.8255952040301722,-1.577709976826803,-2.962694231663839
-0.9808395544635218,-2.542774025593893,-1.2971861998187464,-0.8253315130816858,-1.5776260534869593,-2.9635444323169153
-0.9800122419940394,-2.5426180998431605,-1.2975824514972132,-0.8251398245440882,-1.5777939001666468,-2.964334551488058
-0.9791258017169397,-2.5423787275897425,-1.2980621496783655,-0.8248761335956019,-1.577721897755758,-2.9652207533465784
-0.9773758093463343,-2.5419233481036585,-1.2990220228778284,-0.8243964354144495,-1.5778778235064905,-2.966957394276754
-0.976417366658346,-2.5416958967791956,-1.2995260397540491,-0.8241565863238733,-1.5777581373797815,-2.9678669611560267
-0.9755180517779749,-2.541504208241598,-1.2999938170062464,-0.8239763418780726,-1.5779736677752894,-2.9687653223620813
-0.9745472113238733,-2.5412166754352015,-1.3004620710956019,-0.8236888090716761,-1.5778659025775355,-2.9697113672839563
-0.9724858442889612,-2.5407493750201624,-1.3015177885638636,-0.8231137434588831,-1.578033749257223,-2.9717233816729944
-0.9714315573321741,-2.540449921284811,-1.302093807850973,-0.8228495756732386,-1.5779736677752894,-2.9728131929980677
-0.970412556325094,-2.5402219931231897,-1.3026936689959925,-0.8225620428668421,-1.5782254377948206,-2.973830525075094
-0.9693101088153284,-2.539922539387838,-1.303281609212057,-0.8222983519183558,-1.578045670186178,-2.9749563376056116
-0.9670808951007288,-2.53933555284609,-1.3044098059283655,-0.8217223326312464,-1.5782135168658655,-2.9772074858294886
-0.9658945242511194,-2.5390480200396937,-1.3050578276263636,-0.8213747183429163,-1.5782135168658655,-2.9783931414233606
-0.9646843115435999,-2.538760487233297,-1.3056815306292933,-0.8210151831256312,-1.5784052054034632,-2.979650084172384
-0.9635217825519007,-2.5384252707110804,-1.3063414732562464,-0.8207510153399866,-1.5783212820636194,-2.980931584035055
-0.9609573523150843,-2.537813965474264,-1.307709042225973,-0.8201516310321253,-1.5784767309771937,-2.983542267476217
-0.9597228209124964,-2.5375145117389124,-1.308441464100973,-0.8197320143329065,-1.5784648100482386,-2.9848595301257532
-0.9584162870990198,-2.5371788183795374,-1.3090770880328577,-0.8193963209735315,-1.5786808172809046,-2.9861527124988
-0.9571097532855433,-2.5368674437152308,-1.3097975889789026,-0.8190725485431116,-1.578608814870016,-2.987553660069601
-0.954437557850973,-2.5362685362445276,-1.3112009207354944,-0.8184130827533167,-1.5788124243365687,-2.990199867879049
-0.9530471006976526,-2.5359090010272425,-1.3118847052203577,-0.818005386983053,-1.578848663960592,-2.9916134516345423
-0.9516690413104456,-2.535597626362936,-1.312652889882223,-0.8176458517657679,-1.5789802710162562,-2.9929421583758753
-0.9503148237811487,-2.5352500120746058,-1.3133123556720179,-0.8172619978534144,-1.5788605848895472,-2.9942477385150355
-0.9476302305804651,-2.5345428625689905,-1.3147285620318812,-0.8165543715106409,-1.5790160338031214,-2.9969778696643274
-0.946240250264303,-2.5341838041888636,-1.3154366652118128,-0.8161829153644007,-1.5790284315692347,-2.9982832113849085
-0.9448741118060511,-2.5338123480426233,-1.3161681334124964,-0.8157995382892054,-1.5792439619647425,-2.999636475239889
-0.9434836546527308,-2.5334532896624964,-1.316876236592428,-0.8154276053058069,-1.5791481176959437,-3.000953499470846
-0.9407995382892054,-2.532746140156881,-1.3183401266681116,-0.8146603743182581,-1.579292122517721,-3.0036357084857386
-0.939516846333639,-2.532410446797506,-1.3190234343158167,-0.8143122831927698,-1.5792320410357874,-3.0050011316882532
-0.9382346312152308,-2.5320990721331995,-1.319683853779928,-0.8139408270465296,-1.57941180864443,-3.0062943140613
-0.9370000998126429,-2.531811539326803,-1.3203795591937464,-0.8136532942401331,-1.5793517271624964,-3.007575575505392
-0.9344714323626917,-2.5311530272113245,-1.321735684071676,-0.81299335161318,-1.5795677343951624,-3.010066334401266
-0.9332011381732386,-2.5308411757098597,-1.322371784840719,-0.8125975767718714,-1.579399887715475,-3.0113239924060267
-0.9320510069476526,-2.5305655638324183,-1.323019806538717,-0.8123095671283167,-1.5796273390399378,-3.012545410786764
-0.9307807127581995,-2.5302661100970667,-1.3237035910235804,-0.8120101133929651,-1.5796273390399378,-3.013766590748922
-0.9284318129168909,-2.5296910444842737,-1.3249991575824183,-0.8114107290851038,-1.5797713438617151,-3.0161619822131556
-0.9272330443011683,-2.529403034840719,-1.3255756537066858,-0.8110750357257288,-1.5796392599688929,-3.0173233191119593
-0.9260347525226038,-2.5290916601764124,-1.326258961354391,-0.8107155005084437,-1.5798910299884241,-3.0185444990741175
-0.9248483816729944,-2.528804127370016,-1.3268473784076136,-0.8104518095599573,-1.5797951857196253,-3.019694153462545
-0.9224875609027308,-2.528217617665426,-1.3281429449664515,-0.809875790272848,-1.579986874257223,-3.022053305302755
-0.9213131109820765,-2.5279181639300745,-1.3288028875934046,-0.8095162550555628,-1.5799391905414026,-3.0232389608966272
-0.9201267401324671,-2.52763015428652,-1.3294151465045374,-0.8091924826251429,-1.5802267233477991,-3.0244482199298304
-0.9189403692828577,-2.527294937764303,-1.3301108519183558,-0.808868710194723,-1.5800707975970667,-3.025562111531393
-0.9165318647967737,-2.526707474385397,-1.3313949743853968,-0.8082335630999964,-1.5802868048297327,-3.02795654932131
-0.9153326193438929,-2.52639609972109,-1.3320429960833948,-0.8078253904925745,-1.5802744070636194,-3.029154364262716
-0.9141228834735315,-2.5260732809649866,-1.332726780568258,-0.8074777762042444,-1.5804665724383753,-3.0302920977221888
-0.9129002729998987,-2.525761429463522,-1.333374325429098,-0.8071540037738245,-1.5803583304034632,-3.0315497557269495
-0.910407845173971,-2.525222126637594,-1.3347185293780726,-0.8066147009478968,-1.5805743376361292,-3.0340042749988
-0.9090655485736292,-2.5248988310443323,-1.3353660742389124,-0.8062432448016565,-1.5805266539203089,-3.035309616719381
-0.9078190962420862,-2.5245869795428675,-1.3360140959369105,-0.8058350721942347,-1.5807183424579065,-3.036602799092428
-0.9065130392657679,-2.524275604878561,-1.336722199116842,-0.8054631392108362,-1.5806463400470179,-3.037895981465475
-0.9039838949786585,-2.5236409346209925,-1.3380897680865687,-0.8048041502581995,-1.5808022657977503,-3.0405662695514124
-0.9026420752154749,-2.5233057180987757,-1.3387616316424769,-0.8044803778277796,-1.5806945005999964,-3.0418599287616175
-0.9013355414019983,-2.5229581038104456,-1.339410130177633,-0.8040965239154261,-1.5808981100665491,-3.043213431035177
-0.9000533262835901,-2.5226104895221155,-1.3401415983783167,-0.8037613073932093,-1.5808380285846155,-3.0445779005633753
-0.8973811308490198,-2.521963421498434,-1.3414977232562464,-0.8031013647662562,-1.5810301939593714,-3.0472846666919153
-0.8960865179644983,-2.521628204976217,-1.342217747365133,-0.802741829548971,-1.580886189137594,-3.0485897699939173
-0.8947327772723597,-2.521280590687887,-1.3429372946368616,-0.8023579756366175,-1.5810540358172815,-3.0499311129199427
-0.893414322529928,-2.520932976399557,-1.3436091581927698,-0.8019984404193323,-1.5810659567462366,-3.051248375569479
-0.8908379713641565,-2.52025014558901,-1.34503680864443,-0.8013151327716272,-1.5812695662127894,-3.0538466612445276
-0.889508072529928,-2.5198667685138147,-1.3456972281085413,-0.800967041646139,-1.581113640462057,-3.0550323168383997
-0.8882373015033167,-2.5195191542254847,-1.3463805357562464,-0.8005836645709437,-1.5812695662127894,-3.056349817906515
-0.8869312445269983,-2.519207779561178,-1.3470891157733362,-0.8002594153033655,-1.5813058058368128,-3.057702604924337
-0.8843305746661585,-2.5185731093036097,-1.3484085241900843,-0.7996605078326624,-1.5814855734454554,-3.0601938406573694
-0.8830845991717737,-2.5182493368731897,-1.349116627370016,-0.7993128935443323,-1.581353489552633,-3.0614634195910853
-0.8818143049823206,-2.517949883137838,-1.349776569996969,-0.7988808790790003,-1.581473175679342,-3.062756125126974
-0.8805559317218226,-2.5176027456866663,-1.350424591694967,-0.7985690275775355,-1.5815694967852991,-3.0640257040606897
-0.8780148665057581,-2.51701528230776,-1.3517802397357386,-0.7980054060565394,-1.581677261983053,-3.0666125456439417
-0.8767569700824183,-2.516740147267477,-1.3524163405047815,-0.7976577917682093,-1.5816291014300745,-3.0679057280169886
-0.875462834035055,-2.516392532979147,-1.3531001249896448,-0.7972982565509241,-1.5817611853228968,-3.069115225468771
-0.8742044607745569,-2.5161050001727503,-1.35386830965151,-0.7969263235675257,-1.5818927923785608,-3.0703964869128626
-0.8717601935016077,-2.5154579321490687,-1.3551276365863245,-0.7963150183307093,-1.582024876271383,-3.0728514830218714
-0.8705371061908167,-2.515134636555807,-1.355823818837301,-0.7959788481341761,-1.5819767157184046,-3.0740609804736536
-0.8693154493915003,-2.514787022267477,-1.356471363698141,-0.795631233845846,-1.582024876271383,-3.075294319783346
-0.8680928389178675,-2.51447564760317,-1.3571675459491175,-0.7952597776996058,-1.582132641469137,-3.076575819646017
-0.8655880133258265,-2.5138285795794886,-1.3585594336139124,-0.7946723143206995,-1.5821922461139124,-3.0790308157550257
-0.864354435597555,-2.513529125844137,-1.3592188994037073,-0.7943242231952112,-1.5821803251849573,-3.0802999178515833
-0.8631318251239222,-2.513205353413717,-1.3598788420306605,-0.7939289251910608,-1.5822046438800257,-3.081569496785299
-0.8618853727923792,-2.5128939787494105,-1.3605149427997034,-0.7935569922076624,-1.582372013722555,-3.082754913960592
-0.8594172636615198,-2.512271229420797,-1.3618467489825647,-0.7929700056659144,-1.5824559370623987,-3.0852816740619105
-0.8581345717059534,-2.5119717756854456,-1.362518612538473,-0.7926457563983362,-1.5824201742755335,-3.0865631739245813
-0.8568761984454554,-2.511696163808004,-1.363154713307516,-0.7923224608050745,-1.5824921766864222,-3.0877485910998743
-0.8556421438800257,-2.511420551930563,-1.3638508955584925,-0.7919743696795862,-1.5826719442950647,-3.089005772267477
-0.8530295530902308,-2.5107973257647913,-1.3651226202594202,-0.7913268248187464,-1.5827558676349085,-3.091485087071554
-0.851783577595846,-2.5104978720294397,-1.3658302466021937,-0.7910273710833948,-1.5827916304217737,-3.092706267033712
-0.850525204335348,-2.510162655507223,-1.3665145079242151,-0.7906559149371546,-1.5827916304217737,-3.0939634482013147
-0.849278752003805,-2.509850804005758,-1.3671858946429651,-0.7903078238116663,-1.582935635243551,-3.095173184071676
-0.8467267195331019,-2.5091922918902796,-1.3685300985919397,-0.7896483580218714,-1.5829713980304163,-3.09766394296755
-0.8454683462726038,-2.5088327566729944,-1.369213883076803,-0.7893841902362269,-1.5830195585833948,-3.098957602177755
-0.8441618124591272,-2.5085209051715296,-1.3699219862567347,-0.7890127340899866,-1.582935635243551,-3.100250784550802
-0.8429396788226526,-2.508185688649313,-1.3705456892596644,-0.7886531988727015,-1.5831511656390589,-3.1015079657184046
-0.8404472509967249,-2.507526699696676,-1.3718894163714808,-0.7879698912249964,-1.5831993261920374,-3.1041069666491907
-0.8391650358783167,-2.507167164479391,-1.3725135962115687,-0.7876218000995081,-1.583163086568014,-3.1053758303271692
-0.8378947416888636,-2.5068562666522425,-1.373077694569723,-0.7872861067401331,-1.583175007496969,-3.1066933313952845
-0.8366363684283655,-2.5065324942218226,-1.3737733999835413,-0.7869141737567347,-1.5833428541766565,-3.1079748312579554
-0.8340962568866175,-2.5059812704669397,-1.3751290480243128,-0.7862914244281214,-1.5834148565875452,-3.1105735937701624
-0.8328374067889612,-2.5056102911578577,-1.3757408300982874,-0.7859790960894983,-1.5833666960345667,-3.11181885400881
-0.8315556685077112,-2.505334202443258,-1.376448933278219,-0.7856558004962366,-1.5834749380694788,-3.1131959597217005
-0.8302972952472132,-2.5050228277789515,-1.3770845572101038,-0.785260025654928,-1.5835464636432093,-3.1143816153155726
-0.8277090231524866,-2.50437575975527,-1.3783686796771448,-0.7846124807940882,-1.583714787160055,-3.116920534764425
-0.8264744917498987,-2.5041006247149866,-1.3790767828570765,-0.7843006292926233,-1.5836790243731897,-3.1181779543506067
-0.8251803557025355,-2.503825012837545,-1.3797481695758265,-0.7839291731463831,-1.5837867895709437,-3.1194351355182093
-0.8239224592791956,-2.50346547762026,-1.380456272755758,-0.7835572401629847,-1.58372670808901,-3.1206684748279017
-0.8213942686664026,-2.5028422514544886,-1.3817999998675745,-0.7828739325152796,-1.5838707129107874,-3.1232076326953333
-0.8201354185687464,-2.5024707953082483,-1.3824837843524378,-0.7825616041766565,-1.5840023199664515,-3.124488894139425
-0.8189252058612269,-2.502171341572897,-1.383167568837301,-0.7822859922992151,-1.5839064756976526,-3.1257463137256067
-0.8176310698138636,-2.501847569142477,-1.3838155905352991,-0.7819026152240198,-1.5841100851642054,-3.1270394960986536
-0.8151028792010706,-2.5012133757220667,-1.3851359526263636,-0.7811711470233362,-1.5841582457171839,-3.1296382586108606
-0.8138564268695276,-2.50092584291567,-1.3858073393451136,-0.7808836142169397,-1.5843260923968714,-3.130895439778463
-0.8125861326800745,-2.5006020704852503,-1.3864553610431116,-0.7805598417865198,-1.584182087575094,-3.1321170965777796
-0.8113401571856897,-2.5002663771258753,-1.387139622365133,-0.7801998297320765,-1.5843737761126917,-3.133434597645895
-0.8088834921466272,-2.499739472066061,-1.388458553944723,-0.7795646826373499,-1.5843618551837366,-3.135961119328634
-0.807589356099264,-2.499416176472799,-1.389190975819723,-0.77924091020693,-1.584505860005514,-3.1371946970569056
-0.8063548246966761,-2.4991286436664026,-1.3897908369647425,-0.7789529005633753,-1.5844219366656702,-3.138404432927267
-0.8051088492022913,-2.498840634022848,-1.3905227820025843,-0.7785690466510218,-1.5845535437213343,-3.1396976153003138
-0.8025205771075647,-2.498242203389303,-1.3918665091144007,-0.7778976599322718,-1.5845297018634241,-3.142212692891256
-0.8012984434710901,-2.497906510029928,-1.3925145308123987,-0.7775743643390101,-1.584649387990133,-3.1434696356402796
-0.8000400702105921,-2.497594658528463,-1.393198315297262,-0.7772744337665003,-1.5845535437213343,-3.144679371510641
-0.7987940947162073,-2.4972356001483362,-1.3939545790301722,-0.7768786589251917,-1.5846975485431116,-3.145960871373312
-0.796241585408346,-2.49662429491152,-1.3953097502337855,-0.7761953512774866,-1.5847094694720667,-3.1484995524035853
-0.7950070540057581,-2.496300999318258,-1.3959820906268519,-0.7758353392230433,-1.5848892370807093,-3.1497092882739466
-0.7937491575824183,-2.495941464100973,-1.3966777960406702,-0.7755597273456019,-1.5848172346698206,-3.1510027090655726
-0.7924669424640101,-2.4956420103656214,-1.3973491827594202,-0.7751882711993616,-1.5848773161517542,-3.152212206517355
-0.7899864355670374,-2.494983498250143,-1.3986333052264612,-0.7744329611407679,-1.584985081349508,-3.15463096300234
-0.7887166182147425,-2.494647804890768,-1.3993170897113245,-0.7740967909442347,-1.5852010885821741,-3.155900303517477
-0.787518326436178,-2.4943602720843714,-1.3999655882464808,-0.7737610975848597,-1.585080925618307,-3.1571818033801478
-0.7862475554095667,-2.4940007368670862,-1.4006250540362757,-0.7734373251544397,-1.5852726141559046,-3.15836745897402
-0.7837432066546839,-2.493401829396383,-1.401944939290182,-0.7727177778827112,-1.5853684584247034,-3.160894219075338
-0.782485310231344,-2.4930546919452112,-1.4026411215411585,-0.7724421660052698,-1.5855124632464808,-3.1621997992144983
-0.7812150160418909,-2.492791000996725,-1.4033125082599085,-0.7721427122699183,-1.585428539906637,-3.1634095350848597
-0.7799928824054163,-2.492467705403463,-1.4039366880999964,-0.7717588583575647,-1.5855963865863245,-3.164786163960592
-0.7775009314166468,-2.491880242024557,-1.4053404966937464,-0.7710393110858362,-1.5857041517840784,-3.1673129240619105
-0.776278320943014,-2.4915688673602503,-1.4060118834124964,-0.7707279364215296,-1.5857279936419886,-3.1685825029956263
-0.774996582661764,-2.491209332142965,-1.4066360632525843,-0.7704036871539515,-1.5858119169818323,-3.169852081929342
-0.7737262884723108,-2.4908979574786585,-1.4073079268084925,-0.7700560728656214,-1.5859196821795862,-3.1712051073657435
-0.7711976210223597,-2.490275208150045,-1.408663574849264,-0.7693727652179163,-1.5860636870013636,-3.173720423375265
-0.7699273268329065,-2.4899757544146937,-1.4093473593341272,-0.7690966765033167,-1.5860517660724085,-3.175037447606222
-0.7686331907855433,-2.4896281401263636,-1.4100196997271937,-0.7687614599810999,-1.5860279242144983,-3.176307026539938
-0.7673991362201136,-2.4892810026751917,-1.4106553236590784,-0.7684257666217249,-1.5861714521991175,-3.177492920552389
-0.7648590246783655,-2.488633457814352,-1.4119508902179163,-0.7677062193499964,-1.5862434546100062,-3.1800432840930384
-0.7636006514178675,-2.4883578459369105,-1.4126351515399378,-0.7673943678485315,-1.586207691823141,-3.181288782750265
-0.7623427549945276,-2.4880345503436487,-1.413318936024801,-0.7670705954181116,-1.5862553755389612,-3.182509962712423
-0.7610123793231409,-2.487710777913229,-1.4139788786517542,-0.7666991392718714,-1.5863874594317835,-3.1838155428515833
-0.758484188710348,-2.4870646635638636,-1.4153583685504358,-0.7659919897662562,-1.586458985005514,-3.1863303820239466
-0.7571781317340296,-2.486789051686422,-1.4159706274615687,-0.765655819569723,-1.5864470640765589,-3.1875761190997522
-0.7559316794024866,-2.4864652792560022,-1.4166186491595667,-0.7653563658343714,-1.5864470640765589,-3.1889055410968226
-0.7546260992633265,-2.4861415068255823,-1.417325798665182,-0.7651041189776819,-1.5865910688983362,-3.190162722264425
-0.7520855108844202,-2.485530678425924,-1.4187420050250452,-0.7643726507769983,-1.5865910688983362,-3.1927617231952112
-0.7507551352130335,-2.4852073828326624,-1.4194257895099085,-0.7640374342547815,-1.5866511503802698,-3.1940789858447474
-0.7495573202716272,-2.4848483244525355,-1.4201577345477503,-0.7636655012713831,-1.5866392294513147,-3.1953845659839075
-0.748275105153219,-2.4845245520221155,-1.4208539167987269,-0.7633298079120081,-1.5868070761310022,-3.19666558900942
-0.7457225958453577,-2.483865563069479,-1.4222214857684534,-0.762634579335348,-1.5869267622577112,-3.199228111897604
-0.7445128599749964,-2.4834821859942835,-1.422845188771383,-0.7622626463519495,-1.5868428389178675,-3.200557533894674
-0.7431824843036097,-2.4831469694720667,-1.423577133809225,-0.7619388739215296,-1.5869749228106897,-3.20182711282839
-0.7419245878802698,-2.4827993551837366,-1.4242494742022913,-0.7616151014911097,-1.5870946089373987,-3.203156296406881
-0.7394083181964319,-2.4821041266070765,-1.4255808035479944,-0.7609437147723597,-1.5871904532061976,-3.205742899571554
-0.7380898634540003,-2.4817808310138147,-1.4262884298907679,-0.7605961004840296,-1.5871065298663538,-3.207024637852804
-0.7368677298175257,-2.481445614491598,-1.4269488493548792,-0.7602360884295862,-1.587334458027975,-3.208329979573385
-0.7355735937701624,-2.481098000203268,-1.4276564756976526,-0.7599366346942347,-1.587226692830221,-3.209647242222921
-0.7330215612994593,-2.48051101366152,-1.4289878050433558,-0.7592414061175745,-1.587466065083639,-3.212198321019308
-0.731727425252096,-2.4802115599261683,-1.4296839872943323,-0.7588933149920862,-1.5874903837787073,-3.213419739400045
-0.7304571310626429,-2.4798997084247034,-1.4303320089923304,-0.7585933844195765,-1.5876339117633265,-3.214677158986227
-0.729187313710348,-2.4795525709735315,-1.4310758749591272,-0.7583177725421351,-1.5875380674945276,-3.215886894856588
-0.7266710440265101,-2.4789536635028284,-1.4324434439288538,-0.75763446489443,-1.5877178351031702,-3.2183178106891077
-0.725377384816305,-2.478666130696432,-1.4330795446978968,-0.7572625319110315,-1.5876582304583948,-3.219527546559469
-0.7241786162005823,-2.4783666769610804,-1.4337275663958948,-0.7569392363177698,-1.5877779165851038,-3.220725123082296
-0.7229808012591761,-2.4780190626727503,-1.4343870321856897,-0.7566631476031702,-1.5877779165851038,-3.2219467798816126
-0.7205246130572718,-2.4774439970599573,-1.4355867544757288,-0.7560036818133753,-1.5878976027118128,-3.224353853856222
-0.7192662397967737,-2.4771445433246058,-1.4362710157977503,-0.7556560675250452,-1.5878379980670374,-3.2256112734424036
-0.7180441061602991,-2.4767969290362757,-1.436906639729635,-0.7553084532367151,-1.5879696051227015,-3.2268453280078333
-0.7168577353106897,-2.4764979521380823,-1.437554661427633,-0.7550085226642054,-1.5879576841937464,-3.2280307451831263
-0.7144730726825159,-2.4759109655963343,-1.438765827809469,-0.7544449011432093,-1.5881012121783655,-3.2305219809161585
-0.7133110205279749,-2.4756115118609827,-1.439401928578512,-0.7540610472308558,-1.5880053679095667,-3.231767479573385
-0.7120645681964319,-2.475311581288473,-1.4400137106524866,-0.7537134329425257,-1.588137451802389,-3.232964817677633
-0.7108786741839808,-2.4750478903399866,-1.4406378904925745,-0.753402058278219,-1.5882213751422327,-3.234222475682394
-0.7084701696978968,-2.4744609037982386,-1.4419215361224573,-0.7527902762042444,-1.5883649031268519,-3.236701313649313
-0.7072361151324671,-2.474161450062887,-1.4426053206073206,-0.7524188200580042,-1.5883291403399866,-3.237910811101095
-0.7060259024249476,-2.473910156880514,-1.4432295004474085,-0.7520106474505823,-1.5884607473956507,-3.2391684691058558
-0.7047918478595179,-2.473574940358297,-1.4438770453082483,-0.7517712751971644,-1.5885089079486292,-3.240390125905172
-0.7023833433734339,-2.472975556050436,-1.4452088514911097,-0.751159969960348,-1.5886767546283167,-3.2427850405322474
-0.701113526021139,-2.4726761023150843,-1.4459169546710413,-0.7507880369769495,-1.5885809103595179,-3.2439947764026087
-0.6998675505267542,-2.4723647276507776,-1.446540657673971,-0.7504165808307093,-1.5887487570392054,-3.24520451227297
-0.6986091772662562,-2.472065273915426,-1.4471882025348108,-0.7501047293292444,-1.5887606779681605,-3.2464261690722864
-0.6961887518512171,-2.4714420477496546,-1.4484604040728968,-0.7494447867022913,-1.5889642874347132,-3.248892847691671
-0.6950143019305628,-2.4710944334613245,-1.44914418855776,-0.7491572538958948,-1.5888565222369593,-3.250186030064718
-0.6937926451312464,-2.470759693776266,-1.4497798124896448,-0.7488096396075647,-1.589060131703512,-3.2513957659350794
-0.6925223509417933,-2.470447842274801,-1.450439755116598,-0.7484977881060999,-1.589048210774557,-3.252629343663351
-0.6901496092425745,-2.4698007742511194,-1.4517234007464808,-0.7478864828692835,-1.5892398993121546,-3.2550130526172083
-0.6889999548541468,-2.469525162373678,-1.452383820210592,-0.7475503126727503,-1.5890958944903772,-3.256306234990255
-0.6878016630755823,-2.4692495504962366,-1.453031365071432,-0.7472627798663538,-1.5892999807940882,-3.2574201265918177
-0.6866396109210413,-2.46893817583193,-1.4536193052874964,-0.7469270865069788,-1.5892398993121546,-3.2585938612567347
-0.684422794972555,-2.4683988730060022,-1.4548190275775355,-0.7463396231280726,-1.589407745991842,-3.260857407246725
-0.6832845846759241,-2.468147579823629,-1.4554427305804651,-0.7460277716266077,-1.5892756620990198,-3.261935059224264
-0.6821702162372034,-2.4679558912860315,-1.4559949080096644,-0.745704476033346,-1.5894554297076624,-3.263012949620382
-0.6811755339251917,-2.467644516621725,-1.4565585295306605,-0.7454522291766565,-1.5894196669207972,-3.264066759740011
-0.6791146437274378,-2.4671648184405726,-1.457698170338766,-0.744936768208639,-1.5895393530475062,-3.2660308519946497
-0.6781805197345179,-2.466937843953268,-1.4581664244281214,-0.744720760975973,-1.5894554297076624,-3.26698881784548
-0.6772454420672815,-2.4666979948626917,-1.4586823622332972,-0.7445052305804651,-1.5896595160113733,-3.267935101185934
-0.6763466040240687,-2.466494385396139,-1.459101978932516,-0.744265381489889,-1.5895636717425745,-3.268773380910055
-0.6746934095965784,-2.466039005910055,-1.45996600786318,-0.7437260786639612,-1.5897076765643519,-3.270521942769186
-0.6738069693194788,-2.4658473173724573,-1.460398022328512,-0.7434623877154749,-1.5895994345294397,-3.271359984074728
-0.6730878988849085,-2.4656313101397913,-1.4607575575457972,-0.7433059851275843,-1.589743439351217,-3.272066656743185
-0.6723573843585413,-2.465452019368307,-1.461153809224264,-0.7431142965899866,-1.5897076765643519,-3.2728212515460413
-0.6709192434894007,-2.465081040059225,-1.461909596120016,-0.742718521748678,-1.589839283620016,-3.2742586771594446
-0.6702840963946741,-2.4648893515216272,-1.462257210408346,-0.7425625959979456,-1.5897796789752405,-3.2749772707568567
-0.6695893446551722,-2.46474534669985,-1.4626176992999476,-0.7423232237445276,-1.5899232069598597,-3.2755401770221155
-0.6689179579364222,-2.4645655790912073,-1.4629409948932093,-0.7422030607806605,-1.589947525654928,-3.276198689137594
-0.6676600615130823,-2.4642418066607874,-1.4635890165912073,-0.7418435255633753,-1.5899952093707483,-3.2774203459369105
-0.6669891516314905,-2.4640982786761683,-1.4639132658587855,-0.741699520741598,-1.5898755232440394,-3.278079096470968
-0.6664255301104944,-2.4639785925494593,-1.4642732779132288,-0.7415316740619105,-1.5900071302997034,-3.2786899248706263
-0.6658270994769495,-2.463822666798727,-1.4645846525775355,-0.7414000670062464,-1.590067211781637,-3.279228750859396
-0.6645329634295862,-2.4635351339923304,-1.465280834828512,-0.7411478201495569,-1.5901153723346155,-3.280534330998556
-0.6639578978167933,-2.463379685078756,-1.4655807654010218,-0.7409918943988245,-1.590079132710592,-3.2811086813556116
-0.6633465925799769,-2.4632118383990687,-1.4659045378314417,-0.740824047719137,-1.590079132710592,-3.281755510960714
-0.66266376176943,-2.4630797545062464,-1.4662764708148401,-0.7406562010394495,-1.5902350584613245,-3.282342497502462
-0.66138202348818,-2.4627326170550745,-1.4669244925128382,-0.7401889006244105,-1.5902469793902796,-3.2836719194995325
-0.66071063676943,-2.4626129309283655,-1.4673202673541468,-0.7400086561786097,-1.590198818837301,-3.284318749104635
-0.6600640455829065,-2.462421242390768,-1.46765643755068,-0.7398532072650355,-1.5902350584613245,-3.2849651018725794
-0.6593926588641565,-2.462217632924215,-1.4679802099811,-0.7396491209613245,-1.5903547445880335,-3.2856479326831263
-0.6579912344561976,-2.4619296232806605,-1.4687240759478968,-0.7393491903888147,-1.5903428236590784,-3.287049118672506
-0.6572960058795374,-2.461726490651266,-1.4691079298602503,-0.7391217390643519,-1.5903785864459437,-3.287720028554098
-0.6566131750689905,-2.4615944067584437,-1.469504181538717,-0.7389777342425745,-1.5903309027301233,-3.288426701222555
-0.655954662953512,-2.461390797291891,-1.4698393980609339,-0.7387498060809534,-1.5904625097857874,-3.2890735308276575
-0.6546123663531702,-2.4610312620746058,-1.4705231825457972,-0.7383664290057581,-1.5904987494098108,-3.290426556264059
-0.6539176146136683,-2.4608634153949183,-1.470931355153219,-0.7381981054889124,-1.5904987494098108,-3.291145149861471
-0.6532343069659632,-2.460731808339254,-1.4712556044207972,-0.7380302588092249,-1.5904868284808558,-3.2918759028064173
-0.6526353994952601,-2.4605401198016565,-1.4716151396380823,-0.7379105726825159,-1.59064227739443,-3.2925105730639856
-0.6513055006610315,-2.4602049032794397,-1.4723475615130823,-0.7376230398761194,-1.5906785170184534,-3.293875757847921
-0.6506708304034632,-2.4600728193866175,-1.4726594130145472,-0.7373831907855433,-1.5905707518206995,-3.29446250597109
-0.6500471274005335,-2.459881607686178,-1.472983185444967,-0.7372272650348108,-1.5907142798053187,-3.2951212565051478
-0.6494362990008753,-2.459761921559469,-1.4733307997332972,-0.7369511763202112,-1.590750519429342,-3.295756165181295
-0.6482022444354456,-2.459390465413229,-1.4739187399493616,-0.7366154829608362,-1.590870205556051,-3.296917502080099
-0.6476753393756312,-2.4592226187335413,-1.4742310682879847,-0.7364838759051722,-1.5908101240741175,-3.297504250203268
-0.6471117178546351,-2.459102455769674,-1.474506680165426,-0.736363712941305,-1.5909059683429163,-3.2980671564685267
-0.646524731312887,-2.4589107672320765,-1.4748309294330042,-0.7362559477435511,-1.5908339659320276,-3.2986419836627405
-0.645482365285055,-2.45864707628359,-1.4753945509540003,-0.7360642592059534,-1.59098989168276,-3.2996483484851282
-0.6449554602252405,-2.4585159460650843,-1.4756940046893519,-0.7358840147601526,-1.5909059683429163,-3.300199333821432
-0.6445000807391565,-2.458395783101217,-1.4759348074542444,-0.7358363310443323,-1.5910380522357386,-3.300666395817892
-0.643984619771139,-2.458288017903463,-1.4761984984027308,-0.7356565634356897,-1.5909422079669397,-3.301133696232931
-0.6431101004229944,-2.458012406026022,-1.4766667524920862,-0.7354286352740687,-1.5910261313067835,-3.302091662083761
-0.6426671187030237,-2.457904640828268,-1.4769061247455042,-0.7351768652545374,-1.5909178892718714,-3.302570645009176
-0.6422236601458948,-2.457784954701559,-1.4771941343890589,-0.7351530233966272,-1.5910618940936487,-3.3029657045947474
-0.6418159643756312,-2.45768911043276,-1.4773619810687464,-0.7349970976458948,-1.5909541288958948,-3.3033488432513636
-0.6410492102252405,-2.457496945058004,-1.477854077016012,-0.734781567250387,-1.591097656880514,-3.3041873613940638
-0.6406658331500452,-2.4574134985553187,-1.4780100027667444,-0.7347090880023401,-1.590977970753805,-3.30457050005068
-0.6402223745929163,-2.4572933355914515,-1.4782255331622522,-0.7346614042865198,-1.5911458174334925,-3.304930035267965
-0.6398752371417444,-2.457221333180563,-1.4784062544452112,-0.7345050016986292,-1.5910738150226038,-3.305265251790182
-0.6391919294940394,-2.4570420424090784,-1.4787777105914515,-0.734349552785055,-1.5912416617022913,-3.3059960047351282
-0.6388681570636194,-2.456982437764303,-1.4789698759662073,-0.7343252340899866,-1.5910738150226038,-3.306330982838766
-0.6385090986834925,-2.4569342772113245,-1.4791253248797815,-0.7342656294452112,-1.5911696592914026,-3.3066182772265833
-0.6382697264300745,-2.4568145910846155,-1.4792817274676722,-0.7341097036944788,-1.5911935011493128,-3.306929890309469
-0.6375988165484827,-2.4567187468158167,-1.4795697371112269,-0.7340019384967249,-1.5912297407733362,-3.3075407187091272
-0.6372993628131312,-2.4566472212420862,-1.4797733465777796,-0.7339060942279261,-1.591205898915426,-3.3078039328204554
-0.6370475927935999,-2.4565513769732874,-1.4799054304706019,-0.7338817755328577,-1.5911100546466272,-3.308079783116476
-0.6367843786822718,-2.456538979207174,-1.4800737539874476,-0.7337620894061487,-1.591325585042135,-3.3083189169513147
