youngblood1998/my_ws/src/ur5_platform/ur5_platform_manipulation/wzq/test_z.csv
j0,j1,j2,j3,j4,j5
-0.8442695776568812,-2.2865918318377894,-1.2299912611590784,-1.161358658467428,-1.6024602095233362,-3.057679001485006
-0.8443296591388147,-2.2866161505328577,-1.2299788633929651,-1.161346737538473,-1.602436367665426,-3.0577145258532923
-0.8442695776568812,-2.2866161505328577,-1.2300151030169886,-1.161358658467428,-1.6024602095233362,-3.0577386061297815
-0.8442695776568812,-2.286628071461813,-1.2300151030169886,-1.161346737538473,-1.6024726072894495,-3.0577266852008265
-0.8443296591388147,-2.2866161505328577,-1.2299788633929651,-1.1613224188434046,-1.6024602095233362,-3.0577505270587366
-0.8442938963519495,-2.2865799109088343,-1.229955021535055,-1.161346737538473,-1.6024726072894495,-3.0577505270587366
-0.8442938963519495,-2.2865799109088343,-1.2299788633929651,-1.1613343397723597,-1.6024726072894495,-3.057774607335226
-0.8443177382098597,-2.2866037527667444,-1.2299912611590784,-1.1613224188434046,-1.6024845282184046,-3.057702604924337
-0.8443177382098597,-2.286628071461813,-1.229955021535055,-1.161370579396383,-1.6024482885943812,-3.0577145258532923
-0.8442938963519495,-2.286639992390768,-1.2300151030169886,-1.161358658467428,-1.6024602095233362,-3.0577145258532923
-0.8442695776568812,-2.2865918318377894,-1.2299912611590784,-1.161346737538473,-1.6024964491473597,-3.0577266852008265
-0.8442819754229944,-2.286639992390768,-1.229955021535055,-1.161358658467428,-1.6024482885943812,-3.0577145258532923
-0.8442576567279261,-2.286628071461813,-1.2300031820880335,-1.161370579396383,-1.6024602095233362,-3.0576909224139612
-0.8443296591388147,-2.286639992390768,-1.2299788633929651,-1.161346737538473,-1.602436367665426,-3.0576909224139612
-0.8442819754229944,-2.2866161505328577,-1.2300270239459437,-1.1613944212542933,-1.6024726072894495,-3.057679001485006
-0.8443058172809046,-2.2866037527667444,-1.229955021535055,-1.161358658467428,-1.6024964491473597,-3.0577145258532923
-0.8443058172809046,-2.2866037527667444,-1.2300270239459437,-1.161370579396383,-1.6024845282184046,-3.0577624479876917
-0.8442576567279261,-2.286628071461813,-1.22996694246401,-1.161370579396383,-1.6024602095233362,-3.0577145258532923
-0.8443058172809046,-2.286628071461813,-1.229955021535055,-1.161370579396383,-1.6024482885943812,-3.057702604924337
-0.8442819754229944,-2.2866037527667444,-1.2299912611590784,-1.161358658467428,-1.6024845282184046,-3.0577266852008265
-0.8442938963519495,-2.2865918318377894,-1.2299788633929651,-1.1613825003253382,-1.6024726072894495,-3.0577386061297815
-0.8442819754229944,-2.2866161505328577,-1.2300031820880335,-1.1612985769854944,-1.6025083700763147,-3.0576909224139612
-0.8442819754229944,-2.286628071461813,-1.2299788633929651,-1.1611908117877405,-1.6024602095233362,-3.0577505270587366
-0.8442819754229944,-2.2867239157306116,-1.2299788633929651,-1.1612027327166956,-1.6024964491473597,-3.0576909224139612
-0.8442938963519495,-2.286759678517477,-1.2300151030169886,-1.161142651234762,-1.6024845282184046,-3.057702604924337
-0.8443177382098597,-2.286891762410299,-1.230086628590719,-1.160903278981344,-1.6024602095233362,-3.0577145258532923
-0.8442695776568812,-2.2869632879840296,-1.2301467100726526,-1.1606867949115198,-1.602436367665426,-3.0577624479876917
-0.8442695776568812,-2.2870829741107386,-1.230171028767721,-1.160602871571676,-1.6024845282184046,-3.057679001485006
-0.8443415800677698,-2.2872145811664026,-1.2302549521075647,-1.1603754202472132,-1.6024964491473597,-3.057679001485006
-0.8443058172809046,-2.2874906698810022,-1.2303631941424769,-1.160015885029928,-1.6024482885943812,-3.0577266852008265
-0.8443058172809046,-2.2876222769366663,-1.2304113546954554,-1.159896198903219,-1.6024845282184046,-3.0577266852008265
-0.8442819754229944,-2.287825886403219,-1.230483357106344,-1.159668270741598,-1.6024845282184046,-3.057702604924337
-0.8442819754229944,-2.2880056540118616,-1.2305310408221644,-1.159464184437887,-1.6024845282184046,-3.057679001485006
-0.8442576567279261,-2.288400952016012,-1.2307351271258753,-1.1588524023639124,-1.6024964491473597,-3.0577386061297815
-0.8443058172809046,-2.288628403340475,-1.2308309713946741,-1.1584928671466272,-1.6025083700763147,-3.0577266852008265
-0.8442938963519495,-2.288868252431051,-1.2309630552874964,-1.158144776021139,-1.6024845282184046,-3.057702604924337
-0.8443177382098597,-2.289095703755514,-1.2310951391803187,-1.1578453222857874,-1.6024726072894495,-3.0577386061297815
-0.844245735798971,-2.2896106878863733,-1.2312987486468714,-1.1570537726031702,-1.6024964491473597,-3.057702604924337
-0.8442695776568812,-2.2898619810687464,-1.2313831488238733,-1.15668231645693,-1.6025202910052698,-3.057702604924337
-0.8442938963519495,-2.290197197590963,-1.2315152327166956,-1.1562865416156214,-1.6024845282184046,-3.0576909224139612
-0.8442819754229944,-2.290497128163473,-1.2316353956805628,-1.1558311621295374,-1.6025083700763147,-3.057702604924337
-0.8442695776568812,-2.291191879902975,-1.2318509260760706,-1.154931370412008,-1.6024726072894495,-3.057702604924337
-0.8442695776568812,-2.2914913336383265,-1.231994930897848,-1.1544998327838343,-1.602532211934225,-3.0577145258532923
-0.8442695776568812,-2.291802708302633,-1.2321026960956019,-1.1540558973895472,-1.6024726072894495,-3.0577386061297815
-0.8442695776568812,-2.292126003895895,-1.2322586218463343,-1.1535046736346644,-1.6024964491473597,-3.0577145258532923
-0.8442938963519495,-2.292820755635397,-1.232523266469137,-1.1526292006122034,-1.6025202910052698,-3.0576909224139612
-0.8442695776568812,-2.2931678930865687,-1.232631031666891,-1.1521619001971644,-1.6025202910052698,-3.0577386061297815
-0.8442695776568812,-2.2934797445880335,-1.2327988783465784,-1.1516345183001917,-1.602532211934225,-3.0577266852008265
-0.8442695776568812,-2.293863121663229,-1.2329428831683558,-1.151130501423971,-1.602532211934225,-3.0577145258532923
-0.8442576567279261,-2.294569794331686,-1.2332671324359339,-1.1500394980060022,-1.60254413286318,-3.0576909224139612
-0.8442218939410608,-2.294929329548971,-1.2334230581866663,-1.1495478788958948,-1.602556053792135,-3.057679001485006
-0.8441980520831507,-2.295312229787008,-1.233603302632467,-1.149031941090719,-1.602532211934225,-3.057643000279562
-0.8441737333880823,-2.295647446309225,-1.233722988759176,-1.1485284010516565,-1.602556053792135,-3.0576310793506067
-0.8441980520831507,-2.2963784376727503,-1.2340472380267542,-1.1473773161517542,-1.6024964491473597,-3.057643000279562
-0.8441498915301722,-2.296809498463766,-1.2342146078692835,-1.1468256155597132,-1.602532211934225,-3.057667080556051
-0.8442099730121058,-2.2971928755389612,-1.2343953291522425,-1.1462023893939417,-1.6024964491473597,-3.0576069990741175
-0.8441856543170374,-2.297612015401022,-1.2345507780658167,-1.1456506888019007,-1.6025202910052698,-3.0576191584216517
-0.8442099730121058,-2.298450295125143,-1.2349589506732386,-1.1444757620440882,-1.6025083700763147,-3.0575712362872522
-0.8441737333880823,-2.2988460699664515,-1.2351387182818812,-1.1439116636859339,-1.6025202910052698,-3.057655159627096
-0.8441737333880823,-2.299277130757467,-1.2352107206927698,-1.1433242003070276,-1.60254413286318,-3.0576069990741175
-0.8441737333880823,-2.2996843496905726,-1.2354748884784144,-1.1427009741412562,-1.602532211934225,-3.057559076939718
-0.8441856543170374,-2.300523106251852,-1.2358229796039026,-1.1414778868304651,-1.6024964491473597,-3.0575831572162073
-0.8441737333880823,-2.3009303251849573,-1.2360265890704554,-1.1409028212176722,-1.6025083700763147,-3.0576069990741175
-0.8441498915301722,-2.30137283006777,-1.236171070729391,-1.1402667204486292,-1.602532211934225,-3.0576191584216517
-0.8441618124591272,-2.3018043676959437,-1.2363627592669886,-1.1396072546588343,-1.6025202910052698,-3.0576191584216517
-0.8441498915301722,-2.3026908079730433,-1.236746613179342,-1.1383965651141565,-1.6025202910052698,-3.0575712362872522
-0.8441618124591272,-2.303134266530172,-1.2370227018939417,-1.1376526991473597,-1.60254413286318,-3.0575950781451624
-0.8441737333880823,-2.3036373297320765,-1.2371786276446741,-1.1370051542865198,-1.6025083700763147,-3.0575950781451624
-0.8442218939410608,-2.3041041533099573,-1.2374070326434534,-1.1363094488727015,-1.602556053792135,-3.0575831572162073
-0.8441737333880823,-2.3050149122821253,-1.2377784887896937,-1.1349785963641565,-1.602532211934225,-3.0576191584216517
-0.8441498915301722,-2.305481735860006,-1.2379825750934046,-1.1342957655536097,-1.6025202910052698,-3.0576191584216517
-0.8442099730121058,-2.30593711534609,-1.238234821950094,-1.133587662373678,-1.60254413286318,-3.0576069990741175
-0.8441498915301722,-2.3064520994769495,-1.2384026686297815,-1.1328919569598597,-1.602532211934225,-3.0576069990741175
-0.8441498915301722,-2.3074339071856897,-1.2388704458819788,-1.131489102040426,-1.602532211934225,-3.057559076939718
-0.8441379706012171,-2.307925526295797,-1.2390626112567347,-1.1306622664081019,-1.6025083700763147,-3.0575831572162073
-0.8441498915301722,-2.3084166685687464,-1.2392905394183558,-1.130014721547262,-1.602532211934225,-3.0576191584216517
-0.8441498915301722,-2.3089316526996058,-1.2395427862750452,-1.1291993300067347,-1.60254413286318,-3.0575712362872522
-0.8441618124591272,-2.3099497000323694,-1.2399023214923304,-1.1276887098895472,-1.6025684515582483,-3.0575712362872522
-0.8441737333880823,-2.310489002858297,-1.2402260939227503,-1.1268733183490198,-1.6025202910052698,-3.0575831572162073
-0.8441618124591272,-2.3109920660602015,-1.2404068152057093,-1.126141373311178,-1.60254413286318,-3.057547156010763
-0.844126049672262,-2.311531368886129,-1.2406228224383753,-1.1253379026996058,-1.60254413286318,-3.0575712362872522
-0.8441379706012171,-2.3126686255084437,-1.2410782019244593,-1.123803440724508,-1.6025202910052698,-3.0574873129474085
-0.8441980520831507,-2.313147846852438,-1.24125844637026,-1.1230714956866663,-1.602532211934225,-3.057535235081808
-0.8441618124591272,-2.3136990706073206,-1.2415464560138147,-1.1222322622882288,-1.602556053792135,-3.0575111548053187
-0.8441379706012171,-2.314321819935934,-1.2417624632464808,-1.1214287916766565,-1.6025684515582483,-3.0574753920184534
-0.8441141287433069,-2.315388027821676,-1.2421944777118128,-1.1198580900775355,-1.6025202910052698,-3.057523314152853
-0.844126049672262,-2.3159988562213343,-1.2424824873553675,-1.1189706961261194,-1.6025684515582483,-3.0574992338763636
-0.8441379706012171,-2.316562000905172,-1.242650334035055,-1.118143383656637,-1.60254413286318,-3.0574753920184534
-0.8441022078143519,-2.317124668751852,-1.242866341267721,-1.1173518339740198,-1.602556053792135,-3.0574753920184534
-0.8441022078143519,-2.3183706442462366,-1.2434065977679651,-1.1156609694110315,-1.602556053792135,-3.057451311741964
-0.8440902868853968,-2.3190534750567835,-1.2436102072345179,-1.1147378126727503,-1.602556053792135,-3.057427469884054
-0.8440902868853968,-2.3196643034564417,-1.2438862959491175,-1.1138747374164026,-1.6025684515582483,-3.0574753920184534
-0.8440902868853968,-2.320310894642965,-1.2441862265216272,-1.112915341054098,-1.6025684515582483,-3.057451311741964
-0.8440426031695765,-2.3217247168170374,-1.2447741667376917,-1.1110928694354456,-1.602556053792135,-3.057439390813009
-0.844006363545553,-2.322407070790426,-1.245025936757223,-1.1101458708392542,-1.6026042143451136,-3.057427469884054
-0.8440306822406214,-2.323174301777975,-1.2453139464007776,-1.109126392995016,-1.6025684515582483,-3.057427469884054
-0.8440545240985315,-2.323904816304342,-1.245662037526266,-1.108119312916891,-1.6025684515582483,-3.057403866444723
-0.8440306822406214,-2.3254502455340784,-1.2462618986712855,-1.1059964338885706,-1.60254413286318,-3.057403866444723
-0.8440545240985315,-2.3262885252581995,-1.246622387562887,-1.104821507130758,-1.6025803724872034,-3.0573678652392786
-0.8440426031695765,-2.3271029631244105,-1.246970001851217,-1.1037424246417444,-1.6025803724872034,-3.0573557058917444
-0.8440182844745081,-2.3279293219195765,-1.2472942511187952,-1.1025431791888636,-1.6025803724872034,-3.0573318640338343
-0.8439706007586878,-2.3296545187579554,-1.2480018774615687,-1.1002171675311487,-1.6027000586139124,-3.0573318640338343
-0.8439706007586878,-2.3305285612689417,-1.2483261267291468,-1.0989940802203577,-1.6027119795428675,-3.0573318640338343
-0.8439467589007776,-2.3314154783831995,-1.2487462202655237,-1.0976751486407679,-1.6027119795428675,-3.057319943104879
-0.8439825216876429,-2.3323257605182093,-1.2491057554828089,-1.0964520613299769,-1.6027119795428675,-3.0573318640338343
-0.843994442616598,-2.334062401448385,-1.249850098286764,-1.0938623587237757,-1.6027119795428675,-3.05727202097048
-0.8439586798297327,-2.334877316151754,-1.2502463499652308,-1.0925667921649378,-1.602652374898092,-3.057307783757345
-0.8439467589007776,-2.335823361073629,-1.2506540457354944,-1.0912602583514612,-1.6027000586139124,-3.057283941899435
-0.8439343611346644,-2.3366735617267054,-1.2510741392718714,-1.0899770895587366,-1.6027119795428675,-3.05727202097048
-0.8438985983477991,-2.3384230772601526,-1.25181752840151,-1.087123219166891,-1.6027239004718226,-3.0572598616229456
-0.8439224402057093,-2.339297119771139,-1.2521660963641565,-1.0858877340899866,-1.6026762167560022,-3.05727202097048
-0.8439105192767542,-2.3401597181903284,-1.2526219526873987,-1.0845330397235315,-1.6027000586139124,-3.0572479406939905
-0.8438985983477991,-2.341022316609518,-1.2529695669757288,-1.0831783453570765,-1.6027000586139124,-3.05727202097048
-0.8439224402057093,-2.342807118092672,-1.2537615934955042,-1.080468479787008,-1.6026881376849573,-3.057188097630636
-0.843874756489889,-2.3436453978167933,-1.2540858427630823,-1.0792091528521937,-1.6026762167560022,-3.0572360197650355
-0.843886677418844,-2.3445561567889612,-1.2545059362994593,-1.0778783003436487,-1.6026762167560022,-3.05727202097048
-0.843886677418844,-2.3454063574420374,-1.2548535505877894,-1.0765593687640589,-1.6026762167560022,-3.0572240988360804
-0.8439105192767542,-2.347203556691305,-1.2556217352496546,-1.0740774313556116,-1.6026762167560022,-3.0572240988360804
-0.8438261190997522,-2.3481133619891565,-1.2559693495379847,-1.072794262562887,-1.6026881376849573,-3.057188097630636
-0.8438509146319788,-2.3490002791034144,-1.2563298384295862,-1.071583096181051,-1.6026881376849573,-3.0571280161487024
-0.8438385168658655,-2.349874798451559,-1.2566779295550745,-1.0703962484942835,-1.6027239004718226,-3.0571165720569056
-0.8438141981707972,-2.351682964955465,-1.2573736349688929,-1.068010155354635,-1.6026762167560022,-3.0571401754962366
-0.8438385168658655,-2.3525942007647913,-1.2577694098102015,-1.066798512135641,-1.6026881376849573,-3.0571280161487024
-0.8438385168658655,-2.3534801642047327,-1.2580936590777796,-1.0656116644488733,-1.6026762167560022,-3.0570924917804163
-0.8438261190997522,-2.3543785254107874,-1.258453671132223,-1.0643771330462855,-1.6026881376849573,-3.0571165720569056
-0.8438022772418421,-2.356175247822897,-1.2591851393329065,-1.0620024839984339,-1.6027000586139124,-3.0571044127093714
-0.8437426725970667,-2.3570860067950647,-1.2595213095294397,-1.060718838368551,-1.6026762167560022,-3.0570924917804163
-0.8438141981707972,-2.357924286519186,-1.2599290052997034,-1.0594962278949183,-1.6026881376849573,-3.0571044127093714
-0.8438022772418421,-2.3588345686541956,-1.2603252569781702,-1.0582974592791956,-1.6026762167560022,-3.057044569646017
-0.8437784353839319,-2.360631767903463,-1.261057202016012,-1.055683437977926,-1.6026762167560022,-3.0570805708514612
-0.8437545935260218,-2.361518208180563,-1.2614534536944788,-1.0543883482562464,-1.6026642958270472,-3.0571044127093714
-0.8437183539019983,-2.3624523321734827,-1.2618487516986292,-1.05310565630068,-1.6026881376849573,-3.057068649922506
-0.8437426725970667,-2.3633630911456507,-1.2622211615191858,-1.0518463293658655,-1.6026762167560022,-3.057068649922506
-0.8437183539019983,-2.365075413380758,-1.262989346181051,-1.0491841475116175,-1.6027000586139124,-3.0570805708514612
-0.8437183539019983,-2.3660100142108362,-1.2633488813983362,-1.0479853788958948,-1.6027119795428675,-3.057044569646017
-0.8437426725970667,-2.3668726126300257,-1.2637689749347132,-1.0466540495501917,-1.6027358214007776,-3.057032648717062
-0.8437426725970667,-2.36774713197817,-1.2642009894000452,-1.0453713575946253,-1.602652374898092,-3.0569966475116175
-0.8437064329730433,-2.369472328816549,-1.2649334112750452,-1.042781178151266,-1.6027000586139124,-3.056960646306173
-0.843658749257223,-2.3703463713275355,-1.2653287092791956,-1.0414498488055628,-1.6026762167560022,-3.0569127241717737
-0.8436825911151331,-2.37122089067568,-1.265700642262594,-1.040095631276266,-1.602652374898092,-3.0568888823138636
-0.8436825911151331,-2.3720596472369593,-1.2660968939410608,-1.038788143788473,-1.6027000586139124,-3.0568767229663294
-0.843670670186178,-2.373892132435934,-1.2669008413897913,-1.0361741224872034,-1.6026762167560022,-3.056924645100729
-0.8436463514911097,-2.3747904936419886,-1.2672489325152796,-1.0348075071917933,-1.6027000586139124,-3.0568767229663294
-0.8436825911151331,-2.3757012526141565,-1.267632786427633,-1.033464256917135,-1.6026762167560022,-3.0569127241717737
-0.843670670186178,-2.3766234556781214,-1.2680290381061,-1.0321572462665003,-1.6027119795428675,-3.0569127241717737
-0.8436463514911097,-2.3784921805011194,-1.2687729040728968,-1.0295313040362757,-1.6027119795428675,-3.0569008032428187
-0.8436825911151331,-2.3794387022601526,-1.2691567579852503,-1.0282247702227991,-1.6026762167560022,-3.0568767229663294
-0.8435867468463343,-2.3803370634662073,-1.2695286909686487,-1.0269411245929163,-1.6026881376849573,-3.0568888823138636
-0.8436105887042444,-2.3812835852252405,-1.2699487845050257,-1.0256345907794397,-1.6027119795428675,-3.0568888823138636
-0.8435867468463343,-2.3831761519061487,-1.2706807295428675,-1.0229247252093714,-1.6027000586139124,-3.056840960179464
-0.8435986677752894,-2.384134594594137,-1.2710402647601526,-1.0216177145587366,-1.6027119795428675,-3.056840960179464
-0.8436225096331995,-2.385080639516012,-1.2714360396014612,-1.0203707853900355,-1.6027119795428675,-3.0568528811084192
-0.8435629049884241,-2.38599139848818,-1.2717726866351526,-1.0190756956683558,-1.6027000586139124,-3.056816879902975
-0.8435629049884241,-2.38785964647402,-1.2725165526019495,-1.0164979139911097,-1.6027000586139124,-3.056816879902975
-0.8435986677752894,-2.388770405446188,-1.272912327443258,-1.0152142683612269,-1.6027119795428675,-3.0567570368396204
-0.8435748259173792,-2.3896692434894007,-1.273308579121725,-1.0140154997455042,-1.6027358214007776,-3.056732956563131
-0.8435629049884241,-2.390567127858297,-1.2736800352679651,-1.0126960913287562,-1.6027119795428675,-3.056709114705221
-0.8435629049884241,-2.3923643271075647,-1.2743642965899866,-1.0102503935443323,-1.6027839819537562,-3.056732956563131
-0.8435028235064905,-2.393250290547506,-1.27472430864443,-1.0089553038226526,-1.6027839819537562,-3.056721035634176
-0.8435505072223108,-2.3940890471087855,-1.275156323109762,-1.00775653520693,-1.6027959028827112,-3.056721035634176
-0.8435147444354456,-2.3949759642230433,-1.2755401770221155,-1.0065930525409144,-1.6028197447406214,-3.056696955357687
-0.8434909025775355,-2.396712605153219,-1.276259724293844,-1.0040629545794886,-1.6028078238116663,-3.056732956563131
-0.8435147444354456,-2.3975632826434534,-1.2766440550433558,-1.0028155485736292,-1.6028197447406214,-3.0567570368396204
-0.8434789816485804,-2.3983777205096644,-1.2769683043109339,-1.0015571753131312,-1.6028078238116663,-3.0566611925708216
-0.8434789816485804,-2.3992164770709437,-1.2773998419391077,-1.0002740065204065,-1.6028197447406214,-3.0567451159106653
-0.8434789816485804,-2.4009292761432093,-1.278071705495016,-0.9977558294879358,-1.6028078238116663,-3.056721035634176
-0.8434308210956019,-2.4017561117755335,-1.2784317175494593,-0.9964726606952112,-1.6028078238116663,-3.056709114705221
-0.8434427420245569,-2.4025705496417444,-1.278816048298971,-0.9951656500445765,-1.6028316656695765,-3.056696955357687
-0.8434789816485804,-2.4034693876849573,-1.2791875044452112,-0.9937508741961878,-1.6028197447406214,-3.0566731134997767
-0.843454662953512,-2.4051578680621546,-1.2799199263202112,-0.9912331740008753,-1.6028316656695765,-3.0566731134997767
-0.8434189001666468,-2.4060209433185022,-1.2802794615374964,-0.9899137655841272,-1.6027839819537562,-3.0566490332232874
-0.8433831373797815,-2.4068592230426233,-1.280651871358053,-0.9885829130755823,-1.6028197447406214,-3.0566251913653772
-0.8433950583087366,-2.407757584248678,-1.2810595671283167,-0.987312142048971,-1.6028197447406214,-3.0566251913653772
-0.8434069792376917,-2.4095786253558558,-1.2818158308612269,-0.9846981207477015,-1.6028316656695765,-3.056589190159933
-0.8434069792376917,-2.4105246702777308,-1.2821515242206019,-0.9834626356707972,-1.6028440634356897,-3.056589190159933
-0.8433950583087366,-2.4114354292498987,-1.2825835386859339,-0.9822042624102991,-1.6028078238116663,-3.056577269230978
-0.8434308210956019,-2.412381951008932,-1.2829192320453089,-0.9809811750995081,-1.6028197447406214,-3.056589190159933
-0.8433950583087366,-2.4142144362079065,-1.283663574849264,-0.9783309141742151,-1.6028440634356897,-3.0565653483020228
-0.8433588186847132,-2.4151609579669397,-1.2840831915484827,-0.9771078268634241,-1.6028197447406214,-3.056577269230978
-0.8433468977557581,-2.416119400654928,-1.2844918409930628,-0.9758484999286097,-1.6028679052936,-3.0565417448626917
-0.8433468977557581,-2.4170659224139612,-1.2848628203021448,-0.974530045186178,-1.6028078238116663,-3.0565531889544886
-0.8433468977557581,-2.4189465681659144,-1.2856071631061,-0.9719761053668421,-1.6028440634356897,-3.0565653483020228
-0.8433111349688929,-2.4198806921588343,-1.2859552542315882,-0.9706328550921839,-1.6028440634356897,-3.0565057436572474
-0.843334976826803,-2.4208152929889124,-1.2863276640521448,-0.9692781607257288,-1.6028440634356897,-3.0565057436572474
-0.8432992140399378,-2.4217374960528772,-1.2867592016803187,-0.9680312315570276,-1.6028440634356897,-3.0565417448626917
-0.8433468977557581,-2.4235828558551233,-1.2875035444842737,-0.9655612150775355,-1.6028679052936,-3.056481663380758
-0.8433468977557581,-2.424493137990133,-1.287875000630514,-0.9641817251788538,-1.6028440634356897,-3.0564218203174036
-0.8433111349688929,-2.425403420125143,-1.2882474104510706,-0.9628389517413538,-1.60289174715151,-3.0563977400409144
-0.843323055897848,-2.4262784163104456,-1.2886188665973108,-0.9616277853595179,-1.602879826222555,-3.0564456621753138
-0.8432748953448694,-2.4279912153827112,-1.2894232908831995,-0.9589899222003382,-1.602879826222555,-3.0563858191119593
-0.8432510534869593,-2.4288657347308558,-1.2897346655475062,-0.9577310721026819,-1.6029036680804651,-3.0564098993884485
-0.8432391325580042,-2.429715935383932,-1.2901189962970179,-0.956423584614889,-1.6029036680804651,-3.056373898183004
-0.8432629744159144,-2.4305546919452112,-1.2904790083514612,-0.9551289717303675,-1.60289174715151,-3.056373898183004
-0.8432272116290491,-2.432267967854635,-1.2912347952472132,-0.9525511900531214,-1.6029155890094202,-3.0563858191119593
-0.8432872931109827,-2.433094326649801,-1.2916424910174769,-0.9513757864581507,-1.6029036680804651,-3.0563977400409144
-0.8432391325580042,-2.4339569250689905,-1.2919910589801233,-0.9500449339496058,-1.6029036680804651,-3.0563858191119593
-0.8432391325580042,-2.4347718397723597,-1.2923863569842737,-0.9487736860858362,-1.6029036680804651,-3.056373898183004
-0.843203369771139,-2.436460796986715,-1.2931068579303187,-0.9462559858905237,-1.6029036680804651,-3.0563977400409144
-0.8431909720050257,-2.4373353163348597,-1.2934907118426722,-0.9449370543109339,-1.6029279867755335,-3.056361977254049
-0.8431909720050257,-2.4382217566119593,-1.293898884450094,-0.9437139670001429,-1.6029036680804651,-3.056349817906515
-0.8431671301471155,-2.4390481154071253,-1.2942946592914026,-0.9425390402423304,-1.6029155890094202,-3.05633789697756
-0.8431552092181605,-2.440857235585348,-1.2950266043292444,-0.9399369398700159,-1.6029518286334437,-3.0562780539142054
-0.8431671301471155,-2.4418156782733362,-1.2953980604754847,-0.9387143293963831,-1.6029875914203089,-3.0563018957721155
-0.8431671301471155,-2.442702118550436,-1.2957823912249964,-0.9374545256244105,-1.6029875914203089,-3.0563018957721155
-0.8431552092181605,-2.443624798451559,-1.296178166066305,-0.936171833668844,-1.6029637495623987,-3.0563018957721155
-0.8431552092181605,-2.445505444203512,-1.2969344297992151,-0.933605972920553,-1.6029637495623987,-3.056242052708761
-0.8431671301471155,-2.44644004503359,-1.2973178068744105,-0.9322746435748499,-1.6029756704913538,-3.056242052708761
-0.8431313673602503,-2.44737416902651,-1.2977021376239222,-0.9310162703143519,-1.6029518286334437,-3.056242052708761
-0.8431552092181605,-2.448273007069723,-1.2980621496783655,-0.9296129385577601,-1.602999512349264,-3.056217972432272
-0.8430951277362269,-2.4501293341266077,-1.2988422552691858,-0.9271186033831995,-1.6029399077044886,-3.056217972432272
-0.8431194464312952,-2.4511120955096644,-1.299201790486471,-0.9257400671588343,-1.6029518286334437,-3.0561941305743616
-0.8431194464312952,-2.452010456715719,-1.2995742003070276,-0.9244449774371546,-1.6029637495623987,-3.0561700502978724
-0.8431432882892054,-2.452909294758932,-1.2999938170062464,-0.9232099691974085,-1.6029875914203089,-3.0561941305743616
-0.8430832068072718,-2.45477801958193,-1.3007739225970667,-0.9206560293780726,-1.602999512349264,-3.0561941305743616
-0.8430832068072718,-2.455724064503805,-1.30113393465151,-0.919384781514303,-1.6029875914203089,-3.0561700502978724
-0.8430832068072718,-2.4565871397601526,-1.3015058676349085,-0.9181020895587366,-1.603011433278219,-3.0561581293689173
-0.8430712858783167,-2.457496945058004,-1.3018296400653284,-0.9168909231769007,-1.603011433278219,-3.0561581293689173
-0.8430355230914515,-2.459198776875631,-1.3025859037982386,-0.9142769018756312,-1.6030238310443323,-3.056134287511007
-0.8430236021624964,-2.4600728193866175,-1.3030179182635706,-0.91302997270693,-1.602999512349264,-3.056110207234518
-0.8430236021624964,-2.460935417805807,-1.303377930318014,-0.911818806325094,-1.6030238310443323,-3.0560861269580286
-0.842987362538473,-2.4617865721331995,-1.3036893049823206,-0.9104278723346155,-1.602999512349264,-3.0560742060290735
-0.842999283467428,-2.4634636084186,-1.304469410573141,-0.9079220930682581,-1.6030476729022425,-3.0560622851001185
-0.8430112043963831,-2.464301888142721,-1.3048656622516077,-0.9066508452044886,-1.6029756704913538,-3.0560861269580286
-0.8429754416095179,-2.465188805256979,-1.305201832448141,-0.9053080717669886,-1.603011433278219,-3.056098286305563
-0.8429754416095179,-2.466039005910055,-1.305549446736471,-0.904036823903219,-1.6029875914203089,-3.0560622851001185
-0.842987362538473,-2.467752281819479,-1.3063653151141565,-0.901459042225973,-1.6030238310443323,-3.0560503641711634
-0.8429396788226526,-2.4686387220965784,-1.3067014853106897,-0.9001043478595179,-1.6030238310443323,-3.056026283894674
-0.8429277578936976,-2.469489399586813,-1.3070977369891565,-0.89880878130068,-1.6030357519732874,-3.0560622851001185
-0.8429153601275843,-2.4703763167010706,-1.3074935118304651,-0.8974903265582483,-1.6030238310443323,-3.0560503641711634
-0.8429034391986292,-2.472208801900045,-1.3082249800311487,-0.89478046098818,-1.603011433278219,-3.056002442036764
-0.842879597340719,-2.4731672445880335,-1.3085969130145472,-0.8934372107135218,-1.6030357519732874,-3.056002442036764
-0.8429515997516077,-2.4741018454181116,-1.3090174833880823,-0.8921664396869105,-1.6030238310443323,-3.05599028268923
-0.8429034391986292,-2.475072209035055,-1.309425179158346,-0.8908470312701624,-1.6030595938311976,-3.05599028268923
-0.8429034391986292,-2.477024857197897,-1.3101208845721644,-0.8882096449481409,-1.6030357519732874,-3.0559547583209437
-0.8429515997516077,-2.4779351393329065,-1.310540501271383,-0.886914078389303,-1.6030476729022425,-3.0559187571154993
-0.8429153601275843,-2.478917900715963,-1.3108890692340296,-0.8856671492206019,-1.6030595938311976,-3.0559428373919886
-0.8429034391986292,-2.4798997084247034,-1.3112128416644495,-0.884348217641012,-1.6030595938311976,-3.0559428373919886
-0.8428314367877405,-2.4817569891559046,-1.3119929472552698,-0.8818901220904749,-1.6030595938311976,-3.0559666792498987
-0.8428557554828089,-2.482703510914938,-1.3123763243304651,-0.8806312719928187,-1.6031196753131312,-3.0559068361865442
-0.8428314367877405,-2.483626190816061,-1.3127368132220667,-0.8793242613421839,-1.6030715147601526,-3.0559068361865442
-0.8428438345538538,-2.4845364729510706,-1.313084904347555,-0.8781254927264612,-1.6030834356891077,-3.0559428373919886
-0.8428557554828089,-2.4863455931292933,-1.3138769308673304,-0.8756311575519007,-1.6030834356891077,-3.055882994328634
-0.8428438345538538,-2.4872081915484827,-1.3142007032977503,-0.8743365446673792,-1.6030357519732874,-3.055894915257589
-0.8428557554828089,-2.488082234059469,-1.3146327177630823,-0.8731854597674769,-1.603107754384176,-3.0559187571154993
-0.8428438345538538,-2.488873306904928,-1.3150046507464808,-0.8719742933856409,-1.6030715147601526,-3.0559068361865442
-0.8428075949298304,-2.4904783407794397,-1.315688435231344,-0.8694918791400355,-1.6030953566180628,-3.055894915257589
-0.8428075949298304,-2.4912574926959437,-1.3159764448748987,-0.8683174292193812,-1.6030834356891077,-3.0559068361865442
-0.8428195158587855,-2.4920719305621546,-1.3163846174823206,-0.8670819441424769,-1.6030595938311976,-3.0558469931231897
-0.8427956740008753,-2.4928510824786585,-1.3167203108416956,-0.8658712545977991,-1.6030715147601526,-3.0558469931231897
-0.842747990285055,-2.4943960348712366,-1.3174284140216272,-0.8635566870318812,-1.603107754384176,-3.0558348337756556
-0.8427236715899866,-2.4951632658587855,-1.3177521864520472,-0.8623216787921351,-1.6030715147601526,-3.0558229128467005
-0.8427956740008753,-2.495929543172018,-1.3181002775775355,-0.8611949125873011,-1.6031196753131312,-3.0558109919177454
-0.8427956740008753,-2.4967082182513636,-1.3184002081500452,-0.8600319067584437,-1.603107754384176,-3.0557990709887903
-0.8427718321429651,-2.498242203389303,-1.319132153187887,-0.8577058951007288,-1.6030953566180628,-3.0558229128467005
-0.8427837530719202,-2.499068562184469,-1.3195040861712855,-0.8565786520587366,-1.6030953566180628,-3.0558109919177454
-0.842747990285055,-2.49985915819277,-1.3198159376727503,-0.8553436438189905,-1.6030953566180628,-3.055774990712301
-0.8427718321429651,-2.5006259123431605,-1.3201640287982386,-0.8542044798480433,-1.6031196753131312,-3.0557270685779017
-0.8427236715899866,-2.5022671858416956,-1.3208964506732386,-0.8518303076373499,-1.603107754384176,-3.0557389895068567
-0.8426879088031214,-2.5030701796161097,-1.3212197462665003,-0.8507035414325159,-1.6030834356891077,-3.055751148854391
-0.842747990285055,-2.5038846174823206,-1.3215797583209437,-0.8495524565326136,-1.603107754384176,-3.0557270685779017
-0.8427355925189417,-2.504735294972555,-1.3219040075885218,-0.8483532110797327,-1.603107754384176,-3.0557151476489466
-0.8426759878741663,-2.506472412739889,-1.3225873152362269,-0.846170727406637,-1.6031435171710413,-3.0557151476489466
-0.8426879088031214,-2.507287327443258,-1.322900120412008,-0.8449834028827112,-1.6031673590289515,-3.0556791464435022
-0.8426759878741663,-2.5080421606646937,-1.3232834974872034,-0.8438923994647425,-1.6031435171710413,-3.0556791464435022
-0.8426640669452112,-2.5088804403888147,-1.3236072699176233,-0.8427775541888636,-1.6031435171710413,-3.055643145238058
-0.8426759878741663,-2.510437790547506,-1.3242195288287562,-0.8406909147845667,-1.6031673590289515,-3.0556791464435022
-0.842651669179098,-2.5111807028399866,-1.3245671431170862,-0.8396237532245081,-1.6031554380999964,-3.055667225514547
-0.8426278273211878,-2.5119479338275355,-1.3248556295977991,-0.8385689894305628,-1.6031196753131312,-3.0556791464435022
-0.8426039854632776,-2.512702290211813,-1.325179402028219,-0.8375256697284144,-1.6031673590289515,-3.055631224309103
-0.8426397482501429,-2.51410419145693,-1.3257673422442835,-0.8355830351458948,-1.6031315962420862,-3.0555952231036585
-0.8426039854632776,-2.5147631804095667,-1.326042954121725,-0.8345759550677698,-1.6031435171710413,-3.0556193033801478
-0.8426039854632776,-2.51538592973818,-1.3262832800494593,-0.8337248007403772,-1.6031554380999964,-3.0555713812457483
-0.8426039854632776,-2.5160329977618616,-1.3265717665301722,-0.832801644002096,-1.6031435171710413,-3.0555833021747034
-0.8426640669452112,-2.5171950499164026,-1.3270271460162562,-0.8310869375811976,-1.6031554380999964,-3.0556071440326136
-0.8426159063922327,-2.5177462736712855,-1.3272669951068323,-0.8303912321673792,-1.6031792799579065,-3.0556071440326136
-0.8425801436053675,-2.518285099660055,-1.3274830023394983,-0.8296244780169886,-1.6031673590289515,-3.0555952231036585
-0.8425920645343226,-2.5187528769122522,-1.3276632467852991,-0.8288686911212366,-1.6031554380999964,-3.0555952231036585
-0.8425801436053675,-2.519687000905172,-1.3280471006976526,-0.8274300734149378,-1.6031792799579065,-3.0555952231036585
-0.8425682226764124,-2.520130459462301,-1.3282507101642054,-0.8268182913409632,-1.6031554380999964,-3.0555713812457483
-0.8425920645343226,-2.5205138365374964,-1.3284671942340296,-0.8261106649981897,-1.6031554380999964,-3.055559221898214
-0.842531983052389,-2.5209811369525355,-1.3286469618426722,-0.8255112806903284,-1.6031554380999964,-3.0555713812457483
-0.8425558249102991,-2.5217955748187464,-1.3290069738971155,-0.8242405096637171,-1.6031673590289515,-3.055523459111349
-0.842543903981344,-2.522215191517965,-1.329174820576803,-0.8236649672137659,-1.6031792799579065,-3.055559221898214
-0.842531983052389,-2.5226462523089808,-1.3293913046466272,-0.8230536619769495,-1.6031792799579065,-3.0555833021747034
-0.8425801436053675,-2.5230658690081995,-1.329487148915426,-0.8224418799029749,-1.6031792799579065,-3.055535380040304
-0.842531983052389,-2.5238683859454554,-1.3298948446856897,-0.8211830298053187,-1.6031792799579065,-3.055535380040304
-0.842543903981344,-2.5243352095233362,-1.3300989309894007,-0.8206432501422327,-1.6031792799579065,-3.0555713812457483
-0.8425682226764124,-2.5247190634356897,-1.330254856740133,-0.8200681845294397,-1.6031912008868616,-3.055523459111349
-0.8425200621234339,-2.525126282368795,-1.3303869406329554,-0.8193963209735315,-1.603203598652975,-3.055547300969259
-0.842531983052389,-2.526001278554098,-1.3307707945453089,-0.818209473286764,-1.603227440510885,-3.055547300969259
-0.8425801436053675,-2.526384178792135,-1.3309505621539515,-0.8175857702838343,-1.603203598652975,-3.0554638544665735
-0.8425200621234339,-2.526839558278219,-1.3311908880816858,-0.8169739882098597,-1.6031912008868616,-3.0555112997638147
-0.8425200621234339,-2.5272586981402796,-1.3313706556903284,-0.8163264433490198,-1.603227440510885,-3.0554397741900843
-0.8425200621234339,-2.5281575361834925,-1.3317306677447718,-0.8150199095355433,-1.603203598652975,-3.055415932332174
-0.842543903981344,-2.5286009947406214,-1.331959072743551,-0.8142522017108362,-1.603227440510885,-3.0554519335376185
-0.842543903981344,-2.5290678183185022,-1.3321626822101038,-0.8136289755450647,-1.603227440510885,-3.055415932332174
-0.8425558249102991,-2.5295231978045862,-1.3323310057269495,-0.8130415121661585,-1.6031912008868616,-3.0554397741900843
-0.8425081411944788,-2.5303977171527308,-1.3327143828021448,-0.8116982618915003,-1.603203598652975,-3.055427853261129
-0.8424842993365687,-2.530877415333883,-1.3329065481769007,-0.8110149542437952,-1.6031912008868616,-3.05540377298464
-0.8425200621234339,-2.531320873891012,-1.3330863157855433,-0.8103917280780237,-1.603227440510885,-3.0554519335376185
-0.8424723784076136,-2.5317514578448694,-1.333254639302389,-0.8098281065570276,-1.6032393614398401,-3.055427853261129
-0.8424962202655237,-2.532614056264059,-1.3336146513568323,-0.8085454146014612,-1.603227440510885,-3.055415932332174
-0.8424842993365687,-2.5330217520343226,-1.3337824980365198,-0.8079093138324183,-1.6032393614398401,-3.05540377298464
-0.8424842993365687,-2.533417050038473,-1.3339865843402308,-0.8072980085956019,-1.6032393614398401,-3.05540377298464
-0.8425081411944788,-2.5338361899005335,-1.3341544310199183,-0.8067582289325159,-1.6031912008868616,-3.055427853261129
-0.8424723784076136,-2.534686867390768,-1.3344901243792933,-0.8055594603167933,-1.60321551958193,-3.055415932332174
-0.8424604574786585,-2.535034481679098,-1.3346222082721155,-0.8050077597247522,-1.603227440510885,-3.055427853261129
-0.8424723784076136,-2.5354417006122034,-1.3348262945758265,-0.8045042196856897,-1.60321551958193,-3.055427853261129
-0.8424723784076136,-2.5358012358294886,-1.3349345366107386,-0.803964916859762,-1.60321551958193,-3.055427853261129
-0.8424723784076136,-2.536567989979879,-1.3352339903460901,-0.8029816786395472,-1.60321551958193,-3.05540377298464
-0.8424842993365687,-2.5369156042682093,-1.3353422323810022,-0.8024657408343714,-1.6031912008868616,-3.0554397741900843
-0.8424485365497034,-2.537262741719381,-1.335510555897848,-0.8020103613482874,-1.60321551958193,-3.055391852055685
-0.8424366156207483,-2.5375502745257776,-1.3355940024005335,-0.8015788237201136,-1.6032632032977503,-3.05540377298464
-0.8424246946917933,-2.538149658833639,-1.335846249257223,-0.8006556669818323,-1.6033113638507288,-3.05540377298464
-0.8424366156207483,-2.5384371916400355,-1.3359664122210901,-0.8002713362323206,-1.6032751242267054,-3.05540377298464
-0.8424604574786585,-2.538724724446432,-1.3360980192767542,-0.7998998800860804,-1.6033113638507288,-3.055415932332174
-0.8424604574786585,-2.5390122572528284,-1.3362181822406214,-0.7995522657977503,-1.6032994429217737,-3.055427853261129
-0.8424485365497034,-2.5395033995257776,-1.3364222685443323,-0.798748795186178,-1.603335205708639,-3.055415932332174
-0.8424127737628382,-2.539743248616354,-1.3365662733661097,-0.7983892599688929,-1.6032751242267054,-3.05537993112673
-0.8424246946917933,-2.5399463812457483,-1.3366501967059534,-0.7981370131122034,-1.603347126637594,-3.05537993112673
-0.8424003759967249,-2.5402100721942347,-1.3367460409747522,-0.7978494803058069,-1.6032875219928187,-3.0554397741900843
-0.8424485365497034,-2.5406773726092737,-1.3368900457965296,-0.7972262541400355,-1.6033232847796839,-3.055415932332174
-0.8424246946917933,-2.5408690611468714,-1.3369620482074183,-0.7969263235675257,-1.603335205708639,-3.05540377298464
-0.8424366156207483,-2.541072670613424,-1.3370698134051722,-0.7966263929950159,-1.6033113638507288,-3.055427853261129
-0.8424246946917933,-2.5412405172931116,-1.337153736745016,-0.796387020741598,-1.6032994429217737,-3.055427853261129
-0.8424246946917933,-2.541611973439352,-1.3373215834247034,-0.7958830038653772,-1.6033232847796839,-3.05537993112673
-0.8424246946917933,-2.5417917410479944,-1.3373821417437952,-0.7956193129168909,-1.6032875219928187,-3.055391852055685
-0.8424366156207483,-2.5419352690326136,-1.3374417463885706,-0.795379940663473,-1.6032994429217737,-3.055415932332174
-0.8424246946917933,-2.542115036641256,-1.3374903837787073,-0.7951400915728968,-1.6032875219928187,-3.055307928715841
-0.8424246946917933,-2.5424025694476526,-1.337574307118551,-0.7947323958026331,-1.6032751242267054,-3.0553680101977747
-0.8424003759967249,-2.542569939290182,-1.3376343886004847,-0.7945526281939905,-1.6032994429217737,-3.0553320089923304
-0.8424485365497034,-2.5426419417010706,-1.3377297560321253,-0.7943962256060999,-1.6032875219928187,-3.0553200880633753
-0.8424366156207483,-2.542762104664938,-1.3377297560321253,-0.7941926161395472,-1.6032875219928187,-3.0553680101977747
-0.8424246946917933,-2.5429537932025355,-1.3377659956561487,-0.7938569227801722,-1.6032512823687952,-3.0553439299212855
-0.8424127737628382,-2.5430496374713343,-1.3378260771380823,-0.7937968412982386,-1.6032751242267054,-3.05537993112673
-0.8424246946917933,-2.543121639882223,-1.337910000477926,-0.7935689131366175,-1.6033232847796839,-3.0553558508502405
-0.8424127737628382,-2.5431812445269983,-1.337886158620016,-0.7935927549945276,-1.6032751242267054,-3.055391852055685
-0.8423765341388147,-2.543265167866842,-1.3379462401019495,-0.7934492270099085,-1.6032875219928187,-3.0553439299212855
-0.8424127737628382,-2.5432890097247522,-1.3379338423358362,-0.7933772245990198,-1.6032751242267054,-3.0553680101977747
-0.8424246946917933,-2.5433133284198206,-1.3379700819598597,-0.7932933012591761,-1.6032994429217737,-3.0553200880633753
-0.8424246946917933,-2.5433133284198206,-1.3379223982440394,-0.7934492270099085,-1.6032994429217737,-3.0553439299212855
-0.8423884550677698,-2.5433252493487757,-1.3379223982440394,-0.7934730688678187,-1.6032875219928187,-3.0553439299212855
-0.8424003759967249,-2.5432890097247522,-1.337886158620016,-0.7934849897967737,-1.6032512823687952,-3.0553558508502405
-0.8423646132098597,-2.543265167866842,-1.3379338423358362,-0.7934730688678187,-1.6032994429217737,-3.0553200880633753
-0.8423765341388147,-2.543265167866842,-1.3379462401019495,-0.7934492270099085,-1.6032994429217737,-3.0553558508502405
-0.8423884550677698,-2.543277088795797,-1.3379462401019495,-0.7934969107257288,-1.6032751242267054,-3.0553320089923304
-0.8423765341388147,-2.5432890097247522,-1.3379223982440394,-0.7934849897967737,-1.6032751242267054,-3.0553558508502405
-0.8424246946917933,-2.5433133284198206,-1.337898079548971,-0.7934969107257288,-1.6032512823687952,-3.0553558508502405
-0.8423765341388147,-2.5433014074908655,-1.3379462401019495,-0.7934730688678187,-1.6032994429217737,-3.0553439299212855
-0.8424127737628382,-2.543277088795797,-1.3379462401019495,-0.7934969107257288,-1.6032994429217737,-3.0553558508502405
-0.8424246946917933,-2.5432890097247522,-1.3379223982440394,-0.7934849897967737,-1.6032994429217737,-3.0553200880633753
-0.8423646132098597,-2.543277088795797,-1.337910000477926,-0.7934611479388636,-1.6032994429217737,-3.0553439299212855
-0.8424127737628382,-2.5432890097247522,-1.3379338423358362,-0.7934730688678187,-1.6032994429217737,-3.0553320089923304
-0.8423765341388147,-2.5433133284198206,-1.3379462401019495,-0.7934969107257288,-1.6032875219928187,-3.0553439299212855
-0.8424127737628382,-2.5432890097247522,-1.337910000477926,-0.7934730688678187,-1.6032994429217737,-3.0553439299212855
-0.8424003759967249,-2.5432890097247522,-1.337910000477926,-0.7934730688678187,-1.6032994429217737,-3.055307928715841
-0.8423884550677698,-2.543277088795797,-1.3379223982440394,-0.7934253851519983,-1.6032632032977503,-3.0553439299212855
-0.8423884550677698,-2.5432890097247522,-1.3379223982440394,-0.7934492270099085,-1.6032512823687952,-3.0553558508502405
-0.8424003759967249,-2.5432890097247522,-1.3379462401019495,-0.7934730688678187,-1.6032751242267054,-3.0553320089923304
-0.8423884550677698,-2.5432890097247522,-1.3379223982440394,-0.7934492270099085,-1.6032994429217737,-3.0553439299212855
-0.8423407713519495,-2.5433014074908655,-1.337910000477926,-0.7934849897967737,-1.6032994429217737,-3.05537993112673
-0.8424003759967249,-2.5433014074908655,-1.337886158620016,-0.7935331503497522,-1.6032875219928187,-3.0553200880633753
-0.8423646132098597,-2.543277088795797,-1.337898079548971,-0.7936289946185511,-1.6032875219928187,-3.0553320089923304
-0.8423884550677698,-2.5433014074908655,-1.337898079548971,-0.793617073689596,-1.6032994429217737,-3.0553439299212855
-0.8423765341388147,-2.543241326008932,-1.337898079548971,-0.7937009970294397,-1.6032875219928187,-3.0553439299212855
-0.8423884550677698,-2.543229405079977,-1.3378260771380823,-0.7938087622271937,-1.6033113638507288,-3.0553680101977747
-0.8423884550677698,-2.5432055632220667,-1.3377540747271937,-0.793952767048971,-1.6033113638507288,-3.0553320089923304
-0.8423884550677698,-2.543133560811178,-1.3377421537982386,-0.793952767048971,-1.6032751242267054,-3.0553320089923304
-0.8423646132098597,-2.543037716542379,-1.3377779165851038,-0.7940848509417933,-1.6032994429217737,-3.0553200880633753
-0.8423526922809046,-2.5428698698626917,-1.3376219908343714,-0.7943123022662562,-1.6033113638507288,-3.0553320089923304
-0.8423765341388147,-2.5427497068988245,-1.3376582304583948,-0.7944920698748987,-1.6032632032977503,-3.0553320089923304
-0.8423646132098597,-2.5426300207721155,-1.337550465260641,-0.7946723143206995,-1.6032875219928187,-3.0553200880633753
-0.8424003759967249,-2.5424984137164515,-1.3374903837787073,-0.7948520819293421,-1.6032994429217737,-3.055307928715841
-0.8424003759967249,-2.542187039052145,-1.3373940626727503,-0.7952716986285608,-1.6033113638507288,-3.0553439299212855
-0.8424127737628382,-2.541995350514547,-1.337273899708883,-0.7955835501300257,-1.6032751242267054,-3.0553200880633753
-0.8424003759967249,-2.5417917410479944,-1.3372138182269495,-0.7957990805255335,-1.6032632032977503,-3.0553439299212855
-0.8424127737628382,-2.5415876547442835,-1.3370941321002405,-0.7961710135089319,-1.6033113638507288,-3.0553439299212855
-0.8423526922809046,-2.5411327520953577,-1.3369024435626429,-0.7968066374408167,-1.6032632032977503,-3.0553439299212855
-0.8423526922809046,-2.5408809820758265,-1.336841885243551,-0.7971184889422815,-1.6032632032977503,-3.0553439299212855
-0.8423884550677698,-2.5406416098224085,-1.336722199116842,-0.7974541823016565,-1.6032632032977503,-3.0553200880633753
-0.8423884550677698,-2.540365997944967,-1.3366144339190882,-0.7978256384478968,-1.6032994429217737,-3.0553439299212855
-0.8423765341388147,-2.539767090474264,-1.3363860289203089,-0.7985809485064905,-1.6032994429217737,-3.0553439299212855
-0.8423884550677698,-2.5394795576678675,-1.3362658659564417,-0.7989762465106409,-1.603227440510885,-3.0553320089923304
-0.8423884550677698,-2.5391438643084925,-1.3361581007586878,-0.7993605772601526,-1.6032994429217737,-3.0553320089923304
-0.8423884550677698,-2.5388687292682093,-1.336062256489889,-0.7998760382281702,-1.6032994429217737,-3.0553439299212855
-0.8424246946917933,-2.538185421620504,-1.3358100096331995,-0.800751034413473,-1.6032875219928187,-3.0553558508502405
-0.8423765341388147,-2.537849728261129,-1.3357022444354456,-0.8011944929706019,-1.603227440510885,-3.0553558508502405
-0.8423646132098597,-2.537502113972799,-1.335534397755758,-0.8016989866839808,-1.6032875219928187,-3.0553200880633753
-0.8424127737628382,-2.5371907393084925,-1.3354018370257776,-0.8021662870990198,-1.603203598652975,-3.0553320089923304
-0.8423884550677698,-2.5365079084979456,-1.3351262251483362,-0.8031614462481897,-1.6031792799579065,-3.055284086857931
-0.8423884550677698,-2.536172691975729,-1.3350184599505823,-0.8036769072162073,-1.6030595938311976,-3.055272165928976
-0.8424003759967249,-2.5358131567584437,-1.33488637605776,-0.8041685263263147,-1.6030953566180628,-3.055296007786886
-0.8423884550677698,-2.5354655424701136,-1.3347304503070276,-0.8046839872943323,-1.6031435171710413,-3.055307928715841
-0.8424127737628382,-2.534686867390768,-1.3344300428973597,-0.8057511488543909,-1.6031435171710413,-3.0553320089923304
-0.8424003759967249,-2.534339253102438,-1.3342865149127405,-0.8062909285174769,-1.6030476729022425,-3.0553320089923304
-0.8424246946917933,-2.533992115651266,-1.3341062704669397,-0.8068421522723597,-1.6030238310443323,-3.055284086857931
-0.8423884550677698,-2.5335848967181605,-1.3339265028582972,-0.8073938528644007,-1.6030834356891077,-3.055307928715841
-0.8424246946917933,-2.5328062216388147,-1.333602253590719,-0.808413330708639,-1.6031554380999964,-3.055296007786886
-0.8423765341388147,-2.532386604939596,-1.3334820906268519,-0.809000317250387,-1.6030476729022425,-3.0552600065814417
-0.8424246946917933,-2.5320032278644007,-1.333266560231344,-0.809540096913473,-1.603011433278219,-3.055272165928976
-0.8424127737628382,-2.531619373952047,-1.3330987135516565,-0.8101394812213343,-1.6031315962420862,-3.055188242589132
-0.8424003759967249,-2.5307815710650843,-1.3327863852130335,-0.8112667242633265,-1.6030595938311976,-3.055164162312643
-0.8423765341388147,-2.5303619543658655,-1.3325584570514124,-0.8118904272662562,-1.6029875914203089,-3.055152241383688
-0.8424003759967249,-2.529966656361715,-1.3324506918536585,-0.8124898115741175,-1.6029637495623987,-3.055176083241598
-0.8424127737628382,-2.5295589605914515,-1.3322470823871058,-0.8130772749530237,-1.6030595938311976,-3.055164162312643
-0.8423765341388147,-2.5287087599383753,-1.3318865934955042,-0.8144081274615687,-1.6030476729022425,-3.055200163518087
-0.8424003759967249,-2.5282414595233362,-1.3317063490497034,-0.8150318304644983,-1.6029036680804651,-3.055188242589132
-0.8423526922809046,-2.527774159108297,-1.3314908186541956,-0.8157156149493616,-1.6029637495623987,-3.055188242589132
-0.8423884550677698,-2.5273545424090784,-1.331311051045553,-0.8163746039019983,-1.6029875914203089,-3.0551281611071985
-0.8423526922809046,-2.526384178792135,-1.3309028784381312,-0.8177297751056116,-1.6030357519732874,-3.055164162312643
-0.8424366156207483,-2.525917355214254,-1.3307107130633753,-0.8183649222003382,-1.6028559843646448,-3.055176083241598
-0.8424003759967249,-2.525426212941305,-1.3304827849017542,-0.8190243879901331,-1.6029279867755335,-3.055164162312643
-0.8423884550677698,-2.5248988310443323,-1.330242935811178,-0.819683853779928,-1.6029637495623987,-3.055164162312643
-0.8424003759967249,-2.5239041487323206,-1.3298710028277796,-0.82111102739443,-1.603011433278219,-3.055176083241598
-0.8423765341388147,-2.5234130064593714,-1.3296788374530237,-0.8217819372760218,-1.6028316656695765,-3.055188242589132
-0.8423765341388147,-2.522909943257467,-1.3295229117022913,-0.8225138823138636,-1.6029518286334437,-3.055164162312643
-0.8424003759967249,-2.522406880055563,-1.32927114168276,-0.8232453505145472,-1.6029518286334437,-3.0551281611071985
-0.8423884550677698,-2.5213406721698206,-1.3288634459124964,-0.8247678915606897,-1.602999512349264,-3.055164162312643
-0.8423884550677698,-2.5207770506488245,-1.3286469618426722,-0.8255236784564417,-1.6028316656695765,-3.055176083241598
-0.8424003759967249,-2.520214382802145,-1.3284552733050745,-0.826242748891012,-1.6028679052936,-3.0551403204547327
-0.8424127737628382,-2.5197227636920374,-1.3282268683062952,-0.8269861380206507,-1.6029155890094202,-3.055176083241598
-0.8423884550677698,-2.51859695116152,-1.327782932912008,-0.8285568396197718,-1.6029279867755335,-3.0551281611071985
-0.8424127737628382,-2.5180934111224573,-1.3276150862323206,-0.829348389302389,-1.6027839819537562,-3.055200163518087
-0.8423884550677698,-2.5175188223468226,-1.3273633162127894,-0.830139462147848,-1.602772061024801,-3.0551281611071985
-0.8423526922809046,-2.5169675985919397,-1.327122990285055,-0.8309310118304651,-1.602879826222555,-3.0551403204547327
-0.8423884550677698,-2.5159013907061976,-1.3267033735858362,-0.8325255552874964,-1.6029036680804651,-3.055164162312643
-0.8423884550677698,-2.51536208788027,-1.3264992872821253,-0.8333409468280237,-1.6028078238116663,-3.0551281611071985
-0.8423646132098597,-2.514798943196432,-1.326258961354391,-0.834144417439596,-1.602760140095846,-3.0551403204547327
-0.8423884550677698,-2.514211956654684,-1.3260191122638147,-0.8349841276751917,-1.6028440634356897,-3.0551281611071985
-0.8424246946917933,-2.5130255858050745,-1.3255394140826624,-0.8365543524371546,-1.6028078238116663,-3.0551043192492884
-0.8423884550677698,-2.512414280568258,-1.3252752462970179,-0.837381664906637,-1.602760140095846,-3.0550923983203333
-0.8423884550677698,-2.5118401686297815,-1.3250592390643519,-0.838257137929098,-1.6027239004718226,-3.0551043192492884
-0.8424246946917933,-2.511228863392965,-1.3248074690448206,-0.8391326109515589,-1.6028440634356897,-3.0551281611071985
-0.8424366156207483,-2.5099828878985804,-1.3243277708636683,-0.8407748381244105,-1.6028197447406214,-3.055044476185934
-0.8424003759967249,-2.509360138569967,-1.3240273634540003,-0.8417223135577601,-1.6027000586139124,-3.054972473775045
-0.8424127737628382,-2.508700672780172,-1.3237879912005823,-0.8425496260272425,-1.602652374898092,-3.0549963156329554
-0.8424246946917933,-2.5080183188067835,-1.3234875837909144,-0.8435691038714808,-1.6027239004718226,-3.0549963156329554
-0.8423646132098597,-2.506580654774801,-1.3228758017169397,-0.8455231825457972,-1.602652374898092,-3.054936472569601
-0.8424003759967249,-2.5058258215533655,-1.3225753943072718,-0.8465426603900355,-1.6026161352740687,-3.05496055284609
-0.8424003759967249,-2.505106751118795,-1.3222993055926722,-0.8476336638080042,-1.6025803724872034,-3.054972473775045
-0.8423646132098597,-2.50437575975527,-1.3219760099994105,-0.8487370649920862,-1.6026762167560022,-3.05496055284609
-0.8424246946917933,-2.5028422514544886,-1.321291748677389,-0.8509190718280237,-1.602652374898092,-3.054972473775045
-0.8424246946917933,-2.5020273367511194,-1.3209803740130823,-0.8521178404437464,-1.602532211934225,-3.05496055284609
-0.8424003759967249,-2.501165215169088,-1.3206799666034144,-0.8533051649676722,-1.6024726072894495,-3.0549963156329554
-0.8423884550677698,-2.500338379536764,-1.3202717939959925,-0.8545163313495081,-1.6026399771319788,-3.054972473775045
-0.8424003759967249,-2.49860126176943,-1.319564167653219,-0.8570578734027308,-1.60254413286318,-3.054936472569601
-0.8423884550677698,-2.4977625052081507,-1.319239918385641,-0.8583052794085901,-1.6025202910052698,-3.0549009482013147
-0.8424127737628382,-2.4968283812152308,-1.3188560644732874,-0.8596962133990687,-1.602436367665426,-3.05491286913027
-0.8423765341388147,-2.495941464100973,-1.3185079733477991,-0.8610270659076136,-1.60254413286318,-3.0548768679248255
-0.8424003759967249,-2.49408466020693,-1.317728344594137,-0.8636286894427698,-1.6025083700763147,-3.0548411051379603
-0.8423884550677698,-2.4931982199298304,-1.3173201719867151,-0.8650201002704065,-1.6024602095233362,-3.0548411051379603
-0.8424246946917933,-2.492227856312887,-1.316984001790182,-0.8664224783526819,-1.602316681538717,-3.0548530260669153
-0.8424003759967249,-2.491293255482809,-1.3165763060199183,-0.86774188676943,-1.6024845282184046,-3.054805103932516
-0.8423526922809046,-2.4894126097308558,-1.3158562819110315,-0.8703797499286097,-1.602316681538717,-3.054805103932516
-0.8424003759967249,-2.4884660879718226,-1.3155086676227015,-0.8716743628131312,-1.6023643652545374,-3.054817024861471
-0.8424485365497034,-2.4875438849078577,-1.3150885740863245,-0.8729575316058558,-1.60219651857485,-3.054817024861471
-0.8424246946917933,-2.486561123524801,-1.3147524038897913,-0.8741324583636683,-1.6024006048785608,-3.054828945790426
-0.8424003759967249,-2.484776322041647,-1.3140085379229944,-0.8767102400409144,-1.602304760609762,-3.054805103932516
-0.8424003759967249,-2.483901325856344,-1.3136609236346644,-0.8779452482806605,-1.6022566000567835,-3.054828945790426
-0.8423765341388147,-2.482954804097311,-1.3133123556720179,-0.8792527357684534,-1.6021726767169397,-3.054805103932516
-0.8424003759967249,-2.482056442891256,-1.3129523436175745,-0.8805235067950647,-1.602304760609762,-3.054709259663717
-0.8424127737628382,-2.4802830854998987,-1.3122928778277796,-0.8829215208636683,-1.602304760609762,-3.054721180592672
-0.8423646132098597,-2.4794567267047327,-1.3118847052203577,-0.8841326872455042,-1.6021845976458948,-3.0546732584582728
-0.8424003759967249,-2.4786303679095667,-1.3115366140948694,-0.8854158560382288,-1.6021249930011194,-3.054721180592672
-0.8423884550677698,-2.477755848561422,-1.3111770788775843,-0.8866265455829065,-1.6022327581988733,-3.0546491781817835
-0.8424003759967249,-2.475982968007223,-1.3104570547686976,-0.8890488783465784,-1.6021845976458948,-3.054685179387228
-0.8424127737628382,-2.475179974232809,-1.3100970427142542,-0.890332047139303,-1.6021607557879847,-3.0546491781817835
-0.8424127737628382,-2.4743531386004847,-1.309737507496969,-0.8915188948260706,-1.6020529905902308,-3.0546613375293177
-0.8423884550677698,-2.4734790960894983,-1.309413258229391,-0.8927658239947718,-1.6021845976458948,-3.0546491781817835
-0.8424127737628382,-2.4717653433429163,-1.3086932341205042,-0.8953197638141077,-1.6020167509662073,-3.0546253363238733
-0.8424127737628382,-2.4709389845477503,-1.308345142995016,-0.8965190092669886,-1.602088753377096,-3.0546253363238733
-0.8423765341388147,-2.470004383717672,-1.3079736868487757,-0.8978856245623987,-1.6019209066974085,-3.0546134153949183
-0.8423884550677698,-2.469177548085348,-1.3076131979571741,-0.8991687933551233,-1.602076832448141,-3.054577414189474
-0.8423884550677698,-2.4674046675311487,-1.3068330923663538,-0.9017346541034144,-1.601957146321432,-3.0545294920550745
-0.8423526922809046,-2.466518227254049,-1.3065093199359339,-0.903017822896139,-1.601969067250387,-3.0545414129840296
-0.8424127737628382,-2.465583626423971,-1.3060653845416468,-0.9043248335467737,-1.6018250624286097,-3.0545414129840296
-0.8424127737628382,-2.4646976629840296,-1.3057292143451136,-0.9055359999286097,-1.601969067250387,-3.0545054117785853
-0.8424127737628382,-2.4628284613238733,-1.3049491087542933,-0.9081500212298792,-1.6018250624286097,-3.0545294920550745
-0.8424127737628382,-2.461893860493795,-1.304565731679098,-0.9095762411700647,-1.601969067250387,-3.05449349084963
-0.8423765341388147,-2.460959259663717,-1.3041694800006312,-0.9108355681048792,-1.6018007437335413,-3.05449349084963
-0.8423884550677698,-2.460013214741842,-1.303821865712301,-0.9121306578265589,-1.6018489042865198,-3.054457489644186
-0.8423765341388147,-2.4581201712237757,-1.3030536810504358,-0.9148162047015589,-1.6018007437335413,-3.054457489644186
-0.8424246946917933,-2.457125965748922,-1.3026579062091272,-0.9160874525653284,-1.601957146321432,-3.0545054117785853
-0.8423884550677698,-2.456155602131979,-1.3022502104388636,-0.9174183050738733,-1.6017769018756312,-3.0544455687152308
-0.8423884550677698,-2.455244843159811,-1.3018296400653284,-0.9187615553485315,-1.6018489042865198,-3.0543976465808313
-0.8423646132098597,-2.4533045927630823,-1.3010733763324183,-0.9214714209185999,-1.6016929785357874,-3.0544455687152308
-0.8423884550677698,-2.4523337523089808,-1.300713841115133,-0.9227426687823694,-1.6018250624286097,-3.0544336477862757
-0.8423646132098597,-2.451399628316061,-1.300366226826803,-0.9240730444537562,-1.6017287413226526,-3.0544455687152308
-0.8424003759967249,-2.4504531065570276,-1.299922291432516,-0.9254644552813929,-1.6016810576068323,-3.0544455687152308
-0.8424003759967249,-2.448620144520895,-1.299189869557516,-0.9280779997455042,-1.6016328970538538,-3.0544214884387415
-0.8423646132098597,-2.447733704243795,-1.2988422552691858,-0.9293492476092737,-1.6016572157489222,-3.0544095675097864
-0.8424003759967249,-2.4468234221087855,-1.2984703222857874,-0.9306443373309534,-1.6016810576068323,-3.0543976465808313
-0.8423646132098597,-2.4459250609027308,-1.2981222311602991,-0.9320233503924769,-1.6015012899981897,-3.054373566304342
-0.8423765341388147,-2.4441397825824183,-1.2973302046405237,-0.9344690481769007,-1.6015852133380335,-3.054338041936056
-0.8423526922809046,-2.443277661000387,-1.2969825903521937,-0.9357879797564905,-1.6015494505511683,-3.0543020407306116
-0.8423765341388147,-2.442390743886129,-1.2966106573687952,-0.9369991461383265,-1.6017048994647425,-3.054338041936056
-0.8423765341388147,-2.441540066395895,-1.296286408101217,-0.9381621519671839,-1.6015012899981897,-3.054338041936056
-0.8423646132098597,-2.4398511091815394,-1.2955902258502405,-0.9408000151263636,-1.6015852133380335,-3.0543020407306116
-0.8423526922809046,-2.4389165083514612,-1.295206371937887,-0.9420350233661097,-1.601429287587301,-3.0542901198016565
-0.8424246946917933,-2.438053909932272,-1.2949183622943323,-0.9432461897479456,-1.6016328970538538,-3.0542901198016565
-0.8423884550677698,-2.4372156302081507,-1.2945101896869105,-0.9445055166827601,-1.6015012899981897,-3.0542781988727015
-0.8423884550677698,-2.435430351887838,-1.2938030401812952,-0.9469154516803187,-1.6016209761248987,-3.054326121007101
-0.8423288504229944,-2.4345677534686487,-1.2934425512896937,-0.94818622270693,-1.601429287587301,-3.0543020407306116
-0.8423884550677698,-2.433681313191549,-1.2931068579303187,-0.9494574705706995,-1.6015251318561,-3.0542660395251673
-0.8423526922809046,-2.4328067938434046,-1.2927587668048304,-0.9507764021502894,-1.6015132109271448,-3.054230276738302
-0.8423884550677698,-2.4310577551471155,-1.2919791380511683,-0.9532583395587366,-1.6015613714801233,-3.054218117390768
-0.8423765341388147,-2.4301231543170374,-1.2916186491595667,-0.9546015898333948,-1.601417366658346,-3.0541582743274134
-0.8423526922809046,-2.429249111806051,-1.2912347952472132,-0.9558723608600062,-1.6013572851764124,-3.0541942755328577
-0.8423646132098597,-2.4283621946917933,-1.290887180958883,-0.9571197668658655,-1.6014412085162562,-3.0541942755328577
-0.8423407713519495,-2.4264939467059534,-1.290154759083883,-0.9597814718829554,-1.6013696829425257,-3.0541823546039026
-0.8423045317279261,-2.4255831877337855,-1.2898672262774866,-0.9610045591937464,-1.6014531294452112,-3.0541823546039026
-0.8423407713519495,-2.424696747456686,-1.2894709745990198,-0.9623716513263147,-1.601297680531637,-3.0541582743274134
-0.842292610798971,-2.423774067555563,-1.2891109625445765,-0.9637144247638147,-1.6014655272113245,-3.0541823546039026
-0.8423045317279261,-2.4219535032855433,-1.2883670965777796,-0.9661844412433069,-1.6012733618365687,-3.0541582743274134
-0.8423045317279261,-2.420994583760397,-1.2879951635943812,-0.9674432913409632,-1.6013696829425257,-3.0541463533984583
-0.8423045317279261,-2.420084778462545,-1.2876232306109827,-0.9687145392047327,-1.601189915333883,-3.054134194050924
-0.842292610798971,-2.419138256703512,-1.2872393766986292,-0.9699972311602991,-1.601285759602682,-3.0540862719165247
-0.8423288504229944,-2.417401138936178,-1.2865069548236292,-0.9725154081927698,-1.6011298338519495,-3.0540743509875696
-0.8423169294940394,-2.416454617177145,-1.2861235777484339,-0.9738705793963831,-1.6012733618365687,-3.05402642885317
-0.8423045317279261,-2.4155800978290003,-1.2857516447650355,-0.9750693480121058,-1.6011059919940394,-3.0540505091296595
-0.842292610798971,-2.4146340529071253,-1.285391632710592,-0.9763529936419886,-1.6012137571917933,-3.0540505091296595
-0.8423407713519495,-2.4128249327289026,-1.2846711317645472,-0.9789183775531214,-1.6010339895831507,-3.054014507924215
-0.8423045317279261,-2.411950413380758,-1.2842753569232386,-0.980201546345846,-1.6012375990497034,-3.054014507924215
-0.8423288504229944,-2.4110639731036585,-1.2839153448687952,-0.9814484755145472,-1.600973908101217,-3.0540383497821253
-0.842292610798971,-2.4101174513446253,-1.2835314909564417,-0.9827554861651819,-1.6011298338519495,-3.053978506718771
-0.842292610798971,-2.408344570790426,-1.28282338777651,-0.9854171911822718,-1.600950066243307,-3.053990427647726
-0.8422568480121058,-2.4074581305133265,-1.2824996153460901,-0.9866402784930628,-1.601081673298971,-3.0539546648608606
-0.8423045317279261,-2.406571690236227,-1.2821391264544886,-0.9879596869098108,-1.6008780638324183,-3.0539665857898157
-0.842292610798971,-2.405757252370016,-1.281731907521383,-0.9892905394183558,-1.6010459105121058,-3.0539546648608606
-0.8422806898700159,-2.4039724508868616,-1.280987564717428,-0.9918683210956019,-1.6009019056903284,-3.0539425055133265
-0.8422687689410608,-2.4030616919146937,-1.2805679480182093,-0.9931276480304163,-1.6009262243853968,-3.0539305845843714
-0.8422687689410608,-2.402187172566549,-1.2802913824664515,-0.9944585005389612,-1.6007583777057093,-3.053894583378927
-0.8422687689410608,-2.4013007322894495,-1.279884163533346,-0.9956939856158655,-1.6009858290301722,-3.0538585821734827
-0.842292610798971,-2.3994677702533167,-1.279139820729391,-0.9981992880450647,-1.600842301045553,-3.053870741521017
-0.8423045317279261,-2.398581329976217,-1.2787917296039026,-0.9995186964618128,-1.600830380116598,-3.053882662449972
-0.8422806898700159,-2.3976948896991175,-1.2784560362445276,-1.0006697813617151,-1.6007464567767542,-3.0538585821734827
-0.8423169294940394,-2.3967607657061976,-1.278071705495016,-1.0019648710833948,-1.600854221974508,-3.053882662449972
-0.8423288504229944,-2.3948920408831995,-1.2773640791522425,-1.0046027342425745,-1.6008661429034632,-3.0538228193866175
-0.8422687689410608,-2.3939693609820765,-1.276992146168844,-1.0058615843402308,-1.6006982962237757,-3.0538347403155726
-0.8423045317279261,-2.393082920704977,-1.2765839735614222,-1.0070484320269983,-1.600830380116598,-3.0538347403155726
-0.8422687689410608,-2.392172638569967,-1.276259724293844,-1.0083439985858362,-1.600734059010641,-3.0537987391101282
-0.8423169294940394,-2.3903515974627894,-1.275492016469137,-1.0108497778521937,-1.6008179823504847,-3.0538228193866175
-0.842292610798971,-2.3894055525409144,-1.2751081625567835,-1.012120548878805,-1.600614372883932,-3.053786818181173
-0.842292610798971,-2.388459030781881,-1.2747481505023401,-1.013451878224508,-1.6007702986346644,-3.053763214741842
-0.8423045317279261,-2.3875721136676233,-1.2743881384478968,-1.0147345701800745,-1.600626293812887,-3.0537272135363978
-0.8422449270831507,-2.3857396284686487,-1.2736080328570765,-1.0172765890704554,-1.6006744543658655,-3.0537033716784876
-0.8422806898700159,-2.3848288694964808,-1.2732003370868128,-1.0186317602740687,-1.6005423704730433,-3.0537033716784876
-0.8422568480121058,-2.3839548269854944,-1.272888485585348,-1.019890610371725,-1.6006982962237757,-3.053739134465353
-0.8422086874591272,-2.382960621510641,-1.2725284735309046,-1.021210018788473,-1.6005786100970667,-3.0537152926074427
-0.8422206083880823,-2.381223503743307,-1.2717602888690394,-1.0238717238055628,-1.6005542914019983,-3.0537033716784876
-0.8422330061541956,-2.3803370634662073,-1.2713645140277308,-1.025130573903219,-1.6004346052752894,-3.0536792914019983
-0.8422206083880823,-2.3794387022601526,-1.2709925810443323,-1.0264018217669886,-1.6005786100970667,-3.0537152926074427
-0.8422330061541956,-2.3785999456988733,-1.270655934010641,-1.0276969114886683,-1.6004107634173792,-3.053643290196554
-0.8422449270831507,-2.376815144215719,-1.2699368635760706,-1.0302146116839808,-1.600506607686178,-3.053631369267599
-0.8422568480121058,-2.3759525457965296,-1.2696002165423792,-1.0314019362079065,-1.600386921559469,-3.0535834471331995
-0.8422206083880823,-2.37506610551943,-1.2691925207721155,-1.032649342213766,-1.600506607686178,-3.053619448338644
-0.8422086874591272,-2.3741796652423304,-1.268808666859762,-1.0339439550982874,-1.6003149191485804,-3.0535953680621546
-0.8422449270831507,-2.3724430243121546,-1.2680886427508753,-1.0364497343646448,-1.600386921559469,-3.0535834471331995
-0.8422330061541956,-2.371556584035055,-1.2677047888385218,-1.0377209822284144,-1.6003268400775355,-3.0535355249988
-0.8422330061541956,-2.370657745991842,-1.2673805395709437,-1.0389440695392054,-1.6004346052752894,-3.0535834471331995
-0.8422330061541956,-2.3697713057147425,-1.266984764729635,-1.040215317402975,-1.6003029982196253,-3.0535593668567103
-0.8422449270831507,-2.367986504231588,-1.26624042192568,-1.0427573362933558,-1.6003506819354456,-3.0535355249988
-0.8422568480121058,-2.3670886198626917,-1.2659052054034632,-1.0440037886248987,-1.6003387610064905,-3.053511444722311
-0.8422206083880823,-2.366213623677389,-1.2654970327960413,-1.0453231970416468,-1.6004226843463343,-3.053511444722311
-0.8422206083880823,-2.3652671019183558,-1.2651732603656214,-1.0466182867633265,-1.6002548376666468,-3.0534876028644007
-0.8422086874591272,-2.363422695790426,-1.2644408384906214,-1.0492680708514612,-1.6002910772906702,-3.0534635225879114
-0.8422086874591272,-2.362511936818258,-1.264057461415426,-1.0505273977862757,-1.600170914326803,-3.0534396807300013
-0.8422086874591272,-2.361565891896383,-1.2636731306659144,-1.051894489918844,-1.6003149191485804,-3.0534396807300013
-0.8422206083880823,-2.3605955282794397,-1.263325039540426,-1.0532730261432093,-1.6001952330218714,-3.0534516016589563
-0.8422206083880823,-2.3587148825274866,-1.262557331715719,-1.0558393637286585,-1.6002548376666468,-3.0534516016589563
-0.8422330061541956,-2.3577445189105433,-1.2621853987323206,-1.0572541395770472,-1.6000989119159144,-3.0534516016589563
-0.8422449270831507,-2.3568223158465784,-1.2617648283587855,-1.058561150227682,-1.6002309958087366,-3.0534396807300013
-0.8422206083880823,-2.3558762709247034,-1.2613571325885218,-1.0598557631122034,-1.6001351515399378,-3.053415600453512
-0.8422206083880823,-2.354007069264547,-1.2606375853167933,-1.0624459425555628,-1.600182835255758,-3.0533676783191126
-0.8422086874591272,-2.3530848662005823,-1.2602174917804163,-1.0637529532061976,-1.6000750700580042,-3.053391758595602
-0.8422330061541956,-2.3521626631366175,-1.2598212401019495,-1.0650361219989222,-1.6000631491290491,-3.0533676783191126
-0.8422330061541956,-2.351276222859518,-1.2594855467425745,-1.0664027372943323,-1.600158993397848,-3.0533316771136683
-0.8422206083880823,-2.34945518175234,-1.2587531248675745,-1.0690410772906702,-1.6001232306109827,-3.053319756184713
-0.8422206083880823,-2.3485448996173304,-1.2583935896502894,-1.0703356901751917,-1.6000273863421839,-3.053307835255758
-0.8422086874591272,-2.3476584593402308,-1.258021656666891,-1.0715354124652308,-1.6000154654132288,-3.053295675908224
-0.8421967665301722,-2.346760098134176,-1.2576373259173792,-1.0727818647967737,-1.6001232306109827,-3.0533557573901575
-0.842172924672262,-2.3449748198138636,-1.2568815390216272,-1.0753958860980433,-1.600051228200094,-3.053307835255758
-0.8422330061541956,-2.3441489378558558,-1.2565692106830042,-1.0767272154437464,-1.5999673048602503,-3.053295675908224
-0.8422206083880823,-2.3432863394366663,-1.256209675465719,-1.0779021422015589,-1.5998476187335413,-3.053284231816427
-0.8422206083880823,-2.342447582875387,-1.2558615843402308,-1.0791614691363733,-1.5999911467181605,-3.053260151539938
-0.8421610037433069,-2.34080678621401,-1.2551658789264124,-1.0816314856158655,-1.5998833815204065,-3.0532363096820276
-0.8422206083880823,-2.3399084250079554,-1.2548297087298792,-1.082914177571432,-1.5998953024493616,-3.0532363096820276
-0.8421848456012171,-2.339081589375631,-1.254470173512594,-1.084161106740133,-1.5997274557696741,-3.0532241503344935
-0.8421967665301722,-2.3382194677936,-1.2541096846209925,-1.0852769056903284,-1.599931542073385,-3.053164307271139
-0.8421967665301722,-2.3365543524371546,-1.2534979025470179,-1.087783161793844,-1.5997636953936976,-3.0531163851367396
-0.8421610037433069,-2.3357394377337855,-1.2531493345843714,-1.0889456907855433,-1.5998476187335413,-3.053152386342184
-0.8422086874591272,-2.3349130789386194,-1.2527654806720179,-1.0900490919696253,-1.599703613911764,-3.0530925432788294
-0.8421490828143519,-2.334062401448385,-1.2524660269366663,-1.0912841002093714,-1.5997994581805628,-3.0531044642077845
-0.842172924672262,-2.3323853651629847,-1.2518418470965784,-1.0934904257403772,-1.5996316115008753,-3.053140465413229
-0.8422086874591272,-2.3315232435809534,-1.2515538374530237,-1.094665829335348,-1.5997636953936976,-3.0531044642077845
-0.842172924672262,-2.3307326475726526,-1.2511819044696253,-1.095792595540182,-1.5997517744647425,-3.0530925432788294
-0.842172924672262,-2.3298824469195765,-1.250845734273092,-1.0969675222979944,-1.5996559301959437,-3.0530925432788294
-0.8421610037433069,-2.3281691710101526,-1.2500899473773401,-1.0992816130267542,-1.5996435324298304,-3.0531163851367396
-0.8421610037433069,-2.3273423353778284,-1.2498381773578089,-1.1004331747638147,-1.5996678511248987,-3.0530925432788294
-0.842172924672262,-2.3265045324908655,-1.2494781653033655,-1.1016200224505823,-1.5997274557696741,-3.0530925432788294
-0.8421967665301722,-2.325665299092428,-1.2491057554828089,-1.1027711073504847,-1.5995720068561,-3.0531163851367396
-0.8421848456012171,-2.324012581502096,-1.2484100500689905,-1.1050494352923792,-1.59959584871401,-3.053056542073385
-0.8421490828143519,-2.323221985493795,-1.2481220404254358,-1.1061766783343714,-1.5995476881610315,-3.0529964605914515
-0.8421848456012171,-2.322418991719381,-1.2477620283709925,-1.1073039213763636,-1.5996196905719202,-3.0529726187335413
-0.842172924672262,-2.3216527144061487,-1.2474620977984827,-1.1085508505450647,-1.5994518438922327,-3.052948538457052
-0.8422206083880823,-2.320023838673727,-1.246826473866598,-1.1107333342181605,-1.5995238463031214,-3.052936617528097
-0.8421848456012171,-2.3192690054522913,-1.2465022245990198,-1.1118605772601526,-1.5994880835162562,-3.0529964605914515
-0.842172924672262,-2.318538014088766,-1.2461660544024866,-1.1129034201251429,-1.599583927785055,-3.052936617528097
-0.8421848456012171,-2.317831818257467,-1.245878044758932,-1.1140311400042933,-1.599367920552389,-3.052948538457052
-0.8421610037433069,-2.31642991701235,-1.2452901045428675,-1.1161168257342737,-1.5994160811053675,-3.052936617528097
-0.842172924672262,-2.315723244343893,-1.2449901739703577,-1.1171005407916468,-1.5993440786944788,-3.052924696599142
-0.842172924672262,-2.3151004950152796,-1.2447145620929163,-1.1180594603167933,-1.5994637648211878,-3.052948538457052
-0.8421610037433069,-2.3144658247577112,-1.2445104757892054,-1.119042698537008,-1.5992839972125452,-3.0529726187335413
-0.8421371618853968,-2.3132198492633265,-1.243946377431051,-1.1208060423480433,-1.5993440786944788,-3.0529726187335413
-0.842172924672262,-2.3126209417926233,-1.2437542120562952,-1.121669117604391,-1.5992839972125452,-3.052948538457052
-0.8422086874591272,-2.3120458761798304,-1.2434905211078089,-1.1225321928607386,-1.5994041601764124,-3.0529606978045862
-0.8421848456012171,-2.311507050191061,-1.243202034627096,-1.1232755819903772,-1.599260155354635,-3.052912775670187
-0.8421848456012171,-2.310465161000387,-1.2428301016436976,-1.1247623602496546,-1.5993321577655237,-3.0529006163226526
-0.8422086874591272,-2.3099497000323694,-1.2426145712481897,-1.1254938284503382,-1.5991762320147913,-3.052912775670187
-0.8421490828143519,-2.3094947973834437,-1.242446247731344,-1.1261056105243128,-1.5993559996234339,-3.052924696599142
-0.8421848456012171,-2.309063736592428,-1.242242161427633,-1.1267531553851526,-1.5991762320147913,-3.0529006163226526
-0.8422086874591272,-2.30812913576235,-1.2418702284442347,-1.1280482451068323,-1.5993321577655237,-3.052924696599142
-0.842172924672262,-2.307661835347311,-1.2416909376727503,-1.1287673155414026,-1.5992243925677698,-3.0529006163226526
-0.8421848456012171,-2.3072546164142054,-1.241474453602926,-1.129343334828512,-1.5993440786944788,-3.0529006163226526
-0.8421967665301722,-2.3067877928363245,-1.241354767476217,-1.1299665609942835,-1.5991881529437464,-3.0528767744647425
-0.8421610037433069,-2.3059852758990687,-1.2409823576556605,-1.131118122731344,-1.5992243925677698,-3.052828852330343
-0.8421247641192835,-2.30558950105776,-1.2408021132098597,-1.1317294279681605,-1.5991042296039026,-3.0528767744647425
-0.8421967665301722,-2.3051345984088343,-1.2406342665301722,-1.132376495991842,-1.5993083159076136,-3.0528646151172083
-0.842172924672262,-2.3047149817096155,-1.240490738545553,-1.1329520384417933,-1.5991762320147913,-3.0528646151172083
-0.842172924672262,-2.3038647810565394,-1.2401421705829065,-1.1341632048236292,-1.599260155354635,-3.0528526941882532
-0.8421610037433069,-2.3033974806415003,-1.2399504820453089,-1.1347869078265589,-1.599116627370016,-3.052828852330343
-0.8421490828143519,-2.3029425779925745,-1.2397587935077112,-1.1354344526873987,-1.5992839972125452,-3.052828852330343
-0.8421371618853968,-2.3024752775775355,-1.2396028677569788,-1.1360581556903284,-1.599116627370016,-3.052804772053854
-0.842172924672262,-2.3015525976764124,-1.239194695149557,-1.1373289267169397,-1.599260155354635,-3.052685801182882
-0.8421371618853968,-2.3010857740985315,-1.2390263716327112,-1.1379168669330042,-1.599128548298971,-3.05272084871401
-0.8421371618853968,-2.3006070295916956,-1.2387869993792933,-1.1386001745807093,-1.5992839972125452,-3.0527568499194544
-0.8421371618853968,-2.300175491963522,-1.2386191526996058,-1.1393073240863245,-1.599140469227926,-3.052697722111837
-0.8421371618853968,-2.2992408911334437,-1.2382467428790491,-1.1405542532550257,-1.5991643110858362,-3.052697722111837
-0.842172924672262,-2.298774067555563,-1.2380784193622034,-1.1412261168109339,-1.5991042296039026,-3.05272084871401
-0.8421247641192835,-2.298318688069479,-1.2378867308246058,-1.1418855826007288,-1.5992000738727015,-3.052685801182882
-0.8421610037433069,-2.297851864491598,-1.23769456544985,-1.1425812880145472,-1.5990684668170374,-3.052697722111837
-0.8421371618853968,-2.296917740498678,-1.237359348927633,-1.1438515822040003,-1.599140469227926,-3.0527096430407923
-0.8421009222613733,-2.2964981237994593,-1.2371304670916956,-1.1444996039019983,-1.599116627370016,-3.0527096430407923
-0.8421490828143519,-2.29603082338442,-1.2369988600360315,-1.1450875441180628,-1.5991762320147913,-3.052697722111837
-0.8421009222613733,-2.2955997625934046,-1.2368066946612757,-1.1457822958575647,-1.5990083853351038,-3.052673641835348
-0.8421009222613733,-2.2947495619403284,-1.2364466826068323,-1.146921459828512,-1.5989845434771937,-3.05272084871401
-0.8421128431903284,-2.2943180243121546,-1.2362306753741663,-1.1474970022784632,-1.5990327040301722,-3.052697722111837
-0.8421247641192835,-2.2939470450030726,-1.2360747496234339,-1.1480611006366175,-1.599128548298971,-3.05272084871401
-0.8421490828143519,-2.2935875097857874,-1.2358830610858362,-1.1486123243915003,-1.5989487806903284,-3.052697722111837
-0.8421371618853968,-2.2929046789752405,-1.235631291066305,-1.149703327809469,-1.5990083853351038,-3.052685801182882
-0.8421247641192835,-2.292521301900045,-1.2354868094073694,-1.1501954237567347,-1.5990327040301722,-3.052697722111837
-0.8421247641192835,-2.2922099272357386,-1.2353790442096155,-1.150710407887594,-1.5990803877459925,-3.052685801182882
-0.8421009222613733,-2.2918627897845667,-1.2352107206927698,-1.151238266621725,-1.59890062013735,-3.052661720906393
-0.8421247641192835,-2.2912514845477503,-1.23491079012026,-1.1520417372332972,-1.59890062013735,-3.0527096430407923
-0.8421371618853968,-2.2909281889544886,-1.234826389943258,-1.152485195790426,-1.5989726225482386,-3.0527096430407923
-0.8421371618853968,-2.290604893361227,-1.2347429434405726,-1.152905289326803,-1.5989964644061487,-3.052697722111837
-0.8421490828143519,-2.2903292814837855,-1.2346227804767054,-1.1533005873309534,-1.5988286177264612,-3.052697722111837
-0.8421247641192835,-2.289790455495016,-1.2344191710101526,-1.154020134602682,-1.598912541066305,-3.0527330080615442
-0.8421490828143519,-2.2895148436175745,-1.2342870871173304,-1.1543801466571253,-1.59892446199526,-3.05272084871401
-0.8421490828143519,-2.2892635504352015,-1.2341788450824183,-1.1547396818744105,-1.5990446249591272,-3.052685801182882
-0.8421128431903284,-2.2890241781817835,-1.2340710798846644,-1.1550753752337855,-1.5988886992083948,-3.052673641835348
-0.8421128431903284,-2.2885807196246546,-1.2339265982257288,-1.1556866804706019,-1.5988529364215296,-3.0527449289904993
-0.8421128431903284,-2.2883408705340784,-1.23383075395693,-1.1560586134540003,-1.5989487806903284,-3.052697722111837
-0.8421610037433069,-2.2881372610675257,-1.2337468306170862,-1.1563823858844202,-1.5989726225482386,-3.052673641835348
-0.8420890013324183,-2.2879818121539515,-1.2336390654193323,-1.15668231645693,-1.5988286177264612,-3.0527096430407923
-0.8421247641192835,-2.2875621954547327,-1.2335193792926233,-1.1571734587298792,-1.5988286177264612,-3.0527096430407923
-0.8421371618853968,-2.2874186674701136,-1.2334111372577112,-1.1574013868915003,-1.5989487806903284,-3.05272084871401
-0.8421247641192835,-2.287226978932516,-1.2333992163287562,-1.1576655546771448,-1.5989368597613733,-3.05272084871401
-0.8421371618853968,-2.2870591322528284,-1.2333028952227991,-1.1579292456256312,-1.5988648573504847,-3.05272084871401
-0.8421371618853968,-2.2867358366595667,-1.2332189718829554,-1.1583250204669397,-1.5988767782794397,-3.052697722111837
-0.8421371618853968,-2.2866037527667444,-1.2331350485431116,-1.1585410276996058,-1.5989964644061487,-3.052685801182882
-0.8421009222613733,-2.28644830385317,-1.2331469694720667,-1.1587327162372034,-1.5988648573504847,-3.052685801182882
-0.8421128431903284,-2.2863286177264612,-1.232990566884176,-1.1589363257037562,-1.5989607016192835,-3.052673641835348
-0.8420890013324183,-2.286064926777975,-1.2330029646502894,-1.1593201796161097,-1.5988410154925745,-3.052685801182882
-0.8421371618853968,-2.2859695593463343,-1.2329548040973108,-1.1595242659198206,-1.5989607016192835,-3.0527330080615442
-0.8421371618853968,-2.2858975569354456,-1.2329309622394007,-1.159692112599508,-1.5988767782794397,-3.0527096430407923
-0.8421371618853968,-2.2857897917376917,-1.2328951994525355,-1.159811798726217,-1.5988886992083948,-3.052673641835348
-0.8421490828143519,-2.2856581846820276,-1.2327631155597132,-1.1599920431720179,-1.598804775868551,-3.0527096430407923
-0.8421128431903284,-2.2855380217181605,-1.2328112761126917,-1.1600640455829065,-1.5989726225482386,-3.0527096430407923
-0.8421009222613733,-2.2855380217181605,-1.2327631155597132,-1.1601594130145472,-1.5988410154925745,-3.052697722111837
-0.8421009222613733,-2.28549033800234,-1.2327869574176233,-1.160123650227682,-1.59890062013735,-3.052661720906393
-0.8421009222613733,-2.285466019307272,-1.2327631155597132,-1.1602075735675257,-1.5988166967975062,-3.052661720906393
-0.8421247641192835,-2.285466019307272,-1.2327631155597132,-1.1601117292987269,-1.598912541066305,-3.052673641835348
-0.8421247641192835,-2.28549033800234,-1.2327268759356897,-1.1600516478167933,-1.598912541066305,-3.052649799977438
-0.8421009222613733,-2.285502258931295,-1.2327750364886683,-1.1600759665118616,-1.5988767782794397,-3.052661720906393
-0.8421009222613733,-2.28549033800234,-1.2327988783465784,-1.1600878874408167,-1.5988767782794397,-3.052697722111837
-0.8421128431903284,-2.28549033800234,-1.2327988783465784,-1.1600759665118616,-1.5988410154925745,-3.052673641835348
-0.8421009222613733,-2.285502258931295,-1.232751194630758,-1.1600640455829065,-1.5988648573504847,-3.052673641835348
-0.8421009222613733,-2.285502258931295,-1.232751194630758,-1.1600640455829065,-1.5988410154925745,-3.052673641835348
-0.8421128431903284,-2.285478417073385,-1.2328112761126917,-1.1600759665118616,-1.5988767782794397,-3.052661720906393
-0.8421128431903284,-2.285478417073385,-1.2327631155597132,-1.1600516478167933,-1.5988767782794397,-3.052661720906393
-0.8421009222613733,-2.285478417073385,-1.2327988783465784,-1.1600998083697718,-1.5988767782794397,-3.052685801182882
-0.8421009222613733,-2.285502258931295,-1.2327869574176233,-1.1600516478167933,-1.5988886992083948,-3.0526378790484827
-0.8421128431903284,-2.2855141798602503,-1.2327631155597132,-1.1600640455829065,-1.5988410154925745,-3.052661720906393
-0.8420770804034632,-2.2855141798602503,-1.2327869574176233,-1.1600759665118616,-1.5988886992083948,-3.0526257197009485
-0.8420770804034632,-2.28549033800234,-1.2327750364886683,-1.1600640455829065,-1.5988767782794397,-3.052649799977438
-0.8420890013324183,-2.28549033800234,-1.2327387968646448,-1.1601117292987269,-1.598912541066305,-3.052673641835348
-0.8421128431903284,-2.285466019307272,-1.2327988783465784,-1.1600878874408167,-1.5988529364215296,-3.052685801182882
-0.8420770804034632,-2.285478417073385,-1.2327631155597132,-1.1601117292987269,-1.5988648573504847,-3.052649799977438
-0.8421128431903284,-2.28549033800234,-1.2327631155597132,-1.1600998083697718,-1.5988529364215296,-3.052661720906393
-0.8420770804034632,-2.2854540983783167,-1.2327631155597132,-1.1600998083697718,-1.5988767782794397,-3.052673641835348
-0.8421371618853968,-2.285478417073385,-1.2327268759356897,-1.1601479689227503,-1.5988886992083948,-3.052661720906393
-0.8421247641192835,-2.285502258931295,-1.2326787153827112,-1.1601479689227503,-1.5988886992083948,-3.052661720906393
-0.8420890013324183,-2.28549033800234,-1.2327268759356897,-1.1601718107806605,-1.5988767782794397,-3.052661720906393
-0.8421371618853968,-2.285502258931295,-1.2327268759356897,-1.1601594130145472,-1.5988529364215296,-3.052661720906393
-0.8421009222613733,-2.2855261007892054,-1.2327149550067347,-1.1601117292987269,-1.5988648573504847,-3.052661720906393
-0.8421009222613733,-2.285478417073385,-1.2327149550067347,-1.160123650227682,-1.5988648573504847,-3.052661720906393
-0.8421247641192835,-2.2855141798602503,-1.2327268759356897,-1.1600397268878382,-1.5988767782794397,-3.052649799977438
-0.8420890013324183,-2.2855141798602503,-1.2327025572406214,-1.1599677244769495,-1.5988410154925745,-3.052685801182882
-0.8421009222613733,-2.285598103200094,-1.2327025572406214,-1.1599081198321741,-1.5988767782794397,-3.0526378790484827
-0.8421009222613733,-2.285621945058004,-1.2327750364886683,-1.1597278753863733,-1.5988648573504847,-3.052661720906393
-0.8421371618853968,-2.285693947468893,-1.2327387968646448,-1.1598237196551722,-1.5988886992083948,-3.0526257197009485
-0.8421128431903284,-2.2857540289508265,-1.2327988783465784,-1.1596201101886194,-1.598912541066305,-3.052661720906393
-0.8420890013324183,-2.285933796559469,-1.2328351179706019,-1.159464184437887,-1.5988648573504847,-3.052685801182882
-0.8421009222613733,-2.286064926777975,-1.2329071203814905,-1.159452263508932,-1.5988529364215296,-3.0526378790484827
-0.8421009222613733,-2.286197010670797,-1.232966725026266,-1.159224812184469,-1.59890062013735,-3.052649799977438
-0.8421009222613733,-2.286292854939596,-1.2329428831683558,-1.1590564886676233,-1.5988886992083948,-3.052661720906393
-0.8420770804034632,-2.286628071461813,-1.2330744902240198,-1.1585524717914026,-1.5988767782794397,-3.052661720906393
-0.8421247641192835,-2.2868436018573206,-1.2331107298480433,-1.1583130995379847,-1.5988767782794397,-3.052661720906393
-0.8421009222613733,-2.2869871298419397,-1.2331951300250452,-1.15802508989443,-1.5988529364215296,-3.0526257197009485
-0.8421371618853968,-2.2872145811664026,-1.2332428137408655,-1.1577733198748987,-1.5988648573504847,-3.052649799977438
-0.8421247641192835,-2.2876823584186,-1.2334111372577112,-1.157137695943014,-1.598912541066305,-3.052697722111837
-0.8421009222613733,-2.2879937330829065,-1.2334469000445765,-1.1568144003497522,-1.5988886992083948,-3.052649799977438
-0.8420890013324183,-2.2882331053363245,-1.2335670630084437,-1.156478230153219,-1.59890062013735,-3.052661720906393
-0.8421128431903284,-2.288544480000631,-1.2336753050433558,-1.156142536793844,-1.59892446199526,-3.052673641835348
-0.8421009222613733,-2.2891433874713343,-1.2338545958148401,-1.155362908040182,-1.5989607016192835,-3.052697722111837
-0.8421128431903284,-2.289466683064596,-1.2339265982257288,-1.1549671331988733,-1.5989368597613733,-3.052685801182882
-0.8420770804034632,-2.289802376423971,-1.2340229193316858,-1.154571835194723,-1.5989607016192835,-3.0526378790484827
-0.8421247641192835,-2.2901256720172327,-1.2341187636004847,-1.1541522184955042,-1.5989726225482386,-3.052685801182882
-0.8421128431903284,-2.2907727400409144,-1.2343834082232874,-1.1532648245440882,-1.5990803877459925,-3.052685801182882
-0.8421247641192835,-2.2911556402789515,-1.2344072500811976,-1.1528213659869593,-1.5990203062640589,-3.052661720906393
-0.8420890013324183,-2.2914794127093714,-1.2344911734210413,-1.1524136702166956,-1.5990684668170374,-3.052661720906393
-0.842172924672262,-2.291898552571432,-1.2346347014056605,-1.1519339720355433,-1.5990923086749476,-3.052685801182882
-0.8420770804034632,-2.2926767508136194,-1.234826389943258,-1.1509745756732386,-1.5990803877459925,-3.052673641835348
-0.8421009222613733,-2.2930243651019495,-1.2349947134601038,-1.1504829565631312,-1.5990803877459925,-3.052697722111837
-0.8421128431903284,-2.29344350496401,-1.2350667158709925,-1.1499550978290003,-1.5991042296039026,-3.052673641835348
-0.8421247641192835,-2.2938149611102503,-1.2351983229266565,-1.1494157950030726,-1.5990684668170374,-3.052697722111837
-0.8421128431903284,-2.294605557118551,-1.2354028860675257,-1.1483729521380823,-1.5990684668170374,-3.052697722111837
-0.8421371618853968,-2.29502517381777,-1.235534969960348,-1.1478446165667933,-1.5990923086749476,-3.052697722111837
-0.8421490828143519,-2.295408074055807,-1.2356670538531702,-1.1473529974566858,-1.5990684668170374,-3.0527568499194544
-0.8421371618853968,-2.2958391348468226,-1.2357991377459925,-1.1467660109149378,-1.5990446249591272,-3.0527928511248987
-0.8421247641192835,-2.2966540495501917,-1.2360747496234339,-1.145686451588766,-1.5990684668170374,-3.052828852330343
-0.8421247641192835,-2.297048870717184,-1.2361825148211878,-1.145135227833883,-1.5990803877459925,-3.052804772053854
-0.8421009222613733,-2.297516171132223,-1.2362907568561,-1.144571606312887,-1.5990684668170374,-3.052804772053854
-0.8421371618853968,-2.2979357878314417,-1.2364347616778772,-1.1439955870257776,-1.5990684668170374,-3.052816692982809
-0.8421371618853968,-2.2988579908954065,-1.2367108503924769,-1.1428445021258753,-1.5990684668170374,-3.052828852330343
-0.8421371618853968,-2.2993009726153772,-1.2368786970721644,-1.1422331968890589,-1.5990803877459925,-3.052828852330343
-0.8421128431903284,-2.299720112477438,-1.2370465437518519,-1.141681973134176,-1.5990803877459925,-3.052804772053854
-0.8421490828143519,-2.300187412892477,-1.237154785786764,-1.1410821119891565,-1.5990923086749476,-3.052804772053854
-0.8421247641192835,-2.301121536885397,-1.2374909559832972,-1.1398347059832972,-1.5990803877459925,-3.052804772053854
-0.8421371618853968,-2.3015769163714808,-1.2376106421100062,-1.1391995588885706,-1.5990684668170374,-3.052816692982809
-0.8421247641192835,-2.302056137715475,-1.2378266493426722,-1.1386120955096644,-1.5990923086749476,-3.052816692982809
-0.8421128431903284,-2.3025229612933558,-1.2379587332354944,-1.1379883925067347,-1.5990684668170374,-3.052828852330343
-0.8421490828143519,-2.303457562123434,-1.2382586638080042,-1.1366694609271448,-1.5990923086749476,-3.052840773259298
-0.8421128431903284,-2.3040087858783167,-1.23845082918276,-1.1359503904925745,-1.5991042296039026,-3.052840773259298
-0.8421490828143519,-2.3044994513141077,-1.238570515309469,-1.1353142897235315,-1.5991042296039026,-3.052840773259298
-0.8421371618853968,-2.3050268332110804,-1.2387269178973597,-1.1347029844867151,-1.599116627370016,-3.052924696599142
-0.8421247641192835,-2.306056801472799,-1.2390263716327112,-1.1332996527301233,-1.5992124716388147,-3.052936617528097
-0.8421128431903284,-2.3065717856036585,-1.239218537007467,-1.132592503224508,-1.5992124716388147,-3.052924696599142
-0.8421371618853968,-2.3071110884295862,-1.2393868605243128,-1.1319330374347132,-1.5991881529437464,-3.052948538457052
-0.8421371618853968,-2.3076136747943323,-1.2395785490619105,-1.1312735716449183,-1.5991643110858362,-3.0529845396624964
-0.8421371618853968,-2.3086798826800745,-1.2398541609393519,-1.129810635243551,-1.5991762320147913,-3.0529606978045862
-0.8421610037433069,-2.309207264577047,-1.2400224844561976,-1.1290071646319788,-1.5992000738727015,-3.052948538457052
-0.8421610037433069,-2.309758011494772,-1.2402260939227503,-1.1283114592181605,-1.5992243925677698,-3.0529726187335413
-0.8421490828143519,-2.310356918965475,-1.2403829733477991,-1.12756854692568,-1.5992243925677698,-3.052948538457052
-0.8421371618853968,-2.311518971120016,-1.2407544294940394,-1.1260336081134241,-1.599260155354635,-3.0529606978045862
-0.8421371618853968,-2.312129799519674,-1.2408626715289515,-1.125242058430807,-1.5992963949786585,-3.0529964605914515
-0.8421610037433069,-2.3126686255084437,-1.2410543600665491,-1.1245587507831019,-1.5993202368365687,-3.052948538457052
-0.8421848456012171,-2.31327993074526,-1.2412703672992151,-1.1237195173846644,-1.5993321577655237,-3.0529964605914515
-0.8421247641192835,-2.3144896666156214,-1.2416070143329065,-1.122124497090475,-1.5992963949786585,-3.0530925432788294
-0.842172924672262,-2.3151243368731897,-1.2418344656573694,-1.1213448683368128,-1.5993083159076136,-3.05306846300234
-0.8421848456012171,-2.3157714048968714,-1.242002312337057,-1.1205537954913538,-1.5993321577655237,-3.0531283060656946
-0.8421848456012171,-2.3163941542254847,-1.2421706358539026,-1.119702164326803,-1.5993202368365687,-3.0530925432788294
-0.8421610037433069,-2.317688290272848,-1.242542568837301,-1.1180594603167933,-1.599379841481344,-3.0531283060656946
-0.842172924672262,-2.3183587233172815,-1.2427580992328089,-1.117244068776266,-1.599379841481344,-3.0531044642077845
-0.8422206083880823,-2.3190415541278284,-1.242950741444723,-1.11635667482485,-1.5994518438922327,-3.053140465413229
-0.8422568480121058,-2.31971246400942,-1.243094269429342,-1.1155293623553675,-1.5994399229632776,-3.0531044642077845
-0.8422206083880823,-2.3211258093463343,-1.2435382048236292,-1.1137068907367151,-1.5994160811053675,-3.053140465413229
-0.8423045317279261,-2.3218444029437464,-1.2437542120562952,-1.1127594153033655,-1.5994280020343226,-3.053152386342184
-0.8423045317279261,-2.322634998952047,-1.2439702192889612,-1.1118362585650843,-1.5994399229632776,-3.053164307271139
-0.8422687689410608,-2.323401753102438,-1.2442343870746058,-1.1108892599688929,-1.5994637648211878,-3.053152386342184
-0.842292610798971,-2.3250187079059046,-1.2447026411639612,-1.1089466253863733,-1.5995596090899866,-3.0532003084765833
-0.842292610798971,-2.325869385396139,-1.2449658552752894,-1.1078551451312464,-1.5995596090899866,-3.0532241503344935
-0.8422687689410608,-2.32673150697817,-1.2451942602740687,-1.106788460408346,-1.5995476881610315,-3.0532241503344935
-0.842292610798971,-2.327642265950338,-1.2455061117755335,-1.1057089010821741,-1.5995238463031214,-3.053176228200094
-0.842292610798971,-2.3295109907733362,-1.2460101286517542,-1.1033828894244593,-1.5995357672320765,-3.0532482306109827
-0.8422687689410608,-2.3304570356952112,-1.246310059224264,-1.1021836439715784,-1.5995596090899866,-3.053307835255758
-0.8422687689410608,-2.3314030806170862,-1.2465980688678187,-1.1009724775897425,-1.5995720068561,-3.0533316771136683
-0.8423045317279261,-2.3323376814471644,-1.2468979994403284,-1.099786106740133,-1.5996316115008753,-3.053295675908224
-0.842292610798971,-2.334254566823141,-1.247497860585348,-1.0971477667437952,-1.5996077696429651,-3.0533316771136683
-0.8423045317279261,-2.335212532673971,-1.2477858702289026,-1.0958645979510706,-1.5996196905719202,-3.0533676783191126
-0.8423169294940394,-2.3361948172198694,-1.2480862776385706,-1.0946295897113245,-1.5996077696429651,-3.053319756184713
-0.842292610798971,-2.3371532599078577,-1.2484100500689905,-1.0933344999896448,-1.5996077696429651,-3.0533557573901575
-0.8423169294940394,-2.3391054312335413,-1.2489860693561,-1.0906484762774866,-1.5996435324298304,-3.0533438364612024
-0.842292610798971,-2.3400395552264612,-1.2492621580706995,-1.089353386555807,-1.5997274557696741,-3.0533676783191126
-0.8423169294940394,-2.3409984747516077,-1.2495740095721644,-1.0879862944232386,-1.5996916929828089,-3.0534396807300013
-0.8423169294940394,-2.341956440602438,-1.2499578634845179,-1.0866196791278284,-1.5996797720538538,-3.053427521382467
-0.8423045317279261,-2.3438971678363245,-1.2505458037005823,-1.0838854948626917,-1.5997274557696741,-3.0534635225879114
-0.8423407713519495,-2.344903294240133,-1.2507861296283167,-1.0826028029071253,-1.5997875372516077,-3.0534396807300013
-0.8423407713519495,-2.3458855787860315,-1.2511337439166468,-1.081247631703512,-1.5997994581805628,-3.0534516016589563
-0.8423407713519495,-2.346868340169088,-1.2514217535602015,-1.0799406210528772,-1.5997875372516077,-3.053511444722311
-0.8423646132098597,-2.348856274281637,-1.2520578543292444,-1.0774229208575647,-1.5998113791095179,-3.053511444722311
-0.8423646132098597,-2.349862877522604,-1.2523582617389124,-1.0761755148517054,-1.5998113791095179,-3.0535715262042444
-0.8423526922809046,-2.350868527089254,-1.2526338736163538,-1.0748570601092737,-1.5998356978045862,-3.0535953680621546
-0.8423765341388147,-2.3518627325641077,-1.2529338041888636,-1.0737054983722132,-1.5998953024493616,-3.053547445927755
-0.8423526922809046,-2.3538158575641077,-1.2534979025470179,-1.0712955633746546,-1.5998595396624964,-3.0535593668567103
-0.8423884550677698,-2.3548339048968714,-1.2537978331195276,-1.0700963179217737,-1.5999191443072718,-3.0535715262042444
-0.8423765341388147,-2.355828110371725,-1.254073444996969,-1.0689571539508265,-1.599931542073385,-3.053631369267599
-0.8423526922809046,-2.3568580786334437,-1.2543500105487269,-1.0676983038531702,-1.5999553839312952,-3.0536072889911097
-0.8424127737628382,-2.358786408101217,-1.2549498716937464,-1.0652759710894983,-1.5999673048602503,-3.0536912123309534
-0.8423884550677698,-2.3597334066974085,-1.2552135626422327,-1.064028565083639,-1.5999911467181605,-3.0537272135363978
-0.8424485365497034,-2.3607633749591272,-1.2554896513568323,-1.0627816359149378,-1.5999911467181605,-3.0536912123309534
-0.8424003759967249,-2.361685578023092,-1.2557652632342737,-1.0615828672992151,-1.6000273863421839,-3.0536912123309534
-0.8424366156207483,-2.363638226185934,-1.2563656012164515,-1.0590766111956995,-1.6000869909869593,-3.053739134465353
-0.8424366156207483,-2.364572827016012,-1.2566655317889612,-1.0577815214740198,-1.6000631491290491,-3.053751293812887
-0.8424246946917933,-2.365542713795797,-1.2568934599505823,-1.0564387480365198,-1.6000750700580042,-3.0537152926074427
-0.8424723784076136,-2.36646539369692,-1.2572057882892054,-1.0551918188678187,-1.6000989119159144,-3.053751293812887
-0.8424246946917933,-2.3683937231646937,-1.2578051725970667,-1.0525534788714808,-1.6000869909869593,-3.053751293812887
-0.8424604574786585,-2.369364563618795,-1.2581656614886683,-1.0512226263629358,-1.6001232306109827,-3.0538228193866175
-0.8424723784076136,-2.3703344503985804,-1.258453671132223,-1.0499518553363245,-1.600158993397848,-3.0538228193866175
-0.8424723784076136,-2.371232811604635,-1.2587650457965296,-1.0486210028277796,-1.6002190748797815,-3.0538466612445276
-0.8424604574786585,-2.373173538838522,-1.2593653837787073,-1.0460427443133753,-1.6002071539508265,-3.053882662449972
-0.8424962202655237,-2.3741796652423304,-1.2596772352801722,-1.0447352568255823,-1.600182835255758,-3.0539305845843714
-0.8424723784076136,-2.375161949788229,-1.2600134054767054,-1.0433810392962855,-1.6002190748797815,-3.053870741521017
-0.8424842993365687,-2.3761561552630823,-1.26027757326235,-1.0419896284686487,-1.6003029982196253,-3.053906504307882
-0.8424366156207483,-2.378205124531881,-1.2609131971942347,-1.0394476095782679,-1.6003387610064905,-3.0539425055133265
-0.8424962202655237,-2.3792946974383753,-1.2612970511065882,-1.038116757069723,-1.6003149191485804,-3.0539186636554163
-0.8425200621234339,-2.3803609053241175,-1.2615492979632776,-1.036797825490133,-1.6003029982196253,-3.0539186636554163
-0.8425081411944788,-2.3814271132098597,-1.2618849913226526,-1.0354908148394983,-1.6003387610064905,-3.0539665857898157
-0.8425200621234339,-2.383535687123434,-1.2625210920916956,-1.0328524748431605,-1.6003506819354456,-3.0539546648608606
-0.8424962202655237,-2.384601418172018,-1.2628691832171839,-1.0315936247455042,-1.6004107634173792,-3.0540383497821253
-0.8425200621234339,-2.3856199423419397,-1.2631571928607386,-1.0302627722369593,-1.600386921559469,-3.054014507924215
-0.842543903981344,-2.386674229298727,-1.2635048071490687,-1.0289557615863245,-1.6004107634173792,-3.0540383497821253
-0.8425081411944788,-2.3887584845172327,-1.2640932242022913,-1.0263541380511683,-1.6004584471331995,-3.0540743509875696
-0.842543903981344,-2.3897770086871546,-1.2643688360797327,-1.0249627272235315,-1.6004584471331995,-3.0540862719165247
-0.842531983052389,-2.3908308188067835,-1.2646811644183558,-1.023775879536764,-1.6004584471331995,-3.054098431264059
-0.842543903981344,-2.391836945210592,-1.2649810949908655,-1.022445027028219,-1.6004827658282679,-3.054098431264059
-0.8426039854632776,-2.3938496748553675,-1.26556903520693,-1.0198066870318812,-1.6004827658282679,-3.0541463533984583
-0.8425801436053675,-2.3948081175433558,-1.2659052054034632,-1.018571678792135,-1.6005423704730433,-3.0541463533984583
-0.8425801436053675,-2.395801846181051,-1.2661569754229944,-1.0172646681415003,-1.6005666891681116,-3.0541463533984583
-0.8425801436053675,-2.396712605153219,-1.2664087454425257,-1.0159819761859339,-1.6005905310260218,-3.0541582743274134
-0.8425920645343226,-2.3985212484942835,-1.2669490019427698,-1.0135234037982386,-1.6006024519549769,-3.054206196461813
-0.8425682226764124,-2.3994677702533167,-1.2672608534442347,-1.0122526327716272,-1.600626293812887,-3.0541701952563685
-0.8425682226764124,-2.400402371083395,-1.2675727049456995,-1.0109694639789026,-1.6006506125079554,-3.054254118596212
-0.8425558249102991,-2.401253048573629,-1.267836872731344,-1.0097821394549769,-1.6007102171527308,-3.054254118596212
