youngblood1998/my_ws/src/ur5_platform/ur5_platform_manipulation/wzq/test4_8_1.csv
j0,j1,j2,j3,j4,j5
-0.6667617003070276,-2.5066402594195765,-1.467356030141012,-0.6987994352923792,-1.5968511740313929,-3.2954564730273646
-0.6656110922442835,-2.506340805684225,-1.4679682890521448,-0.6984627882586878,-1.597006622944967,-3.296594206486837
-0.6644852797137659,-2.5060890356646937,-1.4686039129840296,-0.6981514135943812,-1.596994702016012,-3.297744099293844
-0.6633942762957972,-2.5058496634112757,-1.4691317717181605,-0.6978037993060511,-1.5970309416400355,-3.298821751271383
-0.6623404661761683,-2.5055859724627894,-1.4696958700763147,-0.69757587114443,-1.5971506277667444,-3.29987603822817
-0.6603272596942347,-2.5051186720477503,-1.4707873503314417,-0.6969407240497034,-1.5972583929644983,-3.3018880526172083
-0.6594050566302698,-2.5049150625811976,-1.4712918440448206,-0.6966407934771937,-1.5971744696246546,-3.3028460184680384
-0.6584704558001917,-2.5046513716327112,-1.471795384083883,-0.696449104939596,-1.5972703138934534,-3.3037684599505823
-0.6575596968280237,-2.504507366810934,-1.4722512404071253,-0.69623309770693,-1.5973065535174769,-3.304702345524923
-0.6558344999896448,-2.5041006247149866,-1.4731629530536097,-0.6957891623126429,-1.5974744001971644,-3.3063669840442103
-0.6550553480731409,-2.503944698964254,-1.4735592047320765,-0.6955378691302698,-1.5973904768573206,-3.307133738194601
-0.6543129126178187,-2.5037649313556116,-1.4740026632892054,-0.6952622572528284,-1.5975220839129847,-3.3079238573657435
-0.6535580793963831,-2.503573719655172,-1.4743507544146937,-0.6950581709491175,-1.5974744001971644,-3.308594528828756
-0.6522038618670862,-2.5031779448138636,-1.4751065413104456,-0.694674317036764,-1.5976060072528284,-3.3100200335132044
-0.6515448729144495,-2.5030582586871546,-1.475466553364889,-0.6945183912860315,-1.5976179281817835,-3.3107147852527063
-0.6508982817279261,-2.502866570149557,-1.4757903257953089,-0.694338623677389,-1.5977380911456507,-3.3114214579211634
-0.6502030531512659,-2.5027464071856897,-1.4761622587787073,-0.6941588560687464,-1.597678009663717,-3.312079731618063
-0.6489809195147913,-2.502399269734518,-1.4767745176898401,-0.6937873999225062,-1.597773853932516,-3.3133612314807337
-0.6483100096331995,-2.5022671858416956,-1.477206055318014,-0.6935232321368616,-1.5977619330035608,-3.313984219227926
-0.6477354208575647,-2.502087418233053,-1.4774816671954554,-0.6933911482440394,-1.5978816191302698,-3.3146548906909388
-0.6470635573016565,-2.5019434134112757,-1.4778178373919886,-0.6931994597064417,-1.5978339354144495,-3.315265719090597
-0.6457579771624964,-2.5016682783709925,-1.478490177785055,-0.6929000059710901,-1.59790546098818,-3.3165348211871546
-0.6451352278338831,-2.5015247503863733,-1.4788373152362269,-0.6927683989154261,-1.5978577772723597,-3.317157808934347
-0.6444757620440882,-2.501357380543844,-1.4792216459857386,-0.6925047079669397,-1.5980256239520472,-3.3178284803973597
-0.6438525358783167,-2.5012133757220667,-1.4795578161822718,-0.6924327055560511,-1.5979178587542933,-3.3184996286975306
-0.6425350348102015,-2.50092584291567,-1.4803012053119105,-0.6919763723956507,-1.598109547291891,-3.3197806517230433
-0.6418402830706995,-2.5007579962359827,-1.4806731382953089,-0.6917489210711878,-1.5979417006122034,-3.320427481328146
-0.641205135975973,-2.500590149556295,-1.4810450712787073,-0.6916168371783655,-1.5980971495257776,-3.3211103121386927
-0.6404984633075159,-2.500446144734518,-1.4813812414752405,-0.6913531462298792,-1.5981453100787562,-3.3217929045306605
-0.639047924672262,-2.5001347700702112,-1.4821370283709925,-0.6909573713885706,-1.5981572310077112,-3.3232060114489954
-0.6384013334857386,-2.499978844319479,-1.4824965635882776,-0.6908014456378382,-1.5982053915606897,-3.323852841054098
-0.6376946608172815,-2.4998233954059046,-1.4829047361956995,-0.6905501524554651,-1.598109547291891,-3.324559036885397
-0.6369755903827112,-2.499667469655172,-1.4832528273211878,-0.6903703848468226,-1.5982769171344202,-3.325265709553854
-0.6355980078326624,-2.4993560949908655,-1.483936611806051,-0.6899741331683558,-1.5982053915606897,-3.326691452656881
-0.6349027792560022,-2.4992125670062464,-1.4842966238604944,-0.6898182074176233,-1.598360840474264,-3.327278439198629
-0.6342318693744105,-2.499044720326559,-1.4846680800067347,-0.6896384398089808,-1.5983012358294886,-3.327996794377462
-0.6335848013507288,-2.4989126364337366,-1.4850404898272913,-0.6895068327533167,-1.5983131567584437,-3.3287034670459192
-0.6322911421405237,-2.4985535780536097,-1.4856880346881312,-0.6891472975360315,-1.598360840474264,-3.3300204912768763
-0.6316202322589319,-2.498373810444967,-1.4860480467425745,-0.6889432112323206,-1.5984810034381312,-3.3306193987475794
-0.6309726873980921,-2.4982298056231897,-1.4863837401019495,-0.6887157599078577,-1.5985167662249964,-3.3312183062182825
-0.6304095427142542,-2.498050038014547,-1.4866722265826624,-0.6884873549090784,-1.5984328428851526,-3.3319249788867396
-0.629211727772848,-2.497810665761129,-1.4873555342303675,-0.6881278196917933,-1.598564926777975,-3.333134476338522
-0.6286848227130335,-2.497654740010397,-1.487607781087057,-0.6880076567279261,-1.5985406080829065,-3.333745781575338
-0.6280973593341272,-2.4975112120257776,-1.4878957907306116,-0.687876049672262,-1.5986488501178187,-3.334296766911642
-0.6275342146502894,-2.4973676840411585,-1.4882195631610315,-0.6877201239215296,-1.5985286871539515,-3.3348236719714563
-0.6264799276935022,-2.4971278349505823,-1.4887593428241175,-0.6874445120440882,-1.5986607710467737,-3.335841480885641
-0.6259892622577112,-2.496983830128805,-1.4890473524676722,-0.6873005072223108,-1.5986126104937952,-3.3363683859454554
-0.6255095640765589,-2.496876064931051,-1.4892752806292933,-0.6872165838824671,-1.5987446943866175,-3.3368833700763147
-0.6250065008746546,-2.496732536946432,-1.4895394484149378,-0.6870248953448694,-1.5986726919757288,-3.33736235300173
-0.6241434256183069,-2.496516529713766,-1.4900429884540003,-0.6867249647723597,-1.5987685362445276,-3.3381884733783167
-0.6237362066852015,-2.496373001729147,-1.4902470747577112,-0.6866772810565394,-1.5986488501178187,-3.3386438528644007
-0.6233051458941858,-2.496312920247213,-1.4904869238482874,-0.6865094343768519,-1.598804775868551,-3.3390749136554163
-0.6229098478900355,-2.496193234120504,-1.4906910101519983,-0.6865094343768519,-1.5987685362445276,-3.3394342104541224
-0.6221550146685999,-2.496073071156637,-1.491086784993307,-0.6862457434283655,-1.5988886992083948,-3.340200726185934
-0.6217835585223597,-2.495953385029928,-1.491326634083883,-0.686197582875387,-1.5987327734576624,-3.3405962626086634
-0.6214240233050745,-2.4958580175982874,-1.4914944807635706,-0.6860416571246546,-1.5988767782794397,-3.34093147913088
-0.6210406462298792,-2.4957502524005335,-1.4917109648333948,-0.6860297361956995,-1.598912541066305,-3.3413148562060755
-0.6204054991351526,-2.4955948034869593,-1.492058579121725,-0.6858857313739222,-1.5989607016192835,-3.341997210179464
-0.620094124470846,-2.495486561452047,-1.4922383467303675,-0.6858256498919886,-1.59892446199526,-3.342296902333395
-0.6197465101825159,-2.495438877736227,-1.49241811433901,-0.6856578032123011,-1.5989487806903284,-3.342584196721212
-0.6194346586810511,-2.4953787962542933,-1.4925749937640589,-0.685645882283346,-1.5989845434771937,-3.3428717295276087
-0.6188362280475062,-2.495235268269674,-1.4928982893573206,-0.6854541937457483,-1.5990684668170374,-3.343482557927267
-0.6185844580279749,-2.4952109495746058,-1.4930298964129847,-0.685310188923971,-1.5988886992083948,-3.3438177744494837
-0.6183088461505335,-2.495127026234762,-1.4931982199298304,-0.6852505842791956,-1.5990446249591272,-3.3441174666034144
-0.6180575529681605,-2.4950793425189417,-1.493342701588766,-0.6852024237262171,-1.5990327040301722,-3.3442967573748987
-0.6175420920001429,-2.494995419179098,-1.4935820738421839,-0.6850584189044397,-1.5990923086749476,-3.3447638193713587
-0.6173389593707483,-2.494971577321188,-1.493702236806051,-0.6849387327777308,-1.5989368597613733,-3.3450034300433558
-0.617110554371969,-2.4949234167682093,-1.4938462416278284,-0.6848786512957972,-1.5990203062640589,-3.3452308813678187
-0.6169069449054163,-2.494863812123434,-1.4939301649676722,-0.6848786512957972,-1.599116627370016,-3.3454704920398157
-0.616523567830221,-2.494791809712545,-1.4940741697894495,-0.6846869627581995,-1.5991042296039026,-3.345865551625387
-0.616284195576803,-2.4947078863727015,-1.4942181746112269,-0.6848309675799769,-1.5990684668170374,-3.3460212389575403
-0.6161764303790491,-2.494755570088522,-1.4943745771991175,-0.6844709555255335,-1.5990327040301722,-3.346213165913717
-0.6160443464862269,-2.494671646748678,-1.4943984190570276,-0.6847108046161097,-1.599140469227926,-3.3463569323169153
-0.6157687346087855,-2.4946239630328577,-1.4944942633258265,-0.6845310370074671,-1.5991762320147913,-3.3466320673571985
-0.615612808858053,-2.494635883961813,-1.4945419470416468,-0.684519116078512,-1.5990803877459925,-3.3467281500445765
-0.6155288855182093,-2.494575802479879,-1.4946139494525355,-0.6843870321856897,-1.5990327040301722,-3.346919361745016
-0.6154211203204554,-2.494551960621969,-1.4945901075946253,-0.684519116078512,-1.5992000738727015,-3.346919361745016
-0.6153019110309046,-2.494563881550924,-1.4946377913104456,-0.6845310370074671,-1.5991523901568812,-3.3470876852618616
-0.6152299086200159,-2.494540039693014,-1.494674030934469,-0.6842191855060022,-1.5991643110858362,-3.3470876852618616
-0.6152299086200159,-2.494540039693014,-1.494674030934469,-0.684303108845846,-1.5990923086749476,-3.3470876852618616
-0.6152537504779261,-2.494540039693014,-1.4946377913104456,-0.6842072645770472,-1.5991643110858362,-3.3470876852618616
-0.6152775923358362,-2.494551960621969,-1.4946020285235804,-0.6842792669879358,-1.599128548298971,-3.347111527119772
-0.6153019110309046,-2.494563881550924,-1.4946139494525355,-0.684303108845846,-1.599128548298971,-3.347039524708883
-0.6153019110309046,-2.494528118764059,-1.4946616331683558,-0.6843150297748011,-1.599116627370016,-3.347027365361349
-0.6152899901019495,-2.494563881550924,-1.4946139494525355,-0.6842911879168909,-1.5991523901568812,-3.3470636049853724
-0.6152775923358362,-2.494540039693014,-1.4946139494525355,-0.6843274275409144,-1.5991643110858362,-3.3470876852618616
-0.6152899901019495,-2.494551960621969,-1.4946501890765589,-0.6843274275409144,-1.5991523901568812,-3.3470516840564173
-0.6153019110309046,-2.494528118764059,-1.4946139494525355,-0.684303108845846,-1.5991643110858362,-3.3470996061908167
-0.6152656714068812,-2.494551960621969,-1.4945901075946253,-0.6842911879168909,-1.5991643110858362,-3.3470636049853724
-0.6152899901019495,-2.494540039693014,-1.4946020285235804,-0.684303108845846,-1.5991643110858362,-3.3470996061908167
-0.6152899901019495,-2.494540039693014,-1.4946501890765589,-0.684303108845846,-1.599140469227926,-3.3470516840564173
-0.6153019110309046,-2.494540039693014,-1.4946258703814905,-0.6843393484698694,-1.5991643110858362,-3.347111527119772
-0.6153138319598597,-2.494516197835104,-1.4946139494525355,-0.684303108845846,-1.599128548298971,-3.347039524708883
-0.6152656714068812,-2.494516197835104,-1.4945901075946253,-0.6842673460589808,-1.5991042296039026,-3.3470996061908167
-0.6153257528888147,-2.494551960621969,-1.4946139494525355,-0.684303108845846,-1.5991523901568812,-3.3470755259143274
-0.6153019110309046,-2.4945042769061487,-1.4945901075946253,-0.6843393484698694,-1.599116627370016,-3.3470516840564173
-0.6152899901019495,-2.4945042769061487,-1.4946139494525355,-0.684303108845846,-1.5991042296039026,-3.3470755259143274
-0.6153019110309046,-2.4944799582110804,-1.4946139494525355,-0.6842911879168909,-1.5991643110858362,-3.3470636049853724
-0.6153019110309046,-2.4944918791400355,-1.4946139494525355,-0.6842792669879358,-1.599140469227926,-3.347039524708883
-0.6152899901019495,-2.4944799582110804,-1.4946020285235804,-0.6843274275409144,-1.5992000738727015,-3.3470755259143274
-0.6152899901019495,-2.4945042769061487,-1.4946020285235804,-0.6843274275409144,-1.5991643110858362,-3.3470755259143274
-0.61536151567568,-2.494516197835104,-1.4945901075946253,-0.6843631903277796,-1.5991643110858362,-3.3470032850848597
-0.61536151567568,-2.4945042769061487,-1.4945181051837366,-0.6843512693988245,-1.5991523901568812,-3.3470152060138147
-0.6154091993915003,-2.494528118764059,-1.4945419470416468,-0.6843989531146448,-1.599128548298971,-3.3469794432269495
-0.6154692808734339,-2.4944918791400355,-1.4944942633258265,-0.6844351927386683,-1.599140469227926,-3.3468595186816614
-0.6155770460711878,-2.494540039693014,-1.4944222609149378,-0.6844709555255335,-1.5991523901568812,-3.346799914036886
-0.6157329718219202,-2.494551960621969,-1.4943860212909144,-0.6844828764544886,-1.599128548298971,-3.3465963045703333
-0.615828816090719,-2.494563881550924,-1.4943144957171839,-0.6845429579364222,-1.599128548298971,-3.3465362230883997
-0.6159604231463831,-2.494551960621969,-1.4942782560931605,-0.6845548788653772,-1.599140469227926,-3.3463805357562464
-0.6162479559527796,-2.494635883961813,-1.4940860907184046,-0.6846626440631312,-1.599116627370016,-3.346093241368429
-0.6164034048663538,-2.494635883961813,-1.494037930165426,-0.6846988836871546,-1.5990923086749476,-3.346069399510519
-0.6166313330279749,-2.494671646748678,-1.4938939253436487,-0.6846869627581995,-1.5990327040301722,-3.345853630696432
-0.6168230215655726,-2.4947317282306116,-1.493810002003805,-0.6848190466510218,-1.5989845434771937,-3.345746103917257
-0.6173027197467249,-2.494767491017477,-1.4935582319842737,-0.6848309675799769,-1.5990327040301722,-3.3453026453601282
-0.6175182501422327,-2.4948037306415003,-1.4933903853045862,-0.6849268118487757,-1.5990083853351038,-3.3449435869800013
-0.6178296248065394,-2.494863812123434,-1.4933064619647425,-0.6849148909198206,-1.5990083853351038,-3.3446322123156946
-0.6180694738971155,-2.4949353376971644,-1.4931500593768519,-0.6849625746356409,-1.5989487806903284,-3.3443566004382532
-0.6187041441546839,-2.4950435797320765,-1.4928744474994105,-0.6851542631732386,-1.5989487806903284,-3.3437817732440394
-0.6190398375140589,-2.4951394240008753,-1.492706600819723,-0.6852505842791956,-1.5989845434771937,-3.3434105555163782
-0.619422737752096,-2.4951871077166956,-1.4925268332110804,-0.6854060331927698,-1.5989726225482386,-3.343039099370138
-0.6197703520404261,-2.4952948729144495,-1.492298428212301,-0.6853821913348597,-1.5989964644061487,-3.342655960713522
-0.6206091086017054,-2.495426956807272,-1.4919269720660608,-0.685645882283346,-1.5988648573504847,-3.3419018427478235
-0.6209810415851038,-2.4955228010760706,-1.4917586485492151,-0.6858137289630335,-1.5988886992083948,-3.3414467016803187
-0.6214121023761194,-2.4956181685077112,-1.491518799458639,-0.6858018080340784,-1.5988648573504847,-3.3410032431231897
-0.6218674818622034,-2.4957502524005335,-1.4913151899920862,-0.6859696547137659,-1.5988767782794397,-3.340572182332174
-0.6227415243731897,-2.495917622243063,-1.4909189383136194,-0.6861141363727015,-1.5987566153155726,-3.339721743260519
-0.6232212225543421,-2.4960134665118616,-1.4907029310809534,-0.6862815062152308,-1.5987446943866175,-3.339254681264059
-0.623664681111471,-2.4961331526385706,-1.4904869238482874,-0.6863296667682093,-1.5987327734576624,-3.3387754599200647
-0.624155346547262,-2.4962170759784144,-1.490199391041891,-0.686533276234762,-1.5987327734576624,-3.338344399129049
-0.6251018683062952,-2.496432606373922,-1.4896953741656702,-0.6867130438434046,-1.5986245314227503,-3.337386433278219
-0.6256416479693812,-2.4965646902667444,-1.4894793669330042,-0.6867249647723597,-1.5986488501178187,-3.336907450352804
-0.6261447111712855,-2.4966724554644983,-1.4891794363604944,-0.6869290510760706,-1.5986364523517054,-3.3363683859454554
-0.6266716162310999,-2.496756378804342,-1.4889634291278284,-0.6869409720050257,-1.598588768635885,-3.335829559956686
-0.6277378241168421,-2.4969962278949183,-1.488459889088766,-0.6872523466693323,-1.5985530058490198,-3.334811512623922
-0.6283128897296351,-2.4971516768084925,-1.488159481679098,-0.6875284353839319,-1.5984929243670862,-3.3342607657061976
-0.6288407484637659,-2.4972475210772913,-1.4879077116595667,-0.6875885168658655,-1.5984929243670862,-3.3337577025042933
-0.6293676535235804,-2.4973676840411585,-1.4876435438739222,-0.6878879706012171,-1.5984566847430628,-3.333242479954855
-0.6304338614093226,-2.497594658528463,-1.4870675245868128,-0.6881402174579065,-1.5983851591693323,-3.332068745289938
-0.6309846083270472,-2.4977029005633753,-1.48684007326235,-0.6881402174579065,-1.5983970800982874,-3.331517759953634
-0.6315963904010218,-2.497882668172018,-1.4865277449237269,-0.6883676687823694,-1.598360840474264,-3.3308470884906214
-0.6321948210345667,-2.498002354298727,-1.4862521330462855,-0.6884396711932581,-1.5983131567584437,-3.3302603403674524
-0.6333449522601526,-2.498242203389303,-1.4856398741351526,-0.6887996832477015,-1.59825307527651,-3.329158369694845
-0.633956257496969,-2.498385731373922,-1.485316578541891,-0.689087216054098,-1.5982769171344202,-3.3285356203662317
-0.6346152464496058,-2.498493496571676,-1.4850404898272913,-0.689218823109762,-1.5982292334186,-3.3279128710376185
-0.635226074849264,-2.4986489454852503,-1.4847763220416468,-0.6894944349872034,-1.5981810728656214,-3.3272185961352747
-0.6364963690387171,-2.498936955128805,-1.4841159025775355,-0.6898182074176233,-1.598133389149801,-3.3260327021228235
-0.637179199849264,-2.499032799397604,-1.4837926069842737,-0.6899383703814905,-1.5980613867389124,-3.3253615538226526
-0.6378381888019007,-2.499200169240133,-1.4835165182696741,-0.6901424566852015,-1.5980613867389124,-3.3247509638415735
-0.6385210196124476,-2.4993560949908655,-1.4831808249102991,-0.6901782194720667,-1.5980852285968226,-3.3240681330310267
-0.6398628393756312,-2.499619785939352,-1.4825571219073694,-0.6905620733844202,-1.5979178587542933,-3.3227508703814905
-0.6405580679522913,-2.499739472066061,-1.4822328726397913,-0.6908496061908167,-1.5979536215411585,-3.3220441977130335
-0.641205135975973,-2.4999073187457483,-1.4818971792804163,-0.6909692923175257,-1.5978816191302698,-3.321373526250021
-0.6419475714312952,-2.5000627676593226,-1.4815128485309046,-0.6912096182452601,-1.5978096167193812,-3.320655171071188
-0.6433499495135706,-2.500350300465719,-1.4808409849749964,-0.6915810743915003,-1.597785774861471,-3.319277826939718
-0.6440804640399378,-2.5004943052874964,-1.4804452101336878,-0.6917966047870081,-1.597678009663717,-3.3184996286975306
-0.6448357740985315,-2.5006383101092737,-1.4800975958453577,-0.6919406096087855,-1.5977256933795374,-3.3177805582629603
-0.6455782095538538,-2.5007579962359827,-1.4796894232379358,-0.6921799818622034,-1.597654167805807,-3.3169899622546595
-0.6470754782306116,-2.5010817686664026,-1.478945557271139,-0.6926243940936487,-1.5975101629840296,-3.3155410925494593
-0.647890869771139,-2.501225296651022,-1.4785741011248987,-0.6927922407733362,-1.5975459257708948,-3.3147743383990687
-0.6486094633685511,-2.501404587422506,-1.478189770375387,-0.6930316130267542,-1.5974023977862757,-3.314080063496725
-0.6493881384478968,-2.5015485922442835,-1.4777820746051233,-0.6931875387774866,-1.5974023977862757,-3.313265387211935
-0.6508982817279261,-2.5018838087665003,-1.4770501295672815,-0.6935833136187952,-1.5973065535174769,-3.3116965929614466
-0.6516650358783167,-2.5020273367511194,-1.476678196583883,-0.6937873999225062,-1.5972822348224085,-3.310930077229635
-0.6524437109576624,-2.502207104359762,-1.476246182118551,-0.6939910093890589,-1.5972345511065882,-3.310103956853048
-0.6532343069659632,-2.5023630301104944,-1.4758499304400843,-0.6941946188556116,-1.5970905462848108,-3.309265677128927
-0.654827896748678,-2.5026987234698694,-1.4750826994525355,-0.6946623961078089,-1.596994702016012,-3.3077080885516565
-0.655642334614889,-2.502854649220602,-1.4746869246112269,-0.6948426405536097,-1.5970786253558558,-3.3068700472461146
-0.656433407460348,-2.503022019063131,-1.4742549101458948,-0.6950462500201624,-1.596994702016012,-3.306091372166769
-0.6572960058795374,-2.503238026295797,-1.4739068190204065,-0.6951902548419397,-1.5969107786761683,-3.305265251790182
-0.6589496771441858,-2.503561321889059,-1.4730432669269007,-0.6956694761859339,-1.5968030134784144,-3.3035765329944056
-0.6597884337054651,-2.5037534872638147,-1.4726713339435022,-0.6959570089923304,-1.5969107786761683,-3.302678648625509
-0.6606147925006312,-2.5038846174823206,-1.4722150007831019,-0.6961610952960413,-1.5967910925494593,-3.3019238154040735
-0.6614897886859339,-2.504052464162008,-1.471795384083883,-0.696449104939596,-1.5966952482806605,-3.301037851964132
-0.6632750670062464,-2.50442344347109,-1.4709675947772425,-0.6968687216388147,-1.5965755621539515,-3.2993248144732874
-0.6641019026385706,-2.5046513716327112,-1.4705713430987757,-0.6970484892474573,-1.5966594854937952,-3.298462216054098
-0.6650241057025355,-2.504866902028219,-1.4701278845416468,-0.6973121801959437,-1.5964797178851526,-3.2975762526141565
-0.6660187880145472,-2.50507098833193,-1.4696601072894495,-0.6974924246417444,-1.5964673201190394,-3.2966182867633265
-0.6679118315326136,-2.5054901281939905,-1.468747917805807,-0.6981032530414026,-1.5962756315814417,-3.294678036366598
-0.6689179579364222,-2.5057180563556116,-1.468220059071676,-0.6983192602740687,-1.5963476339923304,-3.2936719099627894
-0.6699965635882776,-2.5059455076800745,-1.4677041212665003,-0.6986435095416468,-1.59629995027651,-3.292678181325094
-0.6710508505450647,-2.506124798451559,-1.467128101979391,-0.6988590399371546,-1.5961440245257776,-3.291624132786886
-0.6733153502093714,-2.5065444151507776,-1.4660609404193323,-0.6995304266559046,-1.5960243383990687,-3.2893486658679407
-0.6744898001300257,-2.506808106099264,-1.4654730002032679,-0.6998179594623011,-1.5960362593280237,-3.288222853337423
-0.6757119337665003,-2.507071320210592,-1.4648726622210901,-0.7001059691058558,-1.59595233598818,-3.287049118672506
-0.6769221464740198,-2.5073230902301233,-1.4642608801471155,-0.7004173437701624,-1.5958197752581995,-3.2857916990863245
-0.6794498602496546,-2.507862393056051,-1.4630730787860315,-0.7010892073260706,-1.5956161657916468,-3.2833364645587366
-0.6807683149920862,-2.5081494490252894,-1.462365452443258,-0.7014368216144007,-1.5956762472735804,-3.2820432821856897
-0.6820743719684046,-2.5083773771869105,-1.4617417494403284,-0.7017844359027308,-1.5955565611468714,-3.280773703251974
-0.683392349873678,-2.508700672780172,-1.4610217253314417,-0.7021320501910608,-1.5954363981830042,-3.2794325987445276
-0.6861241499530237,-2.5093119780169886,-1.4596899191485804,-0.702911678944723,-1.5952685515033167,-3.276773516331808
-0.6874659697162073,-2.509599510823385,-1.4590538183795374,-0.7032950560199183,-1.5953405539142054,-3.2754083315478724
-0.6888559500323694,-2.5098632017718714,-1.458346192036764,-0.7036193052874964,-1.5951607863055628,-3.274102512990133
-0.690317455922262,-2.510198418294088,-1.4576266447650355,-0.7039426008807581,-1.5950530211078089,-3.272689406071798
-0.6930974165545862,-2.510773483906881,-1.4562585989581507,-0.7047222296344202,-1.5948851744281214,-3.269815270100729
-0.6945231596576136,-2.5111210981952112,-1.4555743376361292,-0.7050822416888636,-1.5949333349811,-3.2683780829059046
-0.6959369818316858,-2.511432472859518,-1.4548547903644007,-0.7054174582110804,-1.5948131720172327,-3.2669647375689905
-0.6973508040057581,-2.5117080847369593,-1.4541476408587855,-0.7058489958392542,-1.5946453253375452,-3.265491787587301
-0.7001307646380823,-2.5122955481158655,-1.4527552763568323,-0.706604305897848,-1.594597641621725,-3.2626894156085413
-0.7015207449542444,-2.51252252260317,-1.452071491871969,-0.7069762388812464,-1.5945857206927698,-3.2613123098956507
-0.702862564717428,-2.512833897267477,-1.4513996283160608,-0.707252327595846,-1.5945737997638147,-3.2599709669696253
-0.7042406241046351,-2.513097588215963,-1.4507282415973108,-0.7075637022601526,-1.5943697134601038,-3.258617703114645
-0.7068408171283167,-2.513636891041891,-1.4493959585772913,-0.7083066145526331,-1.5943101088153284,-3.2559471766101282
-0.7081344763385218,-2.513876740132467,-1.4487360159503382,-0.7086666266070765,-1.5943339506732386,-3.254641596470968
-0.7094410101519983,-2.51412803331484,-1.4481003920184534,-0.7089665571795862,-1.5942381064044397,-3.2534435431109827
-0.7107227484332483,-2.5143917242633265,-1.4475005308734339,-0.709266487752096,-1.5940941015826624,-3.252162281666891
-0.7131550947772425,-2.514906708394186,-1.4463484922992151,-0.7099979559527796,-1.5939386526690882,-3.249719206486837
-0.7143533865558069,-2.515122715626852,-1.4457247892962855,-0.7103093306170862,-1.5939505735980433,-3.24854547182192
-0.7155516783343714,-2.51540977159609,-1.4451373259173792,-0.7105730215655726,-1.5938666502581995,-3.2472761313067835
-0.7167375723468226,-2.5156496206866663,-1.4445613066302698,-0.7108729521380823,-1.5937708059894007,-3.2461023966418665
-0.7190864721881312,-2.516188923512594,-1.4433968702899378,-0.711496655141012,-1.593567196522848,-3.2437310854541224
-0.7202366034137171,-2.516416374837057,-1.4428332487689417,-0.7118080298053187,-1.5936630407916468,-3.2425578276263636
-0.721374813710348,-2.516632382069723,-1.4423297087298792,-0.7121442000018519,-1.593470875416891,-3.241408173237936
-0.7225850264178675,-2.516883675252096,-1.4417417685138147,-0.7124198118792933,-1.5934832731830042,-3.240234438573019
-0.7249096075641077,-2.5173986593829554,-1.4405296484576624,-0.7130430380450647,-1.593255345021383,-3.2378390471087855
-0.7261198202716272,-2.5176146666156214,-1.4399541060077112,-0.713391129170553,-1.593255345021383,-3.2366772333728235
-0.7273419539081019,-2.5179017225848597,-1.439390007649557,-0.713726822529928,-1.5930636564837855,-3.2354920546161097
-0.7285640875445765,-2.5181296507464808,-1.4387896696673792,-0.7140143553363245,-1.5931595007525843,-3.2343183199511927
-0.7309849897967737,-2.518608872090475,-1.4375904242144983,-0.7146137396441858,-1.5929439703570765,-3.2319229284869593
-0.7321947256671351,-2.5188244024859827,-1.4369662443744105,-0.7149255911456507,-1.592919651662008,-3.2306771914111536
-0.7334173361407679,-2.519076172505514,-1.4363186995135706,-0.7152369658099573,-1.5927518049823206,-3.2294440905200403
-0.734710995350973,-2.519339386616842,-1.435694996510641,-0.7155488173114222,-1.5928481260882776,-3.228234354649679
-0.7371915022479456,-2.519806687031881,-1.4345067183123987,-0.7161486784564417,-1.592679802571432,-3.2257192770587366
-0.7384613196002405,-2.5200822989093226,-1.433883015309469,-0.7164600531207483,-1.5925119558917444,-3.224473539982931
-0.7397077719317835,-2.520334068928854,-1.4332354704486292,-0.7168558279620569,-1.5924161116229456,-3.2231560389148157
-0.741037670766012,-2.5206216017352503,-1.4326232115374964,-0.7171796003924769,-1.5923321882831019,-3.221874777470724
-0.743662182484762,-2.5211365858661097,-1.4313519636737269,-0.7178152243243616,-1.5922005812274378,-3.2193596998797815
-0.744943920766012,-2.5214722792254847,-1.4306796232806605,-0.7181633154498499,-1.5919964949237269,-3.218090597783224
-0.7462981382953089,-2.5217235724078577,-1.4300196806537073,-0.7185228506671351,-1.5920565764056605,-3.216821018849508
-0.7475565115558069,-2.522011105214254,-1.4294078985797327,-0.7189300696002405,-1.5918648878680628,-3.2155514399157923
-0.750216309224264,-2.522550408040182,-1.4281004110919397,-0.7195537726031702,-1.591780964528219,-3.2129886786090296
-0.7514985243426722,-2.522862259541647,-1.4274161497699183,-0.7198656241046351,-1.591780964528219,-3.211754862462179
-0.752852741871969,-2.5231016317950647,-1.4267562071429651,-0.720309082661764,-1.591769043599264,-3.2104018370257776
-0.7541707197772425,-2.523352924977438,-1.4261086622821253,-0.7206810156451624,-1.5915654341327112,-3.2090843359576624
-0.7568066755877894,-2.523916546498434,-1.4248250166522425,-0.721316162739889,-1.5914934317218226,-3.2064977327929896
-0.7581365744220179,-2.524191681538717,-1.4241765181170862,-0.721651856099264,-1.5914095083819788,-3.205144468938009
-0.7594545523272913,-2.524407211934225,-1.4235170523272913,-0.7219880262957972,-1.5914934317218226,-3.203838888798849
-0.7606766859637659,-2.5246828238116663,-1.4228575865374964,-0.7223237196551722,-1.5912774244891565,-3.2024739424334925
-0.7632172743426722,-2.525186363850729,-1.4216697851764124,-0.7229831854449671,-1.5912178198443812,-3.2000187079059046
-0.7645114103900355,-2.5254018942462366,-1.4210332075702112,-0.7232468763934534,-1.5911815802203577,-3.198641602193014
-0.7657578627215784,-2.525641743336813,-1.4204095045672815,-0.7236540953265589,-1.5911338965045374,-3.197444264088766
-0.7670038382159632,-2.525917355214254,-1.419797722493307,-0.7240260283099573,-1.590977970753805,-3.1961987654315394
-0.7694962660418909,-2.5264437834369105,-1.4185741583453577,-0.7245896498309534,-1.5909059683429163,-3.1936360041247767
-0.770754639302389,-2.5266478697406214,-1.4180339018451136,-0.7249015013324183,-1.5909541288958948,-3.192378346120016
-0.7719643751727503,-2.5268991629229944,-1.4174464384662073,-0.7252009550677698,-1.590750519429342,-3.1911566893206995
-0.7732346693622034,-2.527174774800436,-1.416762653981344,-0.7255366484271448,-1.5907862822162073,-3.1899355093585413
-0.775703255330221,-2.5276902357684534,-1.4155381361590784,-0.7261722723590296,-1.5905707518206995,-3.187444273625509
-0.7769129912005823,-2.5279300848590296,-1.4149029890643519,-0.7264960447894495,-1.5904505888568323,-3.1862109343158167
-0.7781356016742151,-2.5281575361834925,-1.4143026510821741,-0.7268317381488245,-1.590402905141012,-3.184953276311056
-0.7793458143817347,-2.528421227131979,-1.413750950490133,-0.7272513548480433,-1.590295139943258,-3.1837316195117396
-0.781778637562887,-2.528947655354635,-1.4125149885760706,-0.7278988997088831,-1.590174976979391,-3.18127686182131
-0.7830007711993616,-2.5292356649981897,-1.4118908087359827,-0.7281745115863245,-1.5900433699237269,-3.1799712816821497
-0.7842467466937464,-2.529486958180563,-1.411267105733053,-0.7284982840167444,-1.5900910536395472,-3.1787377039538782
-0.7854931990252894,-2.529726807271139,-1.4106791655169886,-0.7288463751422327,-1.5900314489947718,-3.1775408426867884
-0.7879975477801722,-2.530217949544088,-1.4094675222979944,-0.7294815222369593,-1.5899232069598597,-3.175049606953756
-0.7892316023456019,-2.530505959187643,-1.4088080565081995,-0.7297928969012659,-1.589743439351217,-3.173863951359884
-0.7904656569110315,-2.530769650136129,-1.4081719557391565,-0.7300933043109339,-1.5897796789752405,-3.172558609639303
-0.791748348866598,-2.531009022389547,-1.4076555410968226,-0.730452839528219,-1.5896475950824183,-3.1713131109820765
-0.7942526976214808,-2.531571690236227,-1.4064562956439417,-0.7311480681048792,-1.5895512739764612,-3.1688221136676233
-0.7955587545977991,-2.531811539326803,-1.4058082739459437,-0.7314718405352991,-1.5894315878497522,-3.167612616215841
-0.796828571950094,-2.532050911580221,-1.4051721731769007,-0.7317474524127405,-1.5894678274737757,-3.1663668791400355
-0.7981112639056605,-2.5323508421527308,-1.4045003096209925,-0.7320831457721155,-1.589288059865133,-3.165133301411764
-0.8006275335894983,-2.532830063496725,-1.4032166639911097,-0.7327788511859339,-1.5891440550433558,-3.162630860005514
-0.8018859068499964,-2.5331175963031214,-1.40259296098818,-0.733126465474264,-1.5891202131854456,-3.161337439213888
-0.8032038847552698,-2.533428970967428,-1.401956860219137,-0.7334502379046839,-1.589048210774557,-3.160056177769796
-0.804486099873678,-2.5336926619159144,-1.4013446013080042,-0.733797852193014,-1.5889762083636683,-3.1587746779071253
-0.8070381323443812,-2.5342558065997522,-1.4000495115863245,-0.7345169226275843,-1.5887964407550257,-3.1563316027270716
-0.8083084265338343,-2.5345070997821253,-1.3994372526751917,-0.7348292509662073,-1.588724438344137,-3.1550620237933558
-0.8095663229571741,-2.5347707907306116,-1.3988011519061487,-0.735117260609762,-1.588604752217428,-3.1538644472705286
-0.8108127752887171,-2.5351064840899866,-1.398177448903219,-0.7354767958270472,-1.588592831288473,-3.1526430288897913
-0.8133171240435999,-2.535609547291891,-1.3969300428973597,-0.7361958662616175,-1.5884607473956507,-3.150092426930563
-0.8145635763751429,-2.5359090010272425,-1.3962696234332483,-0.7364838759051722,-1.5884011427508753,-3.1489067713366907
-0.8158696333514612,-2.5361607710467737,-1.3956459204303187,-0.7367470900165003,-1.588257137929098,-3.147625509892599
-0.8170917669879358,-2.5364721457110804,-1.3951056639300745,-0.7370713392840784,-1.5882452170001429,-3.146355930958883
-0.8196924368487757,-2.5369752089129847,-1.39384633699526,-0.7378624121295374,-1.5881255308734339,-3.1437812487231653
-0.8209503332721155,-2.5372865835772913,-1.3932221571551722,-0.7381742636310022,-1.5880053679095667,-3.142524067555563
-0.8221848646747034,-2.5375383535968226,-1.3926222960101526,-0.738474194203512,-1.5879576841937464,-3.1411829630481165
-0.8234666029559534,-2.537790123616354,-1.3919742743121546,-0.7387736479388636,-1.5879815260516565,-3.1398893038379114
-0.8260071913348597,-2.538305107747213,-1.3906787077533167,-0.7394455114947718,-1.5878856817828577,-3.1373265425311487
-0.8272774855243128,-2.5385568777667444,-1.3901265303241175,-0.7397454420672815,-1.587682072316305,-3.136081043873922
-0.8285115400897425,-2.5387848059283655,-1.3894427458392542,-0.7401049772845667,-1.5877297560321253,-3.134883228932516
-0.829818073903219,-2.5390360991107386,-1.388867203389303,-0.7403925100909632,-1.5875023047076624,-3.133554522191183
-0.8323467413531702,-2.539551083241598,-1.3876312414752405,-0.7411239782916468,-1.5873945395099085,-3.1310513655291956
-0.8335683981524866,-2.5398147741900843,-1.3869712988482874,-0.7414715925799769,-1.5874303022967737,-3.129770104085104
-0.8348029295550745,-2.540042225514547,-1.3863471190081995,-0.741795841847555,-1.5872986952411097,-3.1285246054278772
-0.8360727469073694,-2.5403416792498987,-1.38574725786318,-0.7421072165118616,-1.5872862974749964,-3.1272788683520716
-0.8385537306415003,-2.5408452192889612,-1.384559456502096,-0.742706600819723,-1.5870707670794886,-3.124836270009176
-0.8398121039019983,-2.541144673024313,-1.3839834372149866,-0.7430904547320765,-1.5869510809527796,-3.1235788504229944
-0.8410099188434046,-2.5413487593280237,-1.3834078947650355,-0.7433784643756312,-1.5868671576129358,-3.1223211924182337
-0.8422330061541956,-2.541647736226217,-1.3827241102801722,-0.7437260786639612,-1.5868070761310022,-3.121064011250631
-0.8447130362140101,-2.5421989599811,-1.3815844694720667,-0.7443736235248011,-1.5866149107562464,-3.1186209360705774
-0.8459470907794397,-2.542450730000631,-1.3809359709369105,-0.7447331587420862,-1.5865071455584925,-3.117363516484396
-0.8472660223590296,-2.5427258650409144,-1.3803122679339808,-0.7450802961932581,-1.5864232222186487,-3.1160102526294153
-0.8485477606402796,-2.5430014769183558,-1.3797124067889612,-0.7453683058368128,-1.5864232222186487,-3.1148367563830774
-0.8510401884662073,-2.543493096028463,-1.3784650007831019,-0.7459443251239222,-1.5862916151629847,-3.1123338381396692
-0.8523228804217737,-2.543732468281881,-1.3778522650348108,-0.746291462575094,-1.586219612752096,-3.1110766569720667
-0.8535688559161585,-2.5440080801593226,-1.377204720173971,-0.7466514746295374,-1.5860875288592737,-3.109818998967306
-0.8548391501056116,-2.5442474524127405,-1.3765571753131312,-0.7469390074359339,-1.5861476103412073,-3.1085854212390345
-0.8573797384845179,-2.5448110739337366,-1.3753092924701136,-0.7475984732257288,-1.5860160032855433,-3.106058661137716
-0.8586018721209925,-2.5450385252581995,-1.3746851126300257,-0.7479584852801722,-1.5858238379107874,-3.104837242756979
-0.8599079290973108,-2.5452898184405726,-1.374049488698141,-0.7482822577105921,-1.5859077612506312,-3.103544060383932
-0.861190144215719,-2.545565430318014,-1.3734129110919397,-0.7485936323748987,-1.5857399145709437,-3.102274481450216
-0.8636706511126917,-2.546128575001852,-1.3721655050860804,-0.7492292563067835,-1.5855606237994593,-3.099759642277853
-0.8649771849261683,-2.546392265950338,-1.3715537230121058,-0.7495530287372034,-1.5856202284442347,-3.0985146204577845
-0.8661873976336878,-2.5466797987567347,-1.3709295431720179,-0.7499011198626917,-1.5854046980487269,-3.097268883381979
-0.8675058523761194,-2.5469678084002894,-1.3703296820269983,-0.7502487341510218,-1.5854523817645472,-3.095999781285421
-0.8700102011310022,-2.5474827925311487,-1.3691304365741175,-0.7508958021747034,-1.585296932850973,-3.093508545552389
-0.8713043371783655,-2.547746006642477,-1.3684456984149378,-0.7512314955340784,-1.5851290861712855,-3.0923472086535853
-0.8725984732257288,-2.5480335394488733,-1.3678339163409632,-0.7515910307513636,-1.585092846547262,-3.0910654703723353
-0.8738449255572718,-2.54832107225527,-1.3671382109271448,-0.7519868055926722,-1.5850332419024866,-3.089820448552267
-0.8763373533831995,-2.5488246122943323,-1.3659384886371058,-0.7525747458087366,-1.584985081349508,-3.0873892943011683
-0.8776438871966761,-2.549124066029684,-1.3653023878680628,-0.7529104391681116,-1.5848053137408655,-3.086179796849386
-0.8788898626910608,-2.549375836049215,-1.3646906057940882,-0.7532456556903284,-1.5848172346698206,-3.0849104563342493
-0.8801482359515589,-2.549567524586813,-1.3640063444720667,-0.7536056677447718,-1.5846017042743128,-3.0836408774005335
-0.8827007452594202,-2.550082508717672,-1.3627226988421839,-0.7542050520526331,-1.5845535437213343,-3.0811145941363733
-0.883946720753805,-2.550286118184225,-1.3621352354632776,-0.7545769850360315,-1.584517780934469,-3.0798330942737024
-0.8852055708514612,-2.5505736509906214,-1.3615229765521448,-0.7548888365374964,-1.584505860005514,-3.0785394350634974
-0.8864396254168909,-2.5508368651019495,-1.3608749548541468,-0.7552483717547815,-1.5843499342547815,-3.077306095753805
-0.8889682928668421,-2.551304642354147,-1.3596270720111292,-0.7558839956866663,-1.5842064062701624,-3.0747433344470423
-0.8901785055743616,-2.5515082518206995,-1.358967129384176,-0.756207291279928,-1.5842660109149378,-3.073498312626974
-0.891461197529928,-2.551783863698141,-1.3583558241473597,-0.7565434614764612,-1.584182087575094,-3.0722766558276575
-0.8927553335772913,-2.5520475546466272,-1.3577435652362269,-0.7568553129779261,-1.5841224829303187,-3.07103139558901
-0.8952720800982874,-2.5525744597064417,-1.3565200010882776,-0.757430378590719,-1.5840142408954065,-3.068528477345602
-0.8965180555926722,-2.552850071583883,-1.3558958212481897,-0.7578142325030726,-1.5838707129107874,-3.067246977482931
-0.8978360334979456,-2.5530899206744593,-1.3552959601031702,-0.7581618467914026,-1.5838945547686976,-3.065965716038839
-0.8990948835956019,-2.5533531347857874,-1.354647461568014,-0.7585814634906214,-1.5837028662311,-3.0646844545947474
-0.9016354719745081,-2.553868118916647,-1.353328053151266,-0.7591455618487757,-1.5835588614093226,-3.0621214548694056
-0.9028576056109827,-2.554119888936178,-1.352715794240133,-0.7595170179950159,-1.5834148565875452,-3.0607686678515833
-0.9041641394244593,-2.5543716589557093,-1.3520920912372034,-0.759864632283346,-1.5834148565875452,-3.059558931981222
-0.9054582754718226,-2.5546353499041956,-1.3514321486102503,-0.7601998488055628,-1.5832708517657679,-3.058265511189596
-0.9079631010638636,-2.5551026503192347,-1.350208584462301,-0.7608597914325159,-1.5831034819232386,-3.0557270685779017
-0.9092453161822718,-2.5554383436786097,-1.3495848814593714,-0.7612312475787562,-1.5831273237811487,-3.0544214884387415
-0.9105389753924769,-2.5556657950030726,-1.349020783101217,-0.7616151014911097,-1.5829475561725062,-3.053176228200094
-0.911785904561178,-2.555941406880514,-1.3483365217791956,-0.7619746367083948,-1.5830071608172815,-3.0519071261035364
-0.9143384138690394,-2.55644399324526,-1.3471010367022913,-0.7625864187823694,-1.5828636328326624,-3.04937988916506
-0.915560547505514,-2.5567076841937464,-1.3464883009540003,-0.7629340330706995,-1.58270770708193,-3.048087183629171
-0.9168432394610804,-2.5569475332843226,-1.3458769957171839,-0.7632578055011194,-1.582695786152975,-3.046781603490011
-0.9181011358844202,-2.557199303303854,-1.3453009764300745,-0.7636054197894495,-1.5826357046710413,-3.045595947896139
-0.9206298033343714,-2.5577386061297815,-1.3440774122821253,-0.7642172018634241,-1.5825517813311976,-3.0430575052844446
-0.9219239393817347,-2.5579779783831995,-1.3435371557818812,-0.7645767370807093,-1.582372013722555,-3.0418477694140833
-0.9231703917132776,-2.5582178274737757,-1.3429492155658167,-0.7649362722979944,-1.5824559370623987,-3.0405781904803675
-0.9244287649737757,-2.558505360280172,-1.3422654310809534,-0.7653325239764612,-1.582264248524801,-3.039321486149923
-0.9268978277789515,-2.558996025715963,-1.341125790272848,-0.7659075895892542,-1.5821803251849573,-3.0369020144092005
-0.9281199614154261,-2.5592716375934046,-1.340489689503805,-0.7661836783038538,-1.5821083227740687,-3.0356927553759974
-0.9293306509601038,-2.559535328541891,-1.3398779074298304,-0.7664950529681605,-1.5820725599872034,-3.0344117323504847
-0.9305885473834437,-2.559775177632467,-1.3392537275897425,-0.7668307463275355,-1.581928555165426,-3.0332260767566126
-0.933021370564596,-2.5603025595294397,-1.3380301634417933,-0.7674663702594202,-1.5817611853228968,-3.030891005192892
-0.9342559019671839,-2.5605900923358362,-1.3373940626727503,-0.7677901426898401,-1.5817492643939417,-3.0296931902514856
-0.9355023542987269,-2.5608657042132776,-1.3367942015277308,-0.7681258360492151,-1.5816291014300745,-3.0284836927997034
-0.9367006460772913,-2.56104547182192,-1.336181942616598,-0.7685216108905237,-1.5815570990191858,-3.027358118687765
-0.9391816298114222,-2.5615838209735315,-1.3349946180926722,-0.7691567579852503,-1.5814374128924769,-3.0249272028552454
-0.9404757658587855,-2.561847511922018,-1.3343585173236292,-0.7694209257708948,-1.5813177267657679,-3.023694101964132
-0.9417341391192835,-2.5621231237994593,-1.3337581793414515,-0.7697566191302698,-1.5813773314105433,-3.0224602858172815
-0.9430282751666468,-2.5623510519610804,-1.3331344763385218,-0.7700803915606897,-1.581221882496969,-3.021191183720724
-0.9456408659564417,-2.5629141966449183,-1.3318865934955042,-0.7707636992083948,-1.5811260382281702,-3.018604342137472
-0.9469111601458948,-2.5631778875934046,-1.3312509695636194,-0.7711113134967249,-1.5810540358172815,-3.01729923883547
-0.9482057730304163,-2.563441578541891,-1.330590550099508,-0.7714350859271448,-1.580993954335348,-3.015970055256979
-0.9494517485248011,-2.5637171904193323,-1.3299430052386683,-0.7717707792865198,-1.5808141867267054,-3.014712635670797
-0.9520404974566858,-2.564244572316305,-1.328623119984762,-0.7725141684161585,-1.5807421843158167,-3.0120542685138147
-0.9533346335040491,-2.5644715468036097,-1.327987019215719,-0.7728260199176233,-1.5806945005999964,-3.010749165211813
-0.9546292463885706,-2.5647228399859827,-1.3273394743548792,-0.7731259504901331,-1.5807064215289515,-3.0095155874835413
-0.95581561723818,-2.5650108496295374,-1.3267152945147913,-0.7734611670123499,-1.5804665724383753,-3.008282248173849
-0.9582603613482874,-2.565525833760397,-1.3254674116717737,-0.7741330305682581,-1.5803826490985315,-3.0057435671435755
-0.9595311323748987,-2.565789524708883,-1.3248198668109339,-0.7744086424456995,-1.5804303328143519,-3.004498306904928
-0.9606812636004847,-2.5660651365863245,-1.3242314497577112,-0.7747324148761194,-1.580346409474508,-3.0032525698291224
-0.9619157950030726,-2.566352669392721,-1.3236430327044886,-0.7751043478595179,-1.5802624861346644,-3.002019468938009
-0.9642890135394495,-2.5668442885028284,-1.3224919478045862,-0.7756913344012659,-1.5800946394549769,-2.99968392053713
-0.9654267469989222,-2.5670717398272913,-1.3219640890704554,-0.7760151068316858,-1.5800469557391565,-2.9985345045672815
-0.966529671345846,-2.5673230330096644,-1.3214119116412562,-0.7763269583331507,-1.5799630323993128,-2.9974446932422083
-0.96765643755068,-2.5675509611712855,-1.3208840529071253,-0.7766030470477503,-1.5799029509173792,-2.99634296098818
-0.9697297255145472,-2.5680058638202112,-1.3199246565448206,-0.7771185080157679,-1.5797713438617151,-2.994295660649435
-0.9707248846637171,-2.5682457129107874,-1.319467846547262,-0.7773702780352991,-1.5797951857196253,-2.9933136145221155
-0.9717071692096155,-2.568413559590475,-1.3189876715289515,-0.7776101271258753,-1.5796635786639612,-2.9923792521106165
-0.9726060072528284,-2.5686290899859827,-1.318592373524801,-0.777813736592428,-1.5796754995929163,-2.99145752588381
-0.9743440786944788,-2.568976704274313,-1.3176921049701136,-0.7782333532916468,-1.5796154181109827,-2.989708964024679
-0.9751704374896448,-2.5691445509540003,-1.317296330128805,-0.7783773581134241,-1.579423729573385,-2.9889426867114466
-0.9759019056903284,-2.5692761580096644,-1.3169601599322718,-0.7785809675799769,-1.579543415700094,-2.988140646611349
-0.976668659840719,-2.569467846547262,-1.316552464162008,-0.7787736097918909,-1.5793398062335413,-2.9874098936664026
-0.9780467192279261,-2.569719139729635,-1.3158205191241663,-0.7792647520648401,-1.5793398062335413,-2.986008946095602
-0.9787662664996546,-2.5698869864093226,-1.315460507069723,-0.779456917439596,-1.5792558828936976,-2.9852786699878138
-0.9794014135943812,-2.5699947516070765,-1.315160099660055,-0.7795885244952601,-1.5793398062335413,-2.984607760106222
-0.980072323475973,-2.570150677357809,-1.3148606459247034,-0.7797682921039026,-1.5791481176959437,-2.984044853840963
-0.9813788572894495,-2.5704625288592737,-1.3142007032977503,-0.780031983052389,-1.5791600386248987,-2.9827397505389612
-0.9819896856891077,-2.5705822149859827,-1.3139007727252405,-0.7801640669452112,-1.5790041128741663,-2.982093397771017
-0.9826129118548792,-2.57072621980776,-1.3135770002948206,-0.7803557554828089,-1.5791123549090784,-2.98138672510256
-0.9831884543048304,-2.570881191884176,-1.3132885138141077,-0.780487362538473,-1.5789921919452112,-2.980823818837301
-0.9844587484942835,-2.5711329619037073,-1.312676731740133,-0.7807992140399378,-1.578956429158346,-2.979602638875143
-0.9851296583758753,-2.571300808583395,-1.3123887220965784,-0.7810514608966272,-1.5788243452655237,-2.9789920488940638
-0.9857414404498499,-2.5713608900653284,-1.3120892683612269,-0.7811711470233362,-1.578944508229391,-2.9783452192889612
-0.9864123503314417,-2.571528736745016,-1.3117292563067835,-0.7813752333270472,-1.5787766615497034,-2.9776626268969935
-0.9876945654498499,-2.5718639532672327,-1.3110807577716272,-0.7816265265094202,-1.5787766615497034,-2.976440970097677
-0.988377873097555,-2.5719478766070765,-1.3107455412494105,-0.7817710081683558,-1.578632656727926,-2.9757824579821985
-0.9890368620501917,-2.572127644215719,-1.3104208151446741,-0.7819388548480433,-1.5787165800677698,-2.975088183079855
-0.9897201696978968,-2.572211567555563,-1.3101208845721644,-0.7821782271014612,-1.578489128743307,-2.9744413534747522
-0.9910381476031702,-2.572486702595846,-1.309437100087301,-0.7826097647296351,-1.578512970601217,-2.973111931477682
-0.9917691389666956,-2.572714630757467,-1.3090890089618128,-0.7828376928912562,-1.5783570448504847,-2.972405735646383
-0.9924762884723108,-2.572810475026266,-1.3087409178363245,-0.7829578558551233,-1.5784409681903284,-2.9717233816729944
-0.9931238333331507,-2.572942558919088,-1.3084052244769495,-0.7832096258746546,-1.5782492796527308,-2.970992628728048
-0.9945257345782679,-2.57326585451235,-1.3077572027789515,-0.7834971586810511,-1.5782135168658655,-2.9697113672839563
-0.9951847235309046,-2.573397938405172,-1.307385269795553,-0.7836411635028284,-1.5781415144549769,-2.9690046946154993
-0.995880428944723,-2.5735295454608362,-1.3070252577411097,-0.7838571707354944,-1.5782135168658655,-2.9683943430529993
-0.9965632597552698,-2.573649231587545,-1.30674916902651,-0.7840011755572718,-1.5779379049884241,-2.967675511037008
-0.9978578726397913,-2.5739248434649866,-1.3060653845416468,-0.784372631703512,-1.578033749257223,-2.9664304892169397
-0.998504940663473,-2.574104611073629,-1.3057177702533167,-0.7846244017230433,-1.5779379049884241,-2.965771738682882
-0.9991281668292444,-2.574188534413473,-1.3054173628436487,-0.7846840063678187,-1.578045670186178,-2.9651368300067347
-0.9997270742999476,-2.574320618306295,-1.3051298300372522,-0.7848880926715296,-1.5778897444354456,-2.9645260016070765
-1.0009382406817835,-2.574548069630758,-1.3044455687152308,-0.7851761023150843,-1.5779379049884241,-2.963376585637228
-1.0015247503863733,-2.5746315161334437,-1.3041694800006312,-0.7851880232440394,-1.5777457396136683,-2.962790075932638
-1.0020883719073694,-2.574763600026266,-1.3038933912860315,-0.7854879538165491,-1.577841583882467,-2.962191406880514
-1.002615753804342,-2.5748475233661097,-1.3036654631244105,-0.7855117956744593,-1.577829662953512,-2.9617002646075647
-1.0037062803851526,-2.5750630537616175,-1.3031018416034144,-0.7858236471759241,-1.577817742024557,-2.9606226126300257
-1.0042098204242151,-2.575135056172506,-1.30286151567568,-0.786051098500387,-1.5776861349688929,-2.9601555506335657
-1.0047009626971644,-2.57526666322817,-1.3025859037982386,-0.7861231009112757,-1.5776861349688929,-2.959616486226217
-1.0051568190204065,-2.5753381888019007,-1.3024056593524378,-0.7863271872149866,-1.5777338186847132,-2.9591735045062464
-1.0060794989215296,-2.5755179564105433,-1.301889721547262,-0.7864950338946741,-1.577721897755758,-2.958167616521017
-1.006486717854635,-2.5756261984454554,-1.3017337957965296,-0.7865188757525843,-1.5776022116290491,-2.9577248732196253
-1.0069063345538538,-2.575722042714254,-1.3014815489398401,-0.7865789572345179,-1.577505890523092,-2.9572816530810755
-1.0073497931109827,-2.575794045125143,-1.3012898604022425,-0.7867706457721155,-1.5776861349688929,-2.9569464365588587
-1.0081408659564417,-2.575913731251852,-1.300917927418844,-0.786926571522848,-1.5775182882892054,-2.9561918417560022
-1.0084765593158167,-2.5759976545916956,-1.3007381598102015,-0.7868426481830042,-1.5775182882892054,-2.9557607809649866
-1.008859936391012,-2.5760696570025843,-1.3006184736834925,-0.7871063391314905,-1.5773981253253382,-2.9553776423083704
-1.009218994771139,-2.576153580342428,-1.3004258314715784,-0.7870462576495569,-1.577482048665182,-2.9550424257861536
-1.009902302418844,-2.576285187398092,-1.300065819417135,-0.7871897856341761,-1.577386204396383,-2.9543240706073206
-1.010226074849264,-2.576369110737936,-1.2998860518084925,-0.7873461882220667,-1.577482048665182,-2.9539886156665247
-1.010561768208639,-2.5764291922198694,-1.29973012605776,-0.7874301115619105,-1.5773981253253382,-2.9537251631366175
-1.0108254591571253,-2.576488796864645,-1.2996099630938929,-0.787490193043844,-1.5773981253253382,-2.9534016291247767
-1.0114486853228968,-2.576608959828512,-1.299310032521383,-0.7877062002765101,-1.5773380438434046,-2.9527788797961634
-1.0117481390582483,-2.5766447226153772,-1.299189869557516,-0.7877538839923304,-1.5774458090411585,-2.952503506337301
-1.011951748524801,-2.576704804097311,-1.2990220228778284,-0.787825886403219,-1.5773380438434046,-2.952240292225973
-1.0122397581683558,-2.576752487813131,-1.2989261786090296,-0.7879698912249964,-1.5773380438434046,-2.9519651571856897
-1.0127552191363733,-2.576860253010885,-1.29865008989443,-0.788149658833639,-1.577266041432516,-2.9514620939837855
-1.012958828602926,-2.5768964926349085,-1.298530403767721,-0.7880538145648401,-1.5773738066302698,-2.951186482106344
-1.013174835835592,-2.576968495045797,-1.2984584013568323,-0.7881973425494593,-1.5772903601275843,-2.9508872667895716
-1.013402287160055,-2.5770161787616175,-1.2983501593219202,-0.7882574240313929,-1.5772183577166956,-2.950695578251974
-1.0138333479510706,-2.577064339314596,-1.2981579939471644,-0.7884615103351038,-1.5771821180926722,-2.950336281453268
-1.014001194630758,-2.5771001021014612,-1.2980621496783655,-0.7882335821734827,-1.5772302786456507,-2.9502044359790247
-1.0141928831683558,-2.5771239439593714,-1.2979782263385218,-0.7884615103351038,-1.5772903601275843,-2.950096670781271
-1.0143964926349085,-2.577160183583395,-1.2979181448565882,-0.7884734312640589,-1.577158276234762,-2.9499169031726282
-1.0146601835833948,-2.57721978822817,-1.297809902821676,-0.7886531988727015,-1.5770981947528284,-2.9497016111956995
-1.014780346547262,-2.5772560278521937,-1.2977741400348108,-0.7884615103351038,-1.5771344343768519,-2.9495697657214563
-1.0148046652423304,-2.577303711568014,-1.2977021376239222,-0.7886770407306116,-1.5771940390216272,-2.9494622389422815
-1.0149362722979944,-2.577279869710104,-1.297678295766012,-0.7885454336749476,-1.5770147482501429,-2.9493544737445276
-1.0150683561908167,-2.577291790639059,-1.297666374837057,-0.7887252012835901,-1.5770147482501429,-2.949174944554464
-1.015127960835592,-2.577315632496969,-1.297666374837057,-0.7886531988727015,-1.577050511037008,-2.9491270224200647
-1.015116039906637,-2.5773399511920374,-1.2976062933551233,-0.7887490431415003,-1.5770981947528284,-2.94913894334902
-1.015104118977682,-2.577315632496969,-1.297678295766012,-0.788605038319723,-1.577026669179098,-2.94913894334902
-1.0150802771197718,-2.577303711568014,-1.2977145353900355,-0.7886889616595667,-1.5770147482501429,-2.9491990248309534
-1.0150201956378382,-2.577303711568014,-1.2977021376239222,-0.7886293570147913,-1.577038590108053,-2.949174944554464
-1.0150683561908167,-2.5773280302630823,-1.297690216694967,-0.7886651198016565,-1.577026669179098,-2.949174944554464
-1.0150683561908167,-2.577303711568014,-1.2977021376239222,-0.7886531988727015,-1.577038590108053,-2.949174944554464
-1.0150683561908167,-2.5773280302630823,-1.2977145353900355,-0.7886293570147913,-1.577038590108053,-2.949151102696554
-1.0150921980487269,-2.5773399511920374,-1.2976425329791468,-0.7886531988727015,-1.5770023504840296,-2.949174944554464
-1.015104118977682,-2.5773399511920374,-1.297666374837057,-0.78870135942568,-1.577038590108053,-2.949151102696554
-1.0150683561908167,-2.577315632496969,-1.2977145353900355,-0.7886889616595667,-1.577026669179098,-2.949174944554464
-1.015104118977682,-2.5773399511920374,-1.2976544539081019,-0.7887490431415003,-1.577050511037008,-2.9491868654834192
-1.0150802771197718,-2.5773280302630823,-1.2977021376239222,-0.7887728849994105,-1.577038590108053,-2.949174944554464
-1.0150683561908167,-2.5773399511920374,-1.297666374837057,-0.7887728849994105,-1.577038590108053,-2.94913894334902
-1.0150802771197718,-2.5773280302630823,-1.2977021376239222,-0.788832966481344,-1.5770147482501429,-2.949163023625509
-1.0150564352618616,-2.577315632496969,-1.2976425329791468,-0.7888448874102991,-1.577026669179098,-2.949151102696554
-1.015116039906637,-2.5773399511920374,-1.297666374837057,-0.7888811270343226,-1.5770624319659632,-2.949151102696554
-1.0150683561908167,-2.5773518721209925,-1.2976544539081019,-0.788821045552389,-1.5770147482501429,-2.949174944554464
-1.0150564352618616,-2.577315632496969,-1.297666374837057,-0.7887972036944788,-1.5770023504840296,-2.94913894334902
-1.0150802771197718,-2.5773280302630823,-1.297678295766012,-0.788821045552389,-1.577026669179098,-2.9491868654834192
-1.0150440374957483,-2.5773399511920374,-1.2977021376239222,-0.7887852827655237,-1.577026669179098,-2.9492109457599085
-1.0150802771197718,-2.5773280302630823,-1.297690216694967,-0.7887132803546351,-1.5770023504840296,-2.949246946965353
-1.0150440374957483,-2.577303711568014,-1.2977259794818323,-0.7886889616595667,-1.5770023504840296,-2.949270550404684
-1.014984432850973,-2.577303711568014,-1.2977259794818323,-0.7886651198016565,-1.577026669179098,-2.9493303934680384
-1.0149005095111292,-2.577303711568014,-1.2977383772479456,-0.7885931173907679,-1.577026669179098,-2.949390236531393
-1.0148404280291956,-2.5773280302630823,-1.2977984587298792,-0.7885573546039026,-1.577038590108053,-2.949390236531393
-1.014780346547262,-2.577303711568014,-1.2978938261615198,-0.7885335127459925,-1.577050511037008,-2.949534002934591
-1.0145285765277308,-2.577279869710104,-1.2979782263385218,-0.7884495894061487,-1.577026669179098,-2.949761454259054
-1.0144208113299769,-2.5772560278521937,-1.2980263868915003,-0.7884014288531702,-1.5770624319659632,-2.9497974554644983
-1.0142529646502894,-2.5772441069232386,-1.2980740706073206,-0.7883532683001917,-1.577026669179098,-2.950000826512472
-1.0140612761126917,-2.5772560278521937,-1.2981579939471644,-0.7882931868182581,-1.577026669179098,-2.9500725905047815
-1.0137017408954065,-2.577184025441305,-1.2983983198748987,-0.7882455031024378,-1.5771105925189417,-2.9503961245166224
-1.0135100523578089,-2.5771358648883265,-1.2984822432147425,-0.7881854216205042,-1.5771821180926722,-2.9506354967700403
-1.013294521962301,-2.5771001021014612,-1.2985780874835413,-0.788161579762594,-1.5770981947528284,-2.950839344655172
-1.0130189100848597,-2.5770042578326624,-1.2986982504474085,-0.7880538145648401,-1.5770743528949183,-2.9511144796954554
-1.012491528187887,-2.5769322554217737,-1.2989619413958948,-0.7879460493670862,-1.5770743528949183,-2.9517973105060022
-1.0122035185443323,-2.576860253010885,-1.2991059462176722,-0.7879937330829065,-1.5772064367877405,-2.9520848433123987
-1.0118802229510706,-2.57682449022402,-1.2992742697345179,-0.787825886403219,-1.5771344343768519,-2.9524317423449915
-1.011496369038717,-2.576704804097311,-1.2994301954852503,-0.7878740469561976,-1.577170197163717,-2.952754799519674
-1.0107415358172815,-2.5765369574176233,-1.2997782866107386,-0.787609879170553,-1.5772064367877405,-2.95353347459902
-1.0104177633868616,-2.5764291922198694,-1.2999699751483362,-0.7876580397235315,-1.5771940390216272,-2.9538686911212366
-1.0099743048297327,-2.5763571898089808,-1.3001259008990687,-0.7874301115619105,-1.5771940390216272,-2.9542999903308313
-1.009554688130514,-2.576249424611227,-1.3003056685077112,-0.7874420324908655,-1.5772064367877405,-2.9546952883349817
-1.0086801687823694,-2.576045338307516,-1.3006661573993128,-0.7872737089740198,-1.5772183577166956,-2.955556933079855
-1.008284870778219,-2.575925652180807,-1.300917927418844,-0.7870700995074671,-1.577266041432516,-2.955940548573629
-1.00781757036318,-2.575841728840963,-1.301122013722555,-0.7870700995074671,-1.5773261229144495,-2.9564552942859095
-1.0073497931109827,-2.575710121785299,-1.301349941884176,-0.7868426481830042,-1.5773022810565394,-2.9569583574878138
-1.0064147154437464,-2.5755541960345667,-1.3018415609942835,-0.7866986433612269,-1.5773142019854944,-2.9577727953540247
-1.0059235731707972,-2.5754345099078577,-1.3019979635821741,-0.7866385618792933,-1.5773738066302698,-2.9582515398608606
-1.0054200331317347,-2.5753024260150355,-1.3022740522967737,-0.786483112965719,-1.577386204396383,-2.958778444920675
-1.0049169699298304,-2.5752185026751917,-1.3024900595294397,-0.7864349524127405,-1.577386204396383,-2.9592934290515345
-1.0038860479937952,-2.5750272909747522,-1.3030055204974573,-0.7862194220172327,-1.5774577299701136,-2.9603472391711634
-1.0033586660968226,-2.574907128010885,-1.3032696882831019,-0.7861350218402308,-1.5774458090411585,-2.9608381430255335
-1.002831761037008,-2.5748112837420862,-1.303497616444723,-0.7859070936786097,-1.5774701277362269,-2.961376730595724
-1.0023277441607874,-2.5746915976153772,-1.303798023854391,-0.7858832518206995,-1.5775182882892054,-2.9618917147265833
-1.0012496153460901,-2.5744884649859827,-1.3042901198016565,-0.7855237166034144,-1.577505890523092,-2.962921682988302
-1.0006745497332972,-2.574320618306295,-1.304565731679098,-0.7852719465838831,-1.5775421301471155,-2.963484589253561
-1.0001590887652796,-2.5742605368243616,-1.3048294226275843,-0.7851040999041956,-1.5776141325580042,-2.9640589396106165
-0.9995835463153284,-2.574068848286764,-1.3051298300372522,-0.7849600950824183,-1.5776260534869593,-2.9645379225360315
-0.9984687010394495,-2.573853317891256,-1.3056815306292933,-0.7846363226519983,-1.577590290700094,-2.965759579335348
-0.9979174772845667,-2.5736973921405237,-1.3059452215777796,-0.7845404783831995,-1.5776022116290491,-2.966334406529562
-0.9973304907428187,-2.5735414663897913,-1.3062456289874476,-0.7843006292926233,-1.577698055897848,-2.9668973127948206
-0.9967191855060022,-2.5734456221209925,-1.3065450827227991,-0.7842286268817347,-1.577698055897848,-2.9674838224994105
-0.9954846541034144,-2.573170010243551,-1.3070977369891565,-0.7838090101825159,-1.5777819792376917,-2.968693558369772
-0.9948495070086878,-2.5730260054217737,-1.3074334303485315,-0.7835810820208948,-1.577721897755758,-2.969292465840475
-0.9942143599139612,-2.5728824774371546,-1.307720963154928,-0.7834494749652308,-1.5777338186847132,-2.969915215169088
-0.9935911337481897,-2.5727384726153772,-1.3080571333514612,-0.783245865498678,-1.5778897444354456,-2.970597569142477
-0.9922249952899378,-2.5724991003619593,-1.3086207548724573,-0.7829096953021448,-1.5778659025775355,-2.97183067003359
-0.9915536085711878,-2.5723193327533167,-1.3089335600482386,-0.7828019301043909,-1.5779135862933558,-2.972525421773092
-0.9909065405475062,-2.5721519629107874,-1.3092806974994105,-0.78259784380068,-1.5779379049884241,-2.9732077757464808
-0.9902713934527796,-2.572019879017965,-1.3095687071429651,-0.7825616041766565,-1.5779617468463343,-2.9738665262805384
-0.9888809362994593,-2.571696106587545,-1.3102291266070765,-0.7821543852435511,-1.5779975096331995,-2.975231711064474
-0.9881499449359339,-2.571528736745016,-1.310540501271383,-0.7819026152240198,-1.5781415144549769,-2.975962225590841
-0.9874785582171839,-2.5713728109942835,-1.310817066823141,-0.7817109266864222,-1.578153435383932,-2.976656738911764
-0.9867838064776819,-2.571204964314596,-1.3111889998065394,-0.7815068403827112,-1.5781891981707972,-2.977410856877462
-0.985333267842428,-2.5709055105792444,-1.3118489424334925,-0.7811592260943812,-1.5782011190997522,-2.978776280079977
-0.9846022764789026,-2.5706780592547815,-1.3122089544879358,-0.7809675375567835,-1.5783570448504847,-2.9795425573932093
-0.9838479200946253,-2.5705702940570276,-1.312533203755514,-0.7807634512530726,-1.578296963368551,-2.980320755635397
-0.9831407705890101,-2.5703542868243616,-1.3128445784198206,-0.7806075255023401,-1.5783570448504847,-2.981147352849142
-0.9815586248980921,-2.570042912160055,-1.3135650793658655,-0.7801640669452112,-1.5783451239215296,-2.9826558271991175
-0.9808152357684534,-2.5698750654803675,-1.313948933278219,-0.7799599806415003,-1.5785606543170374,-2.983398501073019
-0.9800365606891077,-2.56970721880068,-1.3143203894244593,-0.7797921339618128,-1.5785368124591272,-2.9842007795916956
-0.9793055693255823,-2.5695398489581507,-1.3147042433368128,-0.7796128431903284,-1.5785849730121058,-2.984931294118063
-0.9777830282794397,-2.569216553364889,-1.315460507069723,-0.7793124357806605,-1.5786688963519495,-2.986523691807882
-0.9769685904132288,-2.5690606276141565,-1.3158324400531214,-0.7790969053851526,-1.5788243452655237,-2.987302366887228
-0.9761775175677698,-2.568868939076559,-1.3162038961993616,-0.7788689772235315,-1.578848663960592,-2.9880805651294153
-0.9753740469561976,-2.5687010923968714,-1.3166001478778284,-0.7786529699908655,-1.5788243452655237,-2.9889066855060022
-0.9737446943866175,-2.5683653990374964,-1.3173802534686487,-0.7781851927386683,-1.5788844267474573,-2.990415636693136
-0.9728696982013147,-2.5682218710528772,-1.3177760283099573,-0.7779935042010706,-1.5789802710162562,-2.9912541548358362
-0.9720547834979456,-2.568089787160055,-1.3181965986834925,-0.777801815663473,-1.5791242758380335,-2.992068354283468
-0.9712160269366663,-2.5679100195514124,-1.3186162153827112,-0.7776578108416956,-1.578968350087301,-2.9928465525256556
-0.9695737997638147,-2.5675867239581507,-1.3193958441363733,-0.7772744337665003,-1.5791242758380335,-2.9944873491870325
-0.9687588850604456,-2.5674312750445765,-1.3198278586017054,-0.777022663746969,-1.579076115285055,-2.9953253904925745
-0.9679678122149866,-2.567251507435934,-1.3202241102801722,-0.7767589727984827,-1.5792558828936976,-2.9961395899402063
-0.9670212904559534,-2.5670717398272913,-1.3206318060504358,-0.7765072027789515,-1.5791361967669886,-2.997037712727682
-0.9653070608722132,-2.566676441823141,-1.3214719931231897,-0.776038948689596,-1.5793278853045862,-2.9987264315234583
-0.9643967787372034,-2.5664847532855433,-1.3219283262835901,-0.7758711020099085,-1.5792320410357874,-2.999671999608175
-0.9634860197650355,-2.566256825123922,-1.3223241011248987,-0.7756198088275355,-1.5793879667865198,-3.000606362019674
-0.9625504652606409,-2.5660412947284144,-1.3228161970721644,-0.7753799597369593,-1.57941180864443,-3.001624409352438
-0.960489575062887,-2.5656097571002405,-1.3237517515765589,-0.774780575429098,-1.5795553366290491,-3.003659788762228
-0.9594114462481897,-2.565334145222799,-1.3242915312396448,-0.7745288054095667,-1.5794957319842737,-3.0046897570239466
-0.9584043661700647,-2.5651305357562464,-1.3248074690448206,-0.7742770353900355,-1.5796392599688929,-3.0057790915118616
-0.9572895208941858,-2.564854923878805,-1.325287167225973,-0.7739890257464808,-1.5796034971820276,-3.006857220326559
-0.9550727049456995,-2.564387623463766,-1.326379124318258,-0.7733653227435511,-1.5797832647906702,-3.009132448826925
-0.9538267294513147,-2.564124409352438,-1.3269670645343226,-0.7730897108661097,-1.5796754995929163,-3.010305706654684
-0.9526518026935022,-2.56388503709902,-1.3275435606585901,-0.7727540175067347,-1.579879109059469,-3.011515442525045
-0.9513333479510706,-2.5636094252215784,-1.328083340321676,-0.7725022474872034,-1.5797713438617151,-3.012785021458761
-0.9488409201251429,-2.5630701223956507,-1.3293793837176722,-0.7719023863421839,-1.580010716115133,-3.015275541936056
-0.9475825468646448,-2.5628183523761194,-1.3299668470965784,-0.7715428511248987,-1.579986874257223,-3.0165565649615687
-0.9462521711932581,-2.562542740498678,-1.330590550099508,-0.7711713949786585,-1.5801904837237757,-3.017886225377218
-0.9449098745929163,-2.5622790495501917,-1.3312748114215296,-0.7708714644061487,-1.5801428000079554,-3.0192511717425745
-0.9421895186053675,-2.561763588582174,-1.3325822989093226,-0.7701881567584437,-1.5803702513324183,-3.0218973795520228
-0.9408114592181605,-2.561500374470846,-1.333266560231344,-0.7698405424701136,-1.5803106466876429,-3.023227039967672
-0.93939716020693,-2.561237160359518,-1.3338788191424769,-0.7695048491107386,-1.580550495778219,-3.0245676676379603
-0.938031021748678,-2.560913387929098,-1.3345626036273401,-0.7691448370562952,-1.5804784933673304,-3.0258973280536097
-0.9352987448321741,-2.560362164174215,-1.3358343283282679,-0.7685216108905237,-1.5806825796710413,-3.028543535863058
-0.9339564482318323,-2.5600627104388636,-1.3363860289203089,-0.7682221571551722,-1.5806463400470179,-3.029861036931173
-0.9326141516314905,-2.559763256703512,-1.337045971547262,-0.7678139845477503,-1.5808022657977503,-3.031154457722799
-0.9313200155841272,-2.559439484273092,-1.337682072316305,-0.7674782911883753,-1.5807421843158167,-3.0324834028827112
-0.9286473433123987,-2.558840576802389,-1.3388941923724573,-0.766794506703512,-1.5809462706195276,-3.035165850316183
-0.9273050467120569,-2.5585415999041956,-1.3395536581622522,-0.7664831320392054,-1.580874268208639,-3.036470953618185
-0.926058594380514,-2.558241669331686,-1.3401415983783167,-0.7660754362689417,-1.5810540358172815,-3.0377286116229456
-0.9247883001910608,-2.5579541365252894,-1.3407776991473597,-0.7658117453204554,-1.581005875264303,-3.0390337149249476
-0.9222357908831995,-2.5573790709124964,-1.34190541902651,-0.7652238051043909,-1.581209961568014,-3.041548554097311
-0.9209654966937464,-2.5570791403399866,-1.3425052801715296,-0.7649362722979944,-1.581113640462057,-3.042877737675802
-0.919779125844137,-2.5568397680865687,-1.3431294600116175,-0.7646363417254847,-1.5813177267657679,-3.0440993944751185
-0.9186046759234827,-2.5565760771380823,-1.343717400227682,-0.7642768065081995,-1.5812338034259241,-3.045344654713766
-0.9162195364581507,-2.556084934865133,-1.3448451201068323,-0.7636893431292933,-1.5814016501056116,-3.047739569340841
-0.9150694052325647,-2.55585748354067,-1.3454325834857386,-0.7634018103228968,-1.5813897291766565,-3.048936907445089
-0.9139311949359339,-2.555617634450094,-1.3459847609149378,-0.7631138006793421,-1.5815332571612757,-3.0501344839679163
-0.9127681891070765,-2.555366341267721,-1.3465254942523401,-0.7628262678729456,-1.5814855734454554,-3.051260296498434
-0.910407845173971,-2.5548508802997034,-1.347712818776266,-0.762214485798971,-1.5817249456988733,-3.053655211125509
-0.9092453161822718,-2.5546353499041956,-1.3482406775103968,-0.7619031111346644,-1.581689182912008,-3.054721180592672
-0.908034626637594,-2.554359738026754,-1.348804775868551,-0.761639420186178,-1.581916634236471,-3.0559309164630335
-0.9068482557879847,-2.554096047078268,-1.3493207136737269,-0.761423412953512,-1.5818327108966272,-3.0570924917804163
-0.9044755140887659,-2.553544823323385,-1.3504846731769007,-0.7607277075396937,-1.5820367972003382,-3.0594752470599573
-0.9032529036151331,-2.553281609212057,-1.3511083761798304,-0.7604039351092737,-1.582120720540182,-3.060708824788229
-0.9020188490497034,-2.553053681050436,-1.3516600767718714,-0.760104004536764,-1.5823004881488245,-3.061894480382101
-0.9007723967181605,-2.5527542273150843,-1.3522360960589808,-0.7598164717303675,-1.5821922461139124,-3.0631397406207483
-0.8982675711261194,-2.552239243184225,-1.3534958998309534,-0.7591336409198206,-1.5823844114886683,-3.0656304995166224
-0.8969257513629358,-2.5519755522357386,-1.354095760975973,-0.7587974707232874,-1.5824082533465784,-3.0669236818896692
-0.8956792990313929,-2.551664177571432,-1.3547313849078577,-0.7585333029376429,-1.5826237837420862,-3.068180863057272
-0.8943370024310511,-2.5514124075519007,-1.355391804371969,-0.7582696119891565,-1.582480255757467,-3.069498364125387
-0.8917725721942347,-2.5508368651019495,-1.3566039244281214,-0.7576220671283167,-1.5826600233661097,-3.0720608870135706
-0.890454117451803,-2.5505617300616663,-1.3572633902179163,-0.7572386900531214,-1.5826476255999964,-3.0733664671527308
-0.889172379170553,-2.550286118184225,-1.3579352537738245,-0.7568791548358362,-1.5828035513507288,-3.074695412312643
-0.8877938429461878,-2.5500105063067835,-1.3585594336139124,-0.7566393057452601,-1.5826719442950647,-3.075905148183004
-0.8851454893695276,-2.549483601246969,-1.3598311583148401,-0.755955998097555,-1.5829475561725062,-3.0785635153399866
-0.8838508764850062,-2.5492079893695276,-1.3604429403888147,-0.7555716673480433,-1.5828874746905726,-3.0798569361316126
-0.8825209776507776,-2.5489442984210413,-1.361091438923971,-0.7552602926837366,-1.5830672422992151,-3.081222120915548
-0.8812149206744593,-2.5486686865436,-1.3617146650897425,-0.7549245993243616,-1.5829594771014612,-3.0824552218066614
-0.8785665670977991,-2.5480812231646937,-1.3629868666278284,-0.7542651335345667,-1.5830910841571253,-3.085090223942892
-0.8772366682635706,-2.5478180090533655,-1.363586727772848,-0.7539175192462366,-1.583163086568014,-3.086419407521383
-0.8759062925921839,-2.547518555318014,-1.3641865889178675,-0.7535937468158167,-1.5833190123187464,-3.08768874803652
-0.874671761189596,-2.5472429434405726,-1.3648102919207972,-0.7532818953143519,-1.5831993261920374,-3.0889459292041224
-0.8721197287188929,-2.5466440359698694,-1.3660224119769495,-0.7526467482196253,-1.58337909380068,-3.0914610067950647
-0.8708489576922815,-2.546356503163473,-1.3666585127459925,-0.7522390524493616,-1.5835588614093226,-3.0927181879626673
-0.8695667425738733,-2.546020809804098,-1.3672102133380335,-0.7519386450396937,-1.5836308638202112,-3.093975607548849
-0.8683088461505335,-2.5457571188556116,-1.367821995412008,-0.751627270375387,-1.583607021962301,-3.0951970259295862
-0.8658636252032679,-2.5451701323138636,-1.3690341154681605,-0.7510398069964808,-1.5837748686419886,-3.097628418599264
-0.864593807850973,-2.5449069182025355,-1.3696101347552698,-0.7506559530841272,-1.5839665571795862,-3.0988977591144007
-0.8633711973773401,-2.5446069876300257,-1.3702099959002894,-0.7503207365619105,-1.5839183966266077,-3.100118939076559
-0.8621252218829554,-2.5443432966815394,-1.3708213011371058,-0.7500208059894007,-1.5840266386615198,-3.1013525168048304
-0.8596323172198694,-2.5437687079059046,-1.3719013373004358,-0.7494567076312464,-1.5841100851642054,-3.103771511708395
-0.8584101835833948,-2.5435169378863733,-1.3725011984454554,-0.7491334120379847,-1.5842540899859827,-3.10508901277651
-0.8571761290179651,-2.5432890097247522,-1.3730652968036097,-0.7488096396075647,-1.584182087575094,-3.1063581148730677
-0.8559654394732874,-2.5430615584002894,-1.3736174742328089,-0.7484620253192347,-1.5843737761126917,-3.107579533253805
-0.8534610907184046,-2.542546097432272,-1.3748047987567347,-0.7479227224933069,-1.5843141714679163,-3.110058609639303
-0.8522270361529749,-2.5422828833209437,-1.375368897114889,-0.7476585547076624,-1.584517780934469,-3.111244503651754
-0.8510039488421839,-2.541995350514547,-1.3759568373309534,-0.7473104635821741,-1.5843856970416468,-3.112525288258688
-0.8497222105609339,-2.541767422352926,-1.3765204588519495,-0.7469990889178675,-1.5844939390765589,-3.1137707869159144
-0.8472178618060511,-2.5412166754352015,-1.377648655568258,-0.7463634649859827,-1.5845654646502894,-3.116225783024923
-0.8459833304034632,-2.5409892241107386,-1.3782723585711878,-0.7460520903216761,-1.5847333113299769,-3.1174233595477503
-0.8447373549090784,-2.5406773726092737,-1.3789084593402308,-0.7457163969623011,-1.5846737066852015,-3.118681017552511
-0.8435266653644007,-2.540449921284811,-1.3794601599322718,-0.7453683058368128,-1.5847933928119105,-3.1199021975146692
-0.8410099188434046,-2.5398505369769495,-1.3806965986834925,-0.7448046843158167,-1.5847695509540003,-3.1223931948291224
-0.8397639433490198,-2.5395873228656214,-1.3813079039203089,-0.7445290724383753,-1.5849970022784632,-3.1235788504229944
-0.8386138121234339,-2.5393713156329554,-1.3819201628314417,-0.7442415396319788,-1.584961239491598,-3.1248839537249964
-0.8373315970050257,-2.539083782826559,-1.3825085798846644,-0.743810002003805,-1.585092846547262,-3.126117531453268
-0.8347552458392542,-2.5385687986956995,-1.3837197462665003,-0.7431743780719202,-1.585092846547262,-3.1287158171283167
-0.8334606329547327,-2.538245503102438,-1.3843558470355433,-0.7428501288043421,-1.5853446165667933,-3.130021397267477
-0.8321908156024378,-2.5380056540118616,-1.3849194685565394,-0.7425387541400355,-1.5852606932269495,-3.131219212208883
-0.8309086004840296,-2.537718121205465,-1.3855555693255823,-0.7422030607806605,-1.585416618977682,-3.1325603167163294
-0.8284156958209437,-2.5372265020953577,-1.386719051991598,-0.7415555159198206,-1.5855606237994593,-3.135110918675558
-0.8271096388446253,-2.5369632879840296,-1.3873313109027308,-0.7412555853473108,-1.585656468068258,-3.1363802591906946
-0.8257916609393519,-2.5366995970355433,-1.3879430929767054,-0.7409442106830042,-1.5856440703021448,-3.137601915990011
-0.8244975248919886,-2.536435906087057,-1.3885787169085901,-0.7406323591815394,-1.585871998463766,-3.138895336781637
-0.8219688574420374,-2.535945240651266,-1.3898027578936976,-0.7399609724627894,-1.5859559218036097,-3.1414342562304896
-0.8207224051104944,-2.535645310078756,-1.3904030958758753,-0.7396372000323694,-1.5859797636615198,-3.1427157560931605
-0.8194406668292444,-2.5353696982013147,-1.3910744825946253,-0.7393134276019495,-1.5859678427325647,-3.143984619771139
-0.8181822935687464,-2.535058323537008,-1.3916862646686,-0.7390015761004847,-1.5861476103412073,-3.1452181974994105
-0.8156059424029749,-2.5345309416400355,-1.3928983847247522,-0.7382944265948694,-1.586231533681051,-3.147780958806173
-0.8143118063556116,-2.5342796484576624,-1.3935464064227503,-0.7380302588092249,-1.5862792173968714,-3.149038616810934
-0.813089672719137,-2.5339563528644007,-1.394182030354635,-0.7377546469317835,-1.5861957708941858,-3.150224272404806
-0.811843220387594,-2.533656899129049,-1.394721810017721,-0.7374551931964319,-1.5864351431476038,-3.1514459292041224
-0.8093388716327112,-2.5331056753741663,-1.3960297743426722,-0.7367714087115687,-1.5864470640765589,-3.153936211262838
-0.8080323378192347,-2.532830063496725,-1.3966057936297815,-0.7364237944232386,-1.586555306111471,-3.1551340262042444
-0.8068106810199183,-2.5325425306903284,-1.3971813360797327,-0.7361720244037073,-1.5864952246295374,-3.156355683003561
-0.8055642286883753,-2.532278839741842,-1.397745434437887,-0.7358601729022425,-1.5867231527911585,-3.1576367060290735
-0.8029878775226038,-2.5317276159869593,-1.3989337126361292,-0.735236946736471,-1.5867231527911585,-3.1599963347064417
-0.801741902028219,-2.531452004109518,-1.3995335737811487,-0.7348535696612757,-1.5868428389178675,-3.1613014380084437
-0.8004954496966761,-2.531200710927145,-1.4001215139972132,-0.7345770041095179,-1.586771313344137,-3.1625948588000696
-0.799225155507223,-2.5309370199786585,-1.4007089773761194,-0.7342775503741663,-1.5869987646686,-3.163816515599386
-0.7967446486102503,-2.530410114918844,-1.4018610159503382,-0.7336662451373499,-1.5871065298663538,-3.166295115147726
-0.7954743544207972,-2.530170265828268,-1.4024727980243128,-0.7332943121539515,-1.5871065298663538,-3.167600695286886
-0.7942045370685022,-2.5299304167376917,-1.403048340474264,-0.7329705397235315,-1.5871785322772425,-3.1688101927386683
-0.7929466406451624,-2.5296548048602503,-1.4036486784564417,-0.7326949278460901,-1.5872862974749964,-3.170103375111715
-0.7904537359820765,-2.5291035811053675,-1.4049204031573694,-0.7320593039142054,-1.5874422232257288,-3.1725826899157923
-0.7892072836505335,-2.5288518110858362,-1.4054845015155237,-0.7316997686969202,-1.5873702208148401,-3.173863951359884
-0.7880213896380823,-2.5285890738116663,-1.4061082045184534,-0.7313640753375452,-1.5875023047076624,-3.1751335302936
-0.7867749373065394,-2.528313461934225,-1.4066718260394495,-0.7310522238360804,-1.587574307118551,-3.1763671080218714
-0.7842949072467249,-2.527738396321432,-1.4078839460956019,-0.7305129210101526,-1.5877059141742151,-3.178833548222677
-0.7829888502704065,-2.527510468159811,-1.4084957281695765,-0.7301767508136194,-1.5876458326922815,-3.1801510492907923
-0.7816947142230433,-2.5272229353534144,-1.409083668385641,-0.7298052946673792,-1.5877297560321253,-3.181408230458395
-0.7804606596576136,-2.526947323475973,-1.4096835295306605,-0.7294815222369593,-1.5878856817828577,-3.1826298872577112
-0.7779677549945276,-2.5264199415790003,-1.410835091267721,-0.728894058858053,-1.5879815260516565,-3.1851330439196985
-0.7767213026629847,-2.526144806538717,-1.4114835898028772,-0.7285941282855433,-1.5878976027118128,-3.186378304158346
-0.775487248097555,-2.525893513356344,-1.412022892628805,-0.7282345930682581,-1.58801776567568,-3.187671963368551
-0.7742050329791468,-2.5255935827838343,-1.4126232306109827,-0.7279227415667933,-1.5881012121783655,-3.1889055410968226
-0.7716286818133753,-2.52511436143984,-1.413858715687887,-0.7273710409747522,-1.5882213751422327,-3.191540304814474
-0.7703951040851038,-2.5248988310443323,-1.414398495350973,-0.7270477453814905,-1.5881851355182093,-3.1927853266345423
-0.7691367308246058,-2.524611298237936,-1.415046517048971,-0.7267358938800257,-1.588280979787008,-3.194042984639303
-0.7678783575641077,-2.5243352095233362,-1.4156582991229456,-0.7264006773578089,-1.5883410612689417,-3.195324484501974
-0.7653263250934046,-2.523808304463522,-1.4168465773211878,-0.7257526556598108,-1.5885446707354944,-3.197839323674337
-0.7640441099749964,-2.5235207716571253,-1.4174583593951624,-0.7254169623004358,-1.5884130636798304,-3.199132506047384
-0.7627618948565882,-2.523233715687887,-1.4180939833270472,-0.7250688711749476,-1.5886405150042933,-3.200306240712301
-0.7615035215960901,-2.523017708455221,-1.4186938444720667,-0.7247336546527308,-1.5886405150042933,-3.201611344014303
-0.7589276472674769,-2.522442642842428,-1.4199536482440394,-0.7240985075580042,-1.5888326803790491,-3.2041261831866663
-0.7576935927020472,-2.5221551100360315,-1.4205778280841272,-0.7238577047931116,-1.588736359273092,-3.205359760914938
-0.7563751379596155,-2.5218313376056116,-1.4211896101581019,-0.723546330128805,-1.588940445576803,-3.2066293398486536
-0.7551892439471644,-2.5215800444232386,-1.4217775503741663,-0.7232225576983851,-1.5889161268817347,-3.2078989187823694
-0.7525771299945276,-2.521040741597311,-1.4229772726642054,-0.72253925005068,-1.5891082922564905,-3.2103899160968226
-0.7513068358050745,-2.5207412878619593,-1.423577133809225,-0.7222397963153284,-1.5890839735614222,-3.211635414754049
-0.7500608603106897,-2.5204418341266077,-1.4241645971881312,-0.7219517866717737,-1.5892637411700647,-3.212904755269186
-0.7488263289081019,-2.520142380391256,-1.4248006979571741,-0.7216036955462855,-1.589179817830221,-3.214102331792013
-0.746310059224264,-2.5195792357074183,-1.4259889761554163,-0.7209208647357386,-1.5893357435809534,-3.216569725667135
-0.7450521628009241,-2.519303623829977,-1.4265406767474573,-0.7206571737872522,-1.5894797484027308,-3.2177909056292933
-0.7438300291644495,-2.519052330647604,-1.4271767775165003,-0.7203329245196741,-1.5895393530475062,-3.2189646402942103
-0.7425716559039515,-2.5187647978412073,-1.427788559590475,-0.7200334707843226,-1.5894916693316858,-3.220222298298971
-0.7400434652911585,-2.5182731787311,-1.4290240446673792,-0.719302002583639,-1.5896113554583948,-3.22270113626589
-0.7387731711017054,-2.5179975668536585,-1.4296119848834437,-0.718978230153219,-1.5897796789752405,-3.2239585558520716
-0.7375152746783655,-2.5177343527423304,-1.4302118460284632,-0.7187026182757776,-1.589839283620016,-3.2252402941333216
-0.7362688223468226,-2.517434899006979,-1.4308598677264612,-0.7183907667743128,-1.5898273626910608,-3.2265098730670374
-0.7337048689471644,-2.5169437567340296,-1.4320715109454554,-0.7176712195025843,-1.5899112860309046,-3.2291205565081995
-0.7323744932757776,-2.516668144856588,-1.4327071348773401,-0.7173951307879847,-1.590079132710592,-3.2304020563708704
-0.7310808340655726,-2.5163567701922815,-1.4332831541644495,-0.7170956770526331,-1.5901392141925257,-3.23175555864443
-0.7298105398761194,-2.5161050001727503,-1.4338954130755823,-0.7168558279620569,-1.590067211781637,-3.2330246607409876
-0.7272818724261683,-2.515517536793844,-1.4351070562945765,-0.7161367575274866,-1.590174976979391,-3.2356234232531946
-0.7259882132159632,-2.5152300039874476,-1.4356349150287073,-0.7157891432391565,-1.590402905141012,-3.236976925526754
-0.7246697584735315,-2.5149429480182093,-1.4362590948687952,-0.7155130545245569,-1.5903666655169886,-3.2381985823260706
-0.7234118620501917,-2.514679733906881,-1.4368584791766565,-0.7151654402362269,-1.5903666655169886,-3.2394917646991175
-0.7207878271685999,-2.51408034959902,-1.4379985968219202,-0.714517895375387,-1.5904625097857874,-3.24205452600588
-0.7195537726031702,-2.5138285795794886,-1.43862229982485,-0.7141702810870569,-1.590654198323385,-3.2433000246631067
-0.7182357946978968,-2.513517204915182,-1.4392221609698694,-0.7138345877276819,-1.5906065146075647,-3.2445336023913782
-0.7169893423663538,-2.5132535139666956,-1.439822022114889,-0.7135828177081507,-1.5906785170184534,-3.245791260396139
-0.7145212332354944,-2.512749973927633,-1.4409974257098597,-0.7129228750811976,-1.5907743612872522,-3.2482462565051478
-0.7132871786700647,-2.5124505201922815,-1.4416454474078577,-0.7125752607928675,-1.5908821264850062,-3.2495396772967737
-0.7120526472674769,-2.512235466633932,-1.442221466694967,-0.7122519651996058,-1.5910137335406702,-3.250748936329977
-0.7108305136310022,-2.5119717756854456,-1.4427970091449183,-0.7119997183429163,-1.5910137335406702,-3.2519827524768274
-0.7083624045001429,-2.511456314717428,-1.444033447896139,-0.7113526503192347,-1.5910857359515589,-3.2544623056994837
-0.7071521917926233,-2.5112527052508753,-1.4446089903460901,-0.7109926382647913,-1.5912178198443812,-3.255707565938131
-0.7059419790851038,-2.510977093373434,-1.4451850096331995,-0.7107046286212366,-1.5911935011493128,-3.256881300603048
-0.7047556082354944,-2.5107134024249476,-1.4457972685443323,-0.7104290167437952,-1.5911935011493128,-3.25813872018923
-0.7023356596576136,-2.5102227369891565,-1.4469364325152796,-0.7098420302020472,-1.5912655035602015,-3.26052171388735
-0.701125446950094,-2.509934727345602,-1.4474886099444788,-0.7095659414874476,-1.59131366411318,-3.261719528828756
-0.6999271551715296,-2.5096591154681605,-1.4480403105365198,-0.7091944853412073,-1.5914571920977991,-3.2629531065570276
-0.6987169424640101,-2.5093839804278772,-1.4486401716815394,-0.7088826338397425,-1.5913975874530237,-3.2641387621508997
-0.6962845961200159,-2.5088565985309046,-1.4497559706317347,-0.708294693623678,-1.5915053526507776,-3.266533676777975
-0.6950743834124964,-2.508580986653463,-1.4503558317767542,-0.7079833189593714,-1.5915654341327112,-3.2677672545062464
-0.6938284079181116,-2.5082815329181116,-1.4509556929217737,-0.7076476255999964,-1.5917452017413538,-3.2689409891711634
-0.6926658789264124,-2.507994000111715,-1.451531712208883,-0.7073600927935999,-1.5916250387774866,-3.27016264597048
-0.6902096907245081,-2.5074670950519007,-1.452719513569967,-0.7067959944354456,-1.5918410460101526,-3.2726295630084437
-0.6889279524432581,-2.507179085408346,-1.4532955328570765,-0.7065084616290491,-1.591888729725973,-3.27385121980776
-0.6877415815936487,-2.506915871297018,-1.453942600880758,-0.7062209288226526,-1.5919964949237269,-3.2750967184649866
-0.6865194479571741,-2.5066764990436,-1.4545071760760706,-0.7058847586261194,-1.5919964949237269,-3.276222530995504
-0.6840389410602015,-2.506137196217672,-1.4557183424579065,-0.7052138487445276,-1.5921762625323694,-3.278677765523092
-0.6828411261187952,-2.505873505269186,-1.4563067595111292,-0.7049019972430628,-1.5922005812274378,-3.279839579259054
-0.6815827528582972,-2.505646053944723,-1.4568946997271937,-0.704602066670553,-1.592344109212057,-3.281024996434347
-0.6803367773639124,-2.505430523549215,-1.457470719014303,-0.7042782942401331,-1.592367951069967,-3.2822466532336634
-0.6779168287860315,-2.5049150625811976,-1.458670441304342,-0.7036193052874964,-1.592560116444723,-3.2846060434924524
-0.6766822973834437,-2.5046871344195765,-1.459198300038473,-0.7034028212176722,-1.5926078001605433,-3.2858036200152796
-0.6755083242999476,-2.50442344347109,-1.4597738424884241,-0.7031515280352991,-1.5927518049823206,-3.2870011965381067
-0.6743457953082483,-2.5042079130755823,-1.460301701222555,-0.7028878370868128,-1.5927518049823206,-3.288187090550558
-0.6721056143390101,-2.5037410894977015,-1.4613454977618616,-0.7022159735309046,-1.592919651662008,-3.2904744783984583
-0.670966927205221,-2.50344163576235,-1.461909596120016,-0.7019522825824183,-1.592907730733053,-3.291612211857931
-0.6699007193194788,-2.5032499472247522,-1.462376896535055,-0.7016528288470667,-1.5930398146258753,-3.292690102254049
-0.668774429951803,-2.5029504934894007,-1.4628813902484339,-0.7014129797564905,-1.5929797331439417,-3.2938037554370325
-0.6667617003070276,-2.502507034932272,-1.4638531843768519,-0.7008493582354944,-1.5930398146258753,-3.2958276907550257
-0.6657188574420374,-2.5022671858416956,-1.4643214384662073,-0.7006095091449183,-1.5933035055743616,-3.296786133443014
-0.6647728125201624,-2.502099339162008,-1.464752499257223,-0.7003935019122522,-1.5932195822345179,-3.29773193994631
-0.663910214100973,-2.5019076506244105,-1.4651487509356897,-0.700141731892721,-1.593231503163473,-3.2986541430102747
-0.6621487776385706,-2.5015128294574183,-1.4659765402423304,-0.6997221151935022,-1.593255345021383,-3.300427023564474
-0.6613338629352015,-2.5013449827777308,-1.4664323965655726,-0.69959003130068,-1.5934231917010706,-3.3012171427356165
-0.6605551878558558,-2.5012014547931116,-1.466792408620016,-0.6993983427630823,-1.5933874289142054,-3.301959816609518
-0.6598241964923304,-2.501045529042379,-1.4671524206744593,-0.6992066542254847,-1.5934351126300257,-3.3027384916888636
-0.6583383719073694,-2.5007460753070276,-1.4678962866412562,-0.6987512747394007,-1.5934832731830042,-3.3041873613940638
-0.6575716177569788,-2.5006139914142054,-1.468220059071676,-0.6985233465777796,-1.5936268011676233,-3.3048461119281214
-0.6568887869464319,-2.5004823843585413,-1.468520466481344,-0.698378864918844,-1.5935428778277796,-3.3055763880359095
-0.6562297979937952,-2.500338379536764,-1.4688800016986292,-0.6981990973102015,-1.5936029593097132,-3.3061872164355677
-0.6549480597125452,-2.5000866095172327,-1.469492260609762,-0.6979234854327601,-1.593591038380758,-3.3074689547168177
-0.6543248335467737,-2.4999550024615687,-1.4697797934161585,-0.6977799574481409,-1.5937708059894007,-3.308079783116476
-0.6537259260760706,-2.4998233954059046,-1.4700797239886683,-0.6976121107684534,-1.593698803578512,-3.3087144533740442
-0.6531146208392542,-2.4997275511371058,-1.470391575490133,-0.6974442640887659,-1.5937345663653772,-3.309373203908102
-0.6519044081317347,-2.4994400183307093,-1.4709795157061976,-0.6971443335162562,-1.5937588850604456,-3.3106189409839075
-0.6512935797320765,-2.49929649034609,-1.4712918440448206,-0.6968329588519495,-1.5938666502581995,-3.3112295309649866
-0.6506584326373499,-2.499164406453268,-1.4715550581561487,-0.6968205610858362,-1.5938428084002894,-3.311876360570089
-0.6499870459185999,-2.499068562184469,-1.4718554655658167,-0.6966288725482386,-1.5939386526690882,-3.3125231901751917
-0.6486695448504847,-2.498720947896139,-1.4724791685687464,-0.6963895002948206,-1.5939024130450647,-3.313840452824728
-0.6479986349688929,-2.49860126176943,-1.4728029409991663,-0.6962693373309534,-1.5940583387957972,-3.3145111242877405
-0.6473272482501429,-2.498469654713766,-1.473079029713766,-0.696113411580221,-1.5939982573138636,-3.3151100317584437
-0.6466324965106409,-2.4982779661761683,-1.4733908812152308,-0.6959093252765101,-1.5942381064044397,-3.3157926241504114
-0.6452549139605921,-2.498002354298727,-1.4740865866290491,-0.6955497900592249,-1.5942142645465296,-3.317157808934347
-0.644571606312887,-2.4978225866900843,-1.4743388334857386,-0.6953581015216272,-1.59426194826235,-3.317876402531759
-0.6438887755023401,-2.4977029005633753,-1.4746869246112269,-0.6951420942889612,-1.5941780249225062,-3.31857139268984
-0.6432536284076136,-2.4975231329547327,-1.4750226179706019,-0.6949985663043421,-1.5943577925311487,-3.3192418257342737
-0.6418278853045862,-2.497223679219381,-1.475682560597555,-0.6946986357318323,-1.5943458716021937,-3.320535484944479
-0.6411808172809046,-2.497103993092672,-1.4759944120990198,-0.6945427099810999,-1.5943458716021937,-3.3212299982654017
-0.640510384236471,-2.4969361464129847,-1.4763062636004847,-0.6943867842303675,-1.5943101088153284,-3.3219123522387903
-0.639803711568014,-2.4967921415912073,-1.4766061941729944,-0.6942427794085901,-1.5944417158709925,-3.322595183049337
-0.6384852568255823,-2.4964926878558558,-1.4773138205157679,-0.6938589254962366,-1.5944417158709925,-3.323864761983053
-0.6378024260150355,-2.4963486830340784,-1.4775779883014124,-0.6936433951007288,-1.5944536367999476,-3.3245230356799524
-0.6371315161334437,-2.4962051550494593,-1.4778898398028772,-0.6935470739947718,-1.594382111226217,-3.3251338640796106
-0.6364725271808069,-2.4960854689227503,-1.4782255331622522,-0.693343464528219,-1.5945137182818812,-3.325780693684713
-0.6352980772601526,-2.4957740942584437,-1.4787777105914515,-0.6930559317218226,-1.594477955495016,-3.327050749455587
-0.634747330342428,-2.4956663290606897,-1.4790657202350062,-0.6929000059710901,-1.5946334044085901,-3.3275895754443567
-0.6341598669635218,-2.4955347220050257,-1.4794133345233362,-0.6928280035602015,-1.5945137182818812,-3.32818848291506
-0.633620564137594,-2.495426956807272,-1.479605499898092,-0.6926363150226038,-1.594621483479635,-3.3287633101092737
-0.6325667540179651,-2.4952109495746058,-1.4801338354693812,-0.692420784627096,-1.5945737997638147,-3.3298171202289026
-0.6320393721209925,-2.4950793425189417,-1.4804213682757776,-0.6922887007342737,-1.5947416464435022,-3.330332104359762
-0.631500546132223,-2.494995419179098,-1.4806492964373987,-0.6921799818622034,-1.5946696440326136,-3.3307271639453333
-0.6310203711139124,-2.494875733052389,-1.4809253851519983,-0.692000691090719,-1.5946815649615687,-3.331266228352682
-0.6301339308368128,-2.4946959654437464,-1.481321159993307,-0.6917126814471644,-1.5946577231036585,-3.3322721163379114
-0.6296194235431116,-2.494575802479879,-1.4815729300128382,-0.691653076802389,-1.5948250929461878,-3.3327749411212366
-0.629211727772848,-2.494516197835104,-1.4818008581744593,-0.6914852301227015,-1.5947173277484339,-3.3332183996783655
-0.6288045088397425,-2.494420353566305,-1.4820168654071253,-0.6914852301227015,-1.5947416464435022,-3.3336618582354944
-0.6279771963702601,-2.494300190602438,-1.4824126402484339,-0.691317383443014,-1.5947774092303675,-3.334451977406637
-0.6275823752032679,-2.4941685835467737,-1.4825928846942347,-0.6911733786212366,-1.5948970953570765,-3.334811512623922
-0.627150837575094,-2.49408466020693,-1.4827969709979456,-0.6910532156573694,-1.5949214140521448,-3.3352306524859827
-0.6268037001239222,-2.4940126577960413,-1.4829524199115198,-0.6910532156573694,-1.5948613325702112,-3.3355658690081995
-0.6260846296893519,-2.493869129811422,-1.4832404295550745,-0.6908376852618616,-1.5949090162860315,-3.3362486998187464
-0.6257494131671351,-2.493772808705465,-1.4834087530719202,-0.6907299200641077,-1.5949810186969202,-3.3365958372699183
-0.6254256407367151,-2.4937132040606897,-1.483588997517721,-0.6905620733844202,-1.5950411001788538,-3.3369553724872034
-0.6250899473773401,-2.493653122578756,-1.4836848417865198,-0.6905258337603968,-1.5949333349811,-3.337266508732931
-0.6244433561908167,-2.4935453573810022,-1.4839842955218714,-0.6903584639178675,-1.5950411001788538,-3.337841335927145
-0.6241796652423304,-2.493485752736227,-1.4841530958758753,-0.6902263800250452,-1.5951131025897425,-3.338093105946676
-0.6238921324359339,-2.4934256712542933,-1.4842847029315394,-0.6902383009540003,-1.5951488653766077,-3.3384161631213587
-0.6236527601825159,-2.493401829396383,-1.4843805472003382,-0.69019061723818,-1.5950291792498987,-3.338656012211935
-0.6231377760516565,-2.493282143269674,-1.4846800009356897,-0.6900580565081995,-1.5951131025897425,-3.3392189184771937
-0.6228378454791468,-2.4932220617877405,-1.4847524801837366,-0.6899984518634241,-1.5951607863055628,-3.339386288319723
-0.6226218382464808,-2.4931862990008753,-1.4848602453814905,-0.6899264494525355,-1.5952566305743616,-3.3396499792682093
-0.622418228779928,-2.493150059376852,-1.4850404898272913,-0.6898663679706019,-1.5951607863055628,-3.339877192174093
-0.6220110098468226,-2.4930904547320765,-1.4851964155780237,-0.6897462050067347,-1.5952685515033167,-3.3402965704547327
-0.6217835585223597,-2.493018929158346,-1.4852803389178675,-0.689890209828512,-1.5953047911273401,-3.3405118624316614
-0.6215675512896937,-2.493007008229391,-1.4853523413287562,-0.6896026770221155,-1.5953643957721155,-3.340692106877462
-0.6214836279498499,-2.4929469267474573,-1.485448185597555,-0.6897700468646448,-1.5952566305743616,-3.34088379541506
-0.621136490498678,-2.492910687123434,-1.4855802694903772,-0.689554516469137,-1.5953405539142054,-3.341147247944967
-0.621004883443014,-2.4928630034076136,-1.4856041113482874,-0.6896985212909144,-1.595400635396139,-3.341243092213766
-0.6208847204791468,-2.4928391615497034,-1.4857118765460413,-0.6894105116473597,-1.5954363981830042,-3.3414347807513636
-0.6207650343524378,-2.4928272406207483,-1.4857476393329065,-0.6896503607379358,-1.5953047911273401,-3.341494385396139
-0.6205971876727503,-2.49277908006777,-1.4858077208148401,-0.6894105116473597,-1.5953767935382288,-3.3416860739337366
-0.6205132643329065,-2.4927552382098597,-1.48578387895693,-0.6895664373980921,-1.595400635396139,-3.3417938391314905
-0.6205013434039515,-2.4927552382098597,-1.4858196417437952,-0.6892908255206507,-1.5954483191119593,-3.3418059984790247
-0.6204894224749964,-2.4927671591388147,-1.4858196417437952,-0.6895187536822718,-1.5953286329852503,-3.3417938391314905
-0.6205132643329065,-2.4927552382098597,-1.4857361952411097,-0.689434830342428,-1.595412556325094,-3.341745916997091
-0.6205614248858851,-2.4927671591388147,-1.48578387895693,-0.6893866697894495,-1.5954845587359827,-3.3417819182025355
-0.6205132643329065,-2.4927671591388147,-1.485771958027975,-0.6893628279315394,-1.5955084005938929,-3.3417938391314905
-0.6205375830279749,-2.4927671591388147,-1.485795799885885,-0.689422909413473,-1.5955084005938929,-3.3417938391314905
-0.6205251852618616,-2.4927433172809046,-1.485795799885885,-0.689422909413473,-1.5954845587359827,-3.3417938391314905
-0.6205251852618616,-2.4927671591388147,-1.4857600370990198,-0.689422909413473,-1.5954845587359827,-3.3418059984790247
-0.6205132643329065,-2.4927433172809046,-1.485771958027975,-0.6894105116473597,-1.5954607168780726,-3.34181791940798
-0.6205375830279749,-2.4927309195147913,-1.4857600370990198,-0.6894105116473597,-1.5954964796649378,-3.3417580763446253
-0.6205013434039515,-2.492791000996725,-1.4857600370990198,-0.6893866697894495,-1.5954964796649378,-3.3417699972735804
-0.6205251852618616,-2.4927433172809046,-1.4858077208148401,-0.6893985907184046,-1.5954726378070276,-3.3417699972735804
-0.6205013434039515,-2.4927671591388147,-1.4858077208148401,-0.6894105116473597,-1.5954726378070276,-3.3417819182025355
-0.6205375830279749,-2.4927433172809046,-1.4857600370990198,-0.6894105116473597,-1.5954845587359827,-3.3417819182025355
-0.6205251852618616,-2.4927309195147913,-1.485771958027975,-0.6894105116473597,-1.5954483191119593,-3.3417699972735804
-0.6205132643329065,-2.4927552382098597,-1.48578387895693,-0.689422909413473,-1.5954483191119593,-3.3417580763446253
-0.6205251852618616,-2.4927189985858362,-1.4858077208148401,-0.6894105116473597,-1.5955084005938929,-3.3417699972735804
-0.6205375830279749,-2.4927189985858362,-1.48578387895693,-0.6893866697894495,-1.5954363981830042,-3.3417699972735804
-0.6205251852618616,-2.4927309195147913,-1.485771958027975,-0.6893985907184046,-1.5954726378070276,-3.341733996068136
-0.6205013434039515,-2.492707077656881,-1.4858077208148401,-0.6893985907184046,-1.5954726378070276,-3.341745916997091
-0.6205375830279749,-2.492707077656881,-1.4858077208148401,-0.6893866697894495,-1.5954607168780726,-3.3417819182025355
-0.6205375830279749,-2.4927189985858362,-1.48578387895693,-0.6893628279315394,-1.5954845587359827,-3.3417819182025355
-0.6205132643329065,-2.492707077656881,-1.485795799885885,-0.6893509070025843,-1.5954964796649378,-3.3417699972735804
-0.6205251852618616,-2.492707077656881,-1.4857600370990198,-0.6893747488604944,-1.5954726378070276,-3.3417580763446253
-0.6205013434039515,-2.492707077656881,-1.4857476393329065,-0.6893747488604944,-1.5954607168780726,-3.3417819182025355
-0.6205132643329065,-2.4927189985858362,-1.485795799885885,-0.6893628279315394,-1.5954607168780726,-3.341722075139181
-0.6206215063678187,-2.4927309195147913,-1.4856880346881312,-0.6894105116473597,-1.5954607168780726,-3.341733996068136
-0.6206091086017054,-2.492695156727926,-1.4857118765460413,-0.6893985907184046,-1.595532242451803,-3.3416860739337366
-0.6206453482257288,-2.492707077656881,-1.485676113759176,-0.6894586722003382,-1.5954964796649378,-3.3415542284594935
-0.6207650343524378,-2.492707077656881,-1.4855921904193323,-0.6894467512713831,-1.5954845587359827,-3.3415661493884485
-0.6209090391742151,-2.492707077656881,-1.4855559507953089,-0.6895425955401819,-1.5955084005938929,-3.341362778340475
-0.621004883443014,-2.492707077656881,-1.4854720274554651,-0.6895068327533167,-1.595544163380758,-3.3412070910083216
-0.6211603323565882,-2.4927671591388147,-1.4854124228106897,-0.6896145979510706,-1.5954726378070276,-3.3410752455340784
-0.6213157812701624,-2.4927671591388147,-1.485340420399801,-0.6896503607379358,-1.5954726378070276,-3.3409674803363245
-0.6216633955584925,-2.492814842854635,-1.4851363340960901,-0.6896861235248011,-1.5954964796649378,-3.3407281080829065
-0.62183124223818,-2.492814842854635,-1.4850524107562464,-0.6897104422198694,-1.5954726378070276,-3.3405843416797083
-0.622047249470846,-2.4928749243365687,-1.4849203268634241,-0.6897700468646448,-1.5955084005938929,-3.340332333241598
-0.6222742239581507,-2.492898766194479,-1.4847524801837366,-0.6898062864886683,-1.5954845587359827,-3.3401768843280237
-0.6227901617633265,-2.4929707686053675,-1.4845245520221155,-0.6899264494525355,-1.5954483191119593,-3.339613978062765
-0.623077694569723,-2.4930785338031214,-1.4843924681292933,-0.6899264494525355,-1.5954845587359827,-3.3393262068377894
-0.6233647505389612,-2.493150059376852,-1.4842727820025843,-0.6900823752032679,-1.5954483191119593,-3.3389790693866175
-0.6236766020404261,-2.4932101408587855,-1.4841044584857386,-0.689986530934469,-1.5954607168780726,-3.338715378438131
