youngblood1998/my_ws/src/ur5_platform/ur5_platform_manipulation/wzq/test4_13_4.csv
j0,j1,j2,j3,j4,j5
-0.9016717115985315,-2.5668681303607386,-1.3282507101642054,-0.7727540175067347,-1.5928719679461878,-3.06016976038088
-0.9004128615008753,-2.566568676625387,-1.3288872877704065,-0.7724664847003382,-1.5929439703570765,-3.0613675753222864
-0.8990948835956019,-2.5662687460528772,-1.3295472303973597,-0.7721903959857386,-1.5930755774127405,-3.062636439000265
-0.8977883497821253,-2.565993134175436,-1.3302186171161097,-0.7718547026263636,-1.5929916540728968,-3.063942019139425
-0.8964698950396937,-2.565669838582174,-1.3308785597430628,-0.7714708487140101,-1.5932195822345179,-3.065211598073141
-0.8939054648028772,-2.565082375203268,-1.332186524068014,-0.7707517782794397,-1.593255345021383,-3.067845646535055
-0.8924797216998499,-2.5648067633258265,-1.3328707853900355,-0.7704642454730433,-1.593351189290182,-3.06913930574526
-0.8911731878863733,-2.5644477049456995,-1.3335183302508753,-0.770116154347555,-1.593243424092428,-3.070432488118307
-0.889867130910055,-2.5641725699054163,-1.3341782728778284,-0.7697323004352015,-1.5934589544879358,-3.0716896692859095
-0.8872550169574183,-2.563597027455465,-1.335426155720846,-0.7690847555743616,-1.5934231917010706,-3.0742884317981165
-0.8859122435199183,-2.5633214155780237,-1.3360980192767542,-0.7687495390521448,-1.5935309568988245,-3.075533930455343
-0.8846424261676233,-2.562986199055807,-1.3367341200457972,-0.76843768755068,-1.593470875416891,-3.0768867174731653
-0.8833001295672815,-2.5627463499652308,-1.3373578230487269,-0.7680776754962366,-1.5936749617206019,-3.078144375477926
-0.8806994597064417,-2.562171284352438,-1.3386181036578577,-0.7674062887774866,-1.593710724507467,-3.080719057713644
-0.8794415632831019,-2.5619314352618616,-1.3393142859088343,-0.7670462767230433,-1.5937946478473108,-3.08203632036318
-0.8780868689166468,-2.56163198152651,-1.3399737516986292,-0.7666991392718714,-1.593698803578512,-3.083305899296896
-0.8767569700824183,-2.561380688344137,-1.3405855337726038,-0.7663634459124964,-1.593926731740133,-3.0845869223224085
-0.8742402235614222,-2.560793701802389,-1.3418696562396448,-0.765655819569723,-1.5940583387957972,-3.087114159260885
-0.8729823271380823,-2.560458008443014,-1.3425291220294397,-0.7653921286212366,-1.5939863363849085,-3.0883711020099085
-0.871676270161764,-2.5602062384234827,-1.3431418577777308,-0.7650683561908167,-1.594154183064596,-3.0895686785327356
-0.8704536596881312,-2.559894863759176,-1.3437531630145472,-0.7647808233844202,-1.5941184202777308,-3.0908263365374964
-0.8679493109332483,-2.5593436400042933,-1.34503680864443,-0.7640612761126917,-1.59428579012026,-3.0932567755328577
-0.8666551748858851,-2.5590198675738733,-1.3456733862506312,-0.7637255827533167,-1.59426194826235,-3.0944185892688196
-0.8654444853412073,-2.558756653462545,-1.3462608496295374,-0.7634256521808069,-1.594382111226217,-3.095640246068136
-0.8641865889178675,-2.558445755635397,-1.3469207922564905,-0.7630537191974085,-1.5943101088153284,-3.0967779795276087
-0.8616698423968714,-2.5578940550433558,-1.3481925169574183,-0.7624061743365687,-1.5944059530841272,-3.0992687384234827
-0.8604114691363733,-2.5576065222369593,-1.3487446943866175,-0.7620828787433069,-1.5945256392108362,-3.100477997456686
-0.8591774145709437,-2.5573070685016077,-1.3493927160846155,-0.7618072668658655,-1.59460956255068,-3.1017237345324915
-0.8579185644732874,-2.5570314566241663,-1.3500164190875452,-0.7614954153644007,-1.5945857206927698,-3.1029213110553187
-0.8554261366473597,-2.5564802328692835,-1.351288143788473,-0.7608235518084925,-1.5946577231036585,-3.105459753667013
-0.8542283217059534,-2.5562284628497522,-1.3519004026996058,-0.7604759375201624,-1.5947535673724573,-3.1066694895373743
-0.8530414740191858,-2.5559290091144007,-1.3525121847735804,-0.7602122465716761,-1.5948494116412562,-3.107914988194601
-0.8518675009356897,-2.5556533972369593,-1.3531478087054651,-0.7598884741412562,-1.5947893301593226,-3.1091843287097376
-0.8493626753436487,-2.5551026503192347,-1.3544676939593714,-0.7592051664935511,-1.5949090162860315,-3.111698929463522
-0.8481643835650843,-2.554815117512838,-1.3551157156573694,-0.7588694731341761,-1.5950530211078089,-3.1129441897021692
-0.846870247517721,-2.554575268422262,-1.3557279745685022,-0.7585695425616663,-1.595064942036764,-3.1141539255725306
-0.845623795186178,-2.5542519728290003,-1.356375519429342,-0.7582939306842249,-1.5951607863055628,-3.115375582371847
-0.8431313673602503,-2.553688351308004,-1.35767108598818,-0.75763446489443,-1.5952447096454065,-3.117878500615255
-0.8418734709369105,-2.553412739430563,-1.3583434263812464,-0.7572267691241663,-1.5954607168780726,-3.119051758443014
-0.8406508604632776,-2.5531495253192347,-1.3590148130999964,-0.75696307817568,-1.5953887144671839,-3.1202853361712855
-0.839428726826803,-2.5529101530658167,-1.3596151510821741,-0.7566869894610804,-1.5955923239337366,-3.121506992970602
-0.8368404547320765,-2.5523231665240687,-1.360898796712057,-0.7560275236712855,-1.5956524054156702,-3.123985830937521
-0.8356297651873987,-2.552023712788717,-1.361546818410055,-0.7556560675250452,-1.5956643263446253,-3.125279490147726
-0.8343475500689905,-2.5517476240741175,-1.3621590773211878,-0.7553322950946253,-1.595748249684469,-3.126596275960104
-0.8331010977374476,-2.5514243284808558,-1.3627703825580042,-0.7549846808062952,-1.5957601706134241,-3.1278417746173304
-0.8305609861956995,-2.550861183797018,-1.3640425840960901,-0.7543609778033655,-1.5958684126483362,-3.130416456853048
-0.8293150107013147,-2.5505736509906214,-1.364678684865133,-0.753977123891012,-1.5958922545062464,-3.1316500345813196
-0.8279960791217249,-2.5502622763263147,-1.3653023878680628,-0.7536175886737269,-1.5960000197040003,-3.1329317728625696
-0.8267381826983851,-2.5500343481646937,-1.3659384886371058,-0.753305737172262,-1.5960243383990687,-3.134188954030172
-0.8241742292987269,-2.549447838460104,-1.3671982924090784,-0.7526348272906702,-1.5961077849017542,-3.1366918722735804
-0.8228796164142054,-2.5491841475116175,-1.367810074483053,-0.7522509733783167,-1.59629995027651,-3.1378889719592493
-0.8216455618487757,-2.5488722960101526,-1.3685181776629847,-0.7519267241107386,-1.5962517897235315,-3.1391826311694544
-0.820327107106344,-2.5485966841327112,-1.3691304365741175,-0.7515910307513636,-1.5963357130633753,-3.140440289174215
-0.8178709189044397,-2.5480216185199183,-1.3704374472247522,-0.7510035673724573,-1.5963595549212855,-3.142919127141134
-0.8166006247149866,-2.54775840440859,-1.371025864277975,-0.7505963484393519,-1.5966232458697718,-3.1441882292376917
-0.8153064886676233,-2.5474584738360804,-1.3716252485858362,-0.7502606550799769,-1.5965035597430628,-3.145409886037008
-0.8140600363360804,-2.5472071806537073,-1.3722613493548792,-0.7499612013446253,-1.5966351667987269,-3.146667544041769
-0.8115080038653772,-2.546596352254049,-1.37352162996401,-0.7493732611285608,-1.5966833273517054,-3.149158302937643
-0.8102496306048792,-2.5462845007525843,-1.3741453329669397,-0.7489894072162073,-1.5968392531024378,-3.150368038808004
-0.8090274969684046,-2.5459850470172327,-1.374720875416891,-0.7486537138568323,-1.5967429319964808,-3.1516013781176966
-0.8077691237079065,-2.5456493536578577,-1.3753092924701136,-0.7483542601214808,-1.5968392531024378,-3.1528106371508997
-0.8052523771869105,-2.5450742880450647,-1.376545254384176,-0.7477429548846644,-1.596875015889303,-3.155217949544088
-0.8040064016925257,-2.544750992451803,-1.3771689573871058,-0.7474306265460413,-1.5970190207110804,-3.1564391295062464
-0.8026884237872522,-2.5444515387164515,-1.3778284231769007,-0.7470710913287562,-1.596982781087057,-3.157696787511007
-0.8014300505267542,-2.5442002455340784,-1.3784163633929651,-0.7467353979693812,-1.5971267859088343,-3.15885836282839
-0.7989380995379847,-2.543600861226217,-1.3797124067889612,-0.7460520903216761,-1.5971863905536097,-3.1613972822772425
-0.797619644795553,-2.5433371702777308,-1.3803241888629358,-0.7456324736224573,-1.597330395375387,-3.1626668612109583
-0.7963851133929651,-2.543121639882223,-1.3810437361346644,-0.7453802267657679,-1.597222630177633,-3.1638885180102747
-0.7951267401324671,-2.542809788380758,-1.3817041555987757,-0.745056454335348,-1.597450081502096,-3.1651693026172083
-0.7925985495196741,-2.5422709623919886,-1.38293964067568,-0.7444332281695765,-1.5975340048419397,-3.16770846048464
-0.7913764158831995,-2.5420072714435022,-1.3835881392108362,-0.7441213766681116,-1.5975702444659632,-3.1689897219287317
-0.7901185194598597,-2.541767422352926,-1.3841994444476526,-0.743713680897848,-1.5976298491107386,-3.170187298451559
-0.78888446489443,-2.5414565245257776,-1.3848593870746058,-0.7433660666095179,-1.5977137724505823,-3.171492878590719
-0.786379639302389,-2.5408809820758265,-1.386059586201803,-0.7427304426776331,-1.5977018515216272,-3.1739476362811487
-0.7851093451129358,-2.54061729112734,-1.3867314497577112,-0.7423947493182581,-1.5978816191302698,-3.1751814524279993
-0.7838271299945276,-2.5403297583209437,-1.3873189131366175,-0.7420590559588831,-1.5978339354144495,-3.17646295229067
-0.7825935522662562,-2.540018383656637,-1.3879912535296839,-0.7417352835284632,-1.5979655424701136,-3.1776841322528284
-0.7801249662982386,-2.539467159901754,-1.389310661946432,-0.7410877386676233,-1.598109547291891,-3.1801870504962366
-0.7788785139666956,-2.5391557852374476,-1.3899109999286097,-0.7408002058612269,-1.5980013052569788,-3.181408230458395
-0.7776086966144007,-2.5388687292682093,-1.3905227820025843,-0.7404521147357386,-1.598133389149801,-3.182617966328756
-0.7763741652118128,-2.538616959248678,-1.3911703268634241,-0.740032974873678,-1.5981691519366663,-3.183875624333517
-0.7738459745990198,-2.538029495869772,-1.3925145308123987,-0.7394211927997034,-1.5983489195453089,-3.1863184610949915
-0.7724559942828577,-2.5377658049212855,-1.3931501547442835,-0.7390854994403284,-1.59825307527651,-3.1876118818866175
-0.7711976210223597,-2.537502113972799,-1.3937743345843714,-0.7387378851519983,-1.5983732382403772,-3.1889055410968226
-0.7699754873858851,-2.537238899861471,-1.3944700399981897,-0.7383783499347132,-1.5984447638141077,-3.1901987234698694
-0.7673633734332483,-2.536687676106588,-1.3957417646991175,-0.7377784887896937,-1.5986006895648401,-3.192725960408346
-0.7661646048175257,-2.536435906087057,-1.3963659445392054,-0.7374790350543421,-1.5985286871539515,-3.1939950625049036
-0.7649429480182093,-2.5361607710467737,-1.3970616499530237,-0.7371676603900355,-1.5986488501178187,-3.1953006426440638
-0.7636125723468226,-2.5358851591693323,-1.3976495901690882,-0.7367594877826136,-1.598708454762594,-3.1964743773089808
-0.7610481421100062,-2.5353220144854944,-1.3988850752459925,-0.736124340687887,-1.5988767782794397,-3.19902474084963
-0.7597902456866663,-2.5350101629840296,-1.399581257496969,-0.7358601729022425,-1.5987446943866175,-3.200318161641256
-0.7584598700152796,-2.534698788319723,-1.4001691977130335,-0.7355364004718226,-1.5989964644061487,-3.201515499745504
-0.7572019735919397,-2.5344112555133265,-1.4008291403399866,-0.7351530233966272,-1.598912541066305,-3.2028091589557093
-0.7546976248370569,-2.5338242689715784,-1.4020288626300257,-0.734481159840719,-1.599140469227926,-3.205251995717184
-0.7533796469317835,-2.533525292073385,-1.4026768843280237,-0.7342055479632776,-1.5991643110858362,-3.2065215746508997
-0.7521455923663538,-2.5332253615008753,-1.4033482710467737,-0.7338460127459925,-1.5993922392474573,-3.2077911535846155
-0.7508872191058558,-2.532937828694479,-1.4039366880999964,-0.7335341612445276,-1.599260155354635,-3.2090604940997522
-0.7483590284930628,-2.532362763081686,-1.4052446524249476,-0.7328389326678675,-1.5994518438922327,-3.211527649556295
-0.747101132069723,-2.532074753438131,-1.4058921972857874,-0.7325151602374476,-1.599476162587301,-3.212808911000387
-0.74585467973818,-2.5317752997027796,-1.406515900288717,-0.7322028318988245,-1.5996435324298304,-3.21397048631777
-0.7445843855487269,-2.531464401875631,-1.4071162382708948,-0.731795612965719,-1.5995357672320765,-3.21525222459902
-0.7421401182757776,-2.5309131781207483,-1.4083760420428675,-0.7311118284808558,-1.599715534840719,-3.2176950613604944
-0.7408097426043909,-2.5306857267962855,-1.4090717474566858,-0.7308362166034144,-1.5997756163226526,-3.218916718159811
-0.7395761648761194,-2.5303857962237757,-1.4096954504596155,-0.730560604725973,-1.5998833815204065,-3.2201982180224817
-0.7382577101336878,-2.5301464239703577,-1.41028339067568,-0.7301886717425745,-1.5997994581805628,-3.2213600317584437
-0.735753361378805,-2.5295708815204065,-1.4116032759295862,-0.7295053640948694,-1.5999434630023401,-3.2238627115832728
-0.7344954649554651,-2.52928334871401,-1.4122393766986292,-0.7291577498065394,-1.5999434630023401,-3.225168291722433
-0.7331531683551233,-2.5290077368365687,-1.4128387610064905,-0.7288702170001429,-1.6001351515399378,-3.2263899485217493
-0.7319548765765589,-2.528684918080465,-1.4134629408465784,-0.7285226027118128,-1.600039307271139,-3.22767144838442
-0.7293427626239222,-2.5281217733966272,-1.4147709051715296,-0.7278268972979944,-1.6002429167376917,-3.230258289967672
-0.7281087080584925,-2.5278342405902308,-1.415370289479391,-0.7275150457965296,-1.600170914326803,-3.231539789830343
-0.7268388907061976,-2.527534310017721,-1.416018311177389,-0.7272275129901331,-1.6003506819354456,-3.232809368764059
-0.7255452314959925,-2.5272348562823694,-1.416654411946432,-0.7269037405597132,-1.600278679524557,-3.234126631413595
-0.7230046431170862,-2.5266478697406214,-1.417962376271383,-0.7262442747699183,-1.600506607686178,-3.2366417090045374
-0.721722427998678,-2.5264199415790003,-1.4186461607562464,-0.7258365789996546,-1.600506607686178,-3.2379587332354944
-0.7204645315753382,-2.5260966459857386,-1.4193418661700647,-0.7255128065692347,-1.6006625334369105,-3.239216391240255
-0.7191703955279749,-2.525881592427389,-1.4199417273150843,-0.7252128759967249,-1.6005786100970667,-3.2404616514789026
-0.7167256514178675,-2.5253422896014612,-1.421213452016012,-0.7245176474200647,-1.6007583777057093,-3.24294096628298
-0.7154915968524378,-2.5250542799579065,-1.4218376318561,-0.7242181936847132,-1.6009019056903284,-3.2441745440112513
-0.714245621358053,-2.52476674715151,-1.4224970976458948,-0.7239297072040003,-1.6009019056903284,-3.24534780183901
-0.7129996458636683,-2.5245512167560022,-1.4231208006488245,-0.723666016255514,-1.6009977499591272,-3.2465575377093714
-0.7105549017535608,-2.5240004698382776,-1.4243810812579554,-0.7229831854449671,-1.601081673298971,-3.24896485010256
-0.7093566099749964,-2.523700539265768,-1.4249327818499964,-0.7226231733905237,-1.6012137571917933,-3.250162426625387
-0.7080748716937464,-2.52346116701235,-1.4255808035479944,-0.7223714033709925,-1.6012375990497034,-3.2513719240771692
-0.7069247404681605,-2.5231736342059534,-1.426180664693014,-0.7220600287066858,-1.6012256781207483,-3.2526055018054407
-0.7045162359820765,-2.5226104895221155,-1.427392307912008,-0.7213757673846644,-1.6012614409076136,-3.2550490538226526
-0.7033298651324671,-2.522334877644674,-1.4279683271991175,-0.7210405508624476,-1.601429287587301,-3.2562344709979456
-0.7020958105670374,-2.5220354239093226,-1.4285686651812952,-0.7207649389850062,-1.6014412085162562,-3.257443968449728
-0.7009213606463831,-2.521735493336813,-1.4291442076312464,-0.7204650084124964,-1.6013816038714808,-3.2585697809802454
-0.6984532515155237,-2.5211966673480433,-1.430404011403219,-0.7198417822467249,-1.6015251318561,-3.260989252720968
-0.6973031202899378,-2.520909134541647,-1.4309795538531702,-0.7194817701922815,-1.6015732924090784,-3.262150589619772
-0.696080509816305,-2.5206335226642054,-1.4316156546222132,-0.7191217581378382,-1.6016929785357874,-3.2633841673480433
-0.6948588530169886,-2.520334068928854,-1.4322274366961878,-0.7188342253314417,-1.6016090551959437,-3.2645579020129603
-0.6924384276019495,-2.5197470823871058,-1.4334271589862269,-0.7181990782367151,-1.6018250624286097,-3.266905132924215
-0.6912167708026331,-2.5194714705096644,-1.4340394178973597,-0.7178509871112269,-1.601764980946676,-3.268198315297262
-0.68994647661318,-2.519207779561178,-1.4346869627581995,-0.7175753752337855,-1.601980988179342,-3.269348208104269
-0.6887362639056605,-2.5189202467547815,-1.4353230635272425,-0.7172754446612757,-1.6019209066974085,-3.2706177870379847
-0.6862800757037562,-2.5183690229998987,-1.4364269415484827,-0.7166522184955042,-1.602088753377096,-3.273024622594015
-0.6850813070880335,-2.518141571675436,-1.4370744864093226,-0.7163165251361292,-1.6020167509662073,-3.274282757435934
-0.6838715712176722,-2.5178421179400843,-1.4376862684832972,-0.7159808317767542,-1.6022327581988733,-3.275456253682272
-0.6826370398150843,-2.517590347920553,-1.4382622877704065,-0.7156932989703577,-1.6021845976458948,-3.2766299883471888
-0.6802533308612269,-2.5170872847186487,-1.4394496122943323,-0.7151292006122034,-1.6023886839496058,-3.2789891401873987
-0.6790788809405726,-2.5167997519122522,-1.4400137106524866,-0.7147458235370081,-1.6023405233966272,-3.280102793370382
-0.6779049078570765,-2.516548458729879,-1.440601650868551,-0.7144101301776331,-1.602556053792135,-3.281240526829855
-0.6767304579364222,-2.516320530568258,-1.4412253538714808,-0.7141340414630335,-1.602436367665426,-3.2822824160205286
-0.6744898001300257,-2.5157812277423304,-1.4422572294818323,-0.7135708967791956,-1.602652374898092,-3.2843902746783655
-0.6734355131732386,-2.5155418554889124,-1.4428332487689417,-0.7133072058307093,-1.6025803724872034,-3.285516087208883
-0.6723573843585413,-2.5153020063983362,-1.4433968702899378,-0.7130311171161097,-1.602760140095846,-3.2865219751941126
-0.6713145414935511,-2.5150025526629847,-1.4439252058612269,-0.7127311865435999,-1.6027000586139124,-3.2875762621508997
-0.6693618933307093,-2.514571491871969,-1.4449809233294886,-0.7121799627887171,-1.6029155890094202,-3.289468590413229
-0.6684148947345179,-2.5143678824054163,-1.4454248587237757,-0.7119277159320276,-1.6028316656695765,-3.2904983202563685
-0.6674683729754847,-2.5141523520099085,-1.4459050337420862,-0.7116883436786097,-1.603011433278219,-3.291360918675558
-0.6665576140033167,-2.5139244238482874,-1.446324650441305,-0.7114484945880335,-1.603011433278219,-3.292295042668478
-0.6650002638446253,-2.5135768095599573,-1.4471643606769007,-0.7109091917621058,-1.6031435171710413,-3.29394776025881
-0.664245907460348,-2.5134452025042933,-1.4475005308734339,-0.7107408682452601,-1.6030476729022425,-3.294701878224508
-0.6634781996356409,-2.5132535139666956,-1.4478963057147425,-0.7105372587787073,-1.60321551958193,-3.295504395161764
-0.6627357641803187,-2.5130494276629847,-1.448268238698141,-0.71039325395693,-1.6031554380999964,-3.2961273829089563
-0.6613577047931116,-2.5127738157855433,-1.4489520231830042,-0.7100938002215784,-1.6032994429217737,-3.2975762526141565
-0.6606867949115198,-2.512642208729879,-1.449263874684469,-0.709937874470846,-1.6031435171710413,-3.2982469240771692
-0.6600278059588831,-2.512510601674215,-1.4496243635760706,-0.709818188344137,-1.6033232847796839,-3.298941437398092
-0.6594050566302698,-2.512390438710348,-1.4499238173114222,-0.7096017042743128,-1.6033709684955042,-3.2995405832873743
-0.6581109205829065,-2.5120914618121546,-1.4505956808673304,-0.7091825644122522,-1.603454891835348,-3.3007622400866907
-0.6574638525592249,-2.5119717756854456,-1.4509080092059534,-0.7090747992144983,-1.6033590475665491,-3.3013609091388147
-0.6568411032306116,-2.5118401686297815,-1.4512799421893519,-0.708834473286764,-1.6034429709063929,-3.301983896886007
-0.6562898794757288,-2.5117080847369593,-1.4515679518329065,-0.7087867895709437,-1.6035030523883265,-3.3026304880725306
-0.6550195852862757,-2.511432472859518,-1.452191177998678,-0.708498779927389,-1.6036589781390589,-3.3037684599505823
-0.654372517262594,-2.5112646261798304,-1.452491585408346,-0.708282772694723,-1.6035750547992151,-3.3044148127185267
-0.6537140051471155,-2.5111330191241663,-1.452815357838766,-0.7082112471209925,-1.6035988966571253,-3.305049482976095
-0.653078858052389,-2.511000935231344,-1.4531272093402308,-0.7080190817462366,-1.6037429014789026,-3.3056603113757532
-0.6517728010760706,-2.5106657187091272,-1.4537871519671839,-0.7076838652240198,-1.6037305037127894,-3.3069539705859583
-0.6511614958392542,-2.510533634816305,-1.4541476408587855,-0.7075160185443323,-1.6037667433368128,-3.3075886408435267
-0.6504429022418421,-2.510390106831686,-1.454459015523092,-0.7072642485248011,-1.6036947409259241,-3.308247152959005
-0.6498077551471155,-2.510186497365133,-1.4548066298114222,-0.7071202437030237,-1.6038864294635218,-3.308929745350973
-0.6483939329730433,-2.5098989645587366,-1.4555028120623987,-0.7067840735064905,-1.6038864294635218,-3.310211722050802
-0.6477354208575647,-2.5097668806659144,-1.455850903187887,-0.7066524664508265,-1.6038625876056116,-3.310930077229635
-0.6470516363727015,-2.5095518271075647,-1.4562104384051722,-0.7064726988421839,-1.6038387457477015,-3.311612669621603
-0.6463688055621546,-2.5094321409808558,-1.4565585295306605,-0.7063286940204065,-1.604006592427389,-3.312331501637594
-0.6449912230121058,-2.509108368550436,-1.4572542349444788,-0.7059810797320765,-1.6039584318744105,-3.313732449208395
-0.644332234059469,-2.5089405218707483,-1.457590405141012,-0.7057293097125452,-1.6040661970721644,-3.3143792788134974
-0.6436732451068323,-2.5088208357440394,-1.4579022566424769,-0.7055371443377894,-1.6039465109454554,-3.315038029347555
-0.6430142561541956,-2.5086291472064417,-1.4582379500018519,-0.7053454558001917,-1.6040900389300745,-3.3156848589526575
-0.6417081991778772,-2.5083773771869105,-1.4588020483600062,-0.7050460020648401,-1.6041143576251429,-3.316942278538839
-0.6410968939410608,-2.508209530507223,-1.459198300038473,-0.7048543135272425,-1.6041024366961878,-3.317636791859762
-0.6404741446124476,-2.5080540815936487,-1.4594619909869593,-0.7047222296344202,-1.6041024366961878,-3.318211857472555
-0.6398394743548792,-2.5078981558429163,-1.4597738424884241,-0.7045658270465296,-1.6042340437518519,-3.3188348452197474
-0.6386888662921351,-2.5076468626605433,-1.46031362215151,-0.7041824499713343,-1.604269806538717,-3.319984499608175
-0.6380417982684534,-2.507538620625631,-1.4606016317950647,-0.7040026823626917,-1.6041739622699183,-3.3205114046679896
-0.6375387350665491,-2.507407013569967,-1.4608662764178675,-0.7038586775409144,-1.6043298880206507,-3.3210623900042933
-0.6369517485248011,-2.507299248372213,-1.4611175696002405,-0.7037747542010706,-1.6043537298785608,-3.3215892950641077
-0.6359928289996546,-2.5070951620685022,-1.46169358888735,-0.7034629026996058,-1.6045096556292933,-3.322595183049337
-0.6355021635638636,-2.506951634083883,-1.461921517048971,-0.7034629026996058,-1.6043537298785608,-3.3231101671801966
-0.6350224653827112,-2.5068681875811976,-1.462125603352682,-0.7032712141620081,-1.6045454184161585,-3.3235891501056116
-0.6345914045916956,-2.506820027028219,-1.4623530546771448,-0.7032712141620081,-1.6044977347003382,-3.323972288762228
-0.6336687246905726,-2.506592575703756,-1.4628332296954554,-0.7031033674823206,-1.6046174208270472,-3.3248825708972376
-0.6332610289203089,-2.5064967314349573,-1.4629772345172327,-0.7030556837665003,-1.6045096556292933,-3.325373713170187
-0.6328304449664515,-2.506388489400045,-1.463240925465719,-0.7028158346759241,-1.6046655813800257,-3.325756851826803
-0.6324828306781214,-2.5062926451312464,-1.463433090840475,-0.7028277556048792,-1.6045454184161585,-3.3261521498309534
-0.6316679159747522,-2.5061491171466272,-1.4638169447528284,-0.702575985585348,-1.604605499898092,-3.3268829027758997
-0.6312726179706019,-2.5060771147357386,-1.4640210310565394,-0.7024200598346155,-1.6045334974872034,-3.327266518269674
-0.6308653990374964,-2.50600511232485,-1.4641645590411585,-0.7022879759417933,-1.604713265095846,-3.327601496373312
-0.6305535475360315,-2.505897823964254,-1.4643572012530726,-0.7021797339068812,-1.6045454184161585,-3.327972714100973
-0.629895035420553,-2.5057900587665003,-1.4646928946124476,-0.7020242849933069,-1.6046655813800257,-3.32867938676943
-0.629559342061178,-2.5057180563556116,-1.4648850599872034,-0.7018082777606409,-1.6046894232379358,-3.3289907614337366
-0.6292598883258265,-2.505669895802633,-1.465076748524801,-0.701820198689596,-1.6047852675067347,-3.3293021360980433
-0.6289842764483851,-2.5055859724627894,-1.4652207533465784,-0.7017486731158655,-1.6046293417560022,-3.3295894304858606
-0.6283729712115687,-2.5054782072650355,-1.465496842061178,-0.7016285101519983,-1.6047495047198694,-3.3301642576800745
-0.6280854384051722,-2.5054543654071253,-1.465628449116842,-0.7014969030963343,-1.6047614256488245,-3.3304041067706507
-0.6278460661517542,-2.5053704420672815,-1.4657486120807093,-0.7015326658831995,-1.604821507130758,-3.3306193987475794
-0.6275704542743128,-2.505322281514303,-1.4659164587603968,-0.7014010588275355,-1.6047375837909144,-3.3308709303485315
-0.6270669142352503,-2.5052507559405726,-1.4661925474749964,-0.7013528982745569,-1.6048691908465784,-3.3313501516925257
-0.6268394629107874,-2.505178753529684,-1.466264549885885,-0.7013171354876917,-1.6047495047198694,-3.3316612879382532
-0.6266239325152796,-2.505178753529684,-1.4663365522967737,-0.701125446950094,-1.6049049536334437,-3.33187705675234
-0.6263960043536585,-2.505082909260885,-1.4664681593524378,-0.7012093702899378,-1.6048334280597132,-3.332116667424337
-0.6260369459735315,-2.5050228277789515,-1.466672722493307,-0.7010410467730921,-1.6049774328814905,-3.3324878851519983
-0.6258452574359339,-2.5049989859210413,-1.4667685667621058,-0.701029125844137,-1.6047971884356897,-3.3326435724841517
-0.6257255713092249,-2.5049870649920862,-1.4668167273150843,-0.7010172049151819,-1.6050012747394007,-3.332799021397726
-0.6255453268634241,-2.5049150625811976,-1.466912571583883,-0.7009452025042933,-1.604929272328512,-3.3329907099353235
-0.625317398701803,-2.504854981099264,-1.4670560995685022,-0.7009089628802698,-1.6050131956683558,-3.333242479954855
-0.6251738707171839,-2.504843060170309,-1.4670680204974573,-0.7007773558246058,-1.6048691908465784,-3.333398167287008
-0.6250899473773401,-2.504831139241354,-1.467128101979391,-0.7008011976825159,-1.604929272328512,-3.3334222475634974
-0.6250065008746546,-2.5047953764544886,-1.467140022908346,-0.7008255163775843,-1.6049774328814905,-3.3335779348956507
-0.6248386541949671,-2.50477105775942,-1.4671643416034144,-0.7008374373065394,-1.6050375143634241,-3.3336499373065394
-0.6248863379107874,-2.5047829786883753,-1.4671881834613245,-0.7006695906268519,-1.6049416700946253,-3.3336499373065394
-0.6248987356769007,-2.5047829786883753,-1.4671767393695276,-0.7008851210223597,-1.6050375143634241,-3.3336737791644495
-0.6249344984637659,-2.5047829786883753,-1.4671524206744593,-0.7007892767535608,-1.6049535910235804,-3.3335660139666956
-0.624946419392721,-2.504759136830465,-1.4671767393695276,-0.7008255163775843,-1.6050012747394007,-3.3335419336902063
-0.624946419392721,-2.5047829786883753,-1.4671767393695276,-0.7008011976825159,-1.6050012747394007,-3.3335779348956507
-0.6249344984637659,-2.50477105775942,-1.4671524206744593,-0.7008255163775843,-1.605025593434469,-3.3335779348956507
-0.6249225775348108,-2.504759136830465,-1.4671767393695276,-0.7008011976825159,-1.6049893538104456,-3.3335779348956507
-0.6249106566058558,-2.50477105775942,-1.4672005812274378,-0.7007892767535608,-1.6049893538104456,-3.3335540930377405
-0.6249344984637659,-2.5047953764544886,-1.467128101979391,-0.7007892767535608,-1.6049774328814905,-3.33360201517214
-0.6249225775348108,-2.504759136830465,-1.467128101979391,-0.7008135954486292,-1.6050012747394007,-3.3335898558246058
-0.6249106566058558,-2.5047829786883753,-1.4671643416034144,-0.7007892767535608,-1.6049893538104456,-3.33360201517214
-0.624946419392721,-2.50477105775942,-1.4671643416034144,-0.7008255163775843,-1.6050012747394007,-3.3335660139666956
-0.624946419392721,-2.5047953764544886,-1.4671161810504358,-0.7008011976825159,-1.6049893538104456,-3.3335540930377405
-0.624946419392721,-2.50474721590151,-1.4671767393695276,-0.7007654348956507,-1.6050131956683558,-3.3335779348956507
-0.6249225775348108,-2.50474721590151,-1.467140022908346,-0.7007535139666956,-1.6050012747394007,-3.3335898558246058
-0.6249106566058558,-2.5047953764544886,-1.4671524206744593,-0.7007654348956507,-1.6049893538104456,-3.3335779348956507
-0.6249106566058558,-2.504759136830465,-1.467140022908346,-0.7007415930377405,-1.6050012747394007,-3.3335540930377405
-0.6249344984637659,-2.5047233740436,-1.4671524206744593,-0.7007535139666956,-1.6050131956683558,-3.3335660139666956
-0.6249106566058558,-2.504735294972555,-1.4671767393695276,-0.7007535139666956,-1.6050012747394007,-3.3335419336902063
-0.624946419392721,-2.50474721590151,-1.4672005812274378,-0.7006815115558069,-1.6049774328814905,-3.3335419336902063
-0.6248744169818323,-2.50477105775942,-1.4671643416034144,-0.7006457487689417,-1.6050012747394007,-3.3335419336902063
-0.6249225775348108,-2.5047233740436,-1.4671524206744593,-0.7006457487689417,-1.6050012747394007,-3.33360201517214
-0.6249225775348108,-2.5047233740436,-1.4671643416034144,-0.7006457487689417,-1.6050131956683558,-3.3335660139666956
-0.6249583403216761,-2.50474721590151,-1.467128101979391,-0.7006695906268519,-1.6050012747394007,-3.3335540930377405
-0.6249344984637659,-2.504735294972555,-1.467128101979391,-0.7006695906268519,-1.6049893538104456,-3.3335660139666956
-0.6249225775348108,-2.504711453114645,-1.467140022908346,-0.7007053534137171,-1.6049774328814905,-3.3335779348956507
-0.6249583403216761,-2.50474721590151,-1.4671524206744593,-0.7007172743426722,-1.6050131956683558,-3.3335660139666956
-0.6250541845904749,-2.504735294972555,-1.4670804182635706,-0.7007773558246058,-1.6050131956683558,-3.3334582487689417
-0.6250785032855433,-2.504759136830465,-1.467032257710592,-0.7007654348956507,-1.6050012747394007,-3.333482090626852
-0.6251500288592737,-2.5047233740436,-1.467008415852682,-0.7007773558246058,-1.6049893538104456,-3.3333383242236536
-0.6252458731280726,-2.504735294972555,-1.4669840971576136,-0.7009213606463831,-1.6050012747394007,-3.3333023230182093
-0.6254733244525355,-2.5048072973834437,-1.4668405691729944,-0.7009213606463831,-1.6049893538104456,-3.333158556615011
-0.6256535688983362,-2.504831139241354,-1.4667208830462855,-0.7009690443622034,-1.6050012747394007,-3.332942787800924
-0.6258094946490687,-2.504843060170309,-1.4666603247271937,-0.7010772863971155,-1.6049774328814905,-3.3328948656665247
-0.6259773413287562,-2.504854981099264,-1.46657640138735,-0.7010529677020472,-1.6049893538104456,-3.3326316515551966
-0.6263840834247034,-2.504975144063131,-1.4663003126727503,-0.7011731306659144,-1.6050012747394007,-3.332236115132467
-0.6266120115863245,-2.5050228277789515,-1.4662163893329065,-0.7012093702899378,-1.6049535910235804,-3.332104746495382
-0.6268156210528772,-2.5050347487079065,-1.4660609404193323,-0.7013409773456019,-1.6049416700946253,-3.3317931334124964
-0.6270788351642054,-2.505106751118795,-1.4659283796893519,-0.701364819203512,-1.6049774328814905,-3.331613365803854
-0.6276543776141565,-2.505286518727438,-1.465628449116842,-0.701580826436178,-1.604929272328512,-3.330906931553976
-0.6280134359942835,-2.5053466002093714,-1.465484921132223,-0.7015445868121546,-1.6048811117755335,-3.33057147661318
-0.6282652060138147,-2.5054782072650355,-1.4653046766864222,-0.7016285101519983,-1.6049049536334437,-3.3302841822253626
-0.6286609808551233,-2.5055020491229456,-1.4651010672198694,-0.7017963568316858,-1.6048572699176233,-3.329996649418966
-0.6293676535235804,-2.5057180563556116,-1.4647167364703577,-0.7019880453692835,-1.6047852675067347,-3.329254213963644
-0.6297271887408655,-2.5058139006244105,-1.4645369688617151,-0.7019160429583948,-1.6048572699176233,-3.3288231531726282
-0.6301820913897913,-2.5059097448932093,-1.464297119771139,-0.7020962874041956,-1.6046894232379358,-3.3284757773028772
-0.6305893103228968,-2.50602895418276,-1.4640806357013147,-0.7021797339068812,-1.6048453489886683,-3.3280325571643274
-0.6314404646502894,-2.506256882344381,-1.463661019002096,-0.7024558226214808,-1.6047852675067347,-3.3270986715899866
-0.6318839232074183,-2.5064008871661585,-1.4633610884295862,-0.7024319807635706,-1.6048334280597132,-3.3267036120044153
-0.6322911421405237,-2.5065086523639124,-1.4631088415728968,-0.7026718298541468,-1.604725186024801,-3.3262720743762415
-0.6328061262713831,-2.5066402594195765,-1.4628332296954554,-0.7027080694781702,-1.6048334280597132,-3.325744692479269
-0.6337645689593714,-2.506903950368063,-1.4623411337481897,-0.7029717604266565,-1.6047852675067347,-3.324798885975973
-0.6342080275165003,-2.5069993177997034,-1.4620655218707483,-0.7031753698932093,-1.604713265095846,-3.3242839018451136
-0.634747330342428,-2.5071194807635706,-1.4618132750140589,-0.7031992117511194,-1.604605499898092,-3.323768917714254
-0.6352022329913538,-2.507287327443258,-1.4615138212787073,-0.7033670584308069,-1.6047375837909144,-3.3233018557177942
-0.6362326780902308,-2.5075748602496546,-1.460961643849508,-0.7035592238055628,-1.6046293417560022,-3.3222718874560755
-0.6367481390582483,-2.507754627858297,-1.4606617132769983,-0.7037628332721155,-1.604593578969137,-3.3217690626727503
-0.6372631231891077,-2.507874313985006,-1.4603255430804651,-0.7037389914142054,-1.604485813771383,-3.3212061564074915
-0.6378024260150355,-2.508066002522604,-1.4600737730609339,-0.7039664427386683,-1.6046293417560022,-3.320691172276632
-0.6388805548297327,-2.5083892981158655,-1.4594381491290491,-0.7041705290423792,-1.604581658040182,-3.319625441228048
-0.6394079367267054,-2.5085209051715296,-1.4591620604144495,-0.7042306105243128,-1.6043899695025843,-3.3190980593310755
-0.6399467627154749,-2.508688751851217,-1.4588020483600062,-0.7045181433307093,-1.604473892842428,-3.31854755083193
-0.6405461470233362,-2.5088565985309046,-1.4585140387164515,-0.704602066670553,-1.6043298880206507,-3.317984644566671
-0.6416962782489222,-2.5092042128192347,-1.4578903357135218,-0.7050340811358851,-1.6043418089496058,-3.3167625109301966
-0.6422956625567835,-2.5093358198748987,-1.457578484212057,-0.7053096930133265,-1.6043060461627405,-3.316199843083517
-0.6428702513324183,-2.5095155874835413,-1.457278076802389,-0.705357853566305,-1.6043298880206507,-3.315624777470724
-0.6434457937823694,-2.509707276021139,-1.4569185415851038,-0.7056210676776331,-1.604138199483053,-3.315038029347555
-0.6446917692767542,-2.510042969380514,-1.4562104384051722,-0.7060053984271448,-1.604150120412008,-3.3137922922717493
-0.6452787558185022,-2.5102346579181116,-1.4558871428119105,-0.7060888449298304,-1.604245964680807,-3.3131216208087366
-0.6458662191974085,-2.510425869618551,-1.4554908911334437,-0.70636493364443,-1.604138199483053,-3.312535111104147
-0.646524731312887,-2.5105698744403284,-1.4551671187030237,-0.7064603010760706,-1.604126278554098,-3.3119123617755335
-0.6478431860553187,-2.5109532515155237,-1.4543870131122034,-0.7068079153644007,-1.6039941946612757,-3.310558859501974
-0.6485379377948206,-2.5111330191241663,-1.454015080128805,-0.7070000807391565,-1.604138199483053,-3.309852663670675
-0.649184528981344,-2.511348549519674,-1.4536193052874964,-0.7070720831500452,-1.6040304342852991,-3.3092058340655726
-0.6498678366290491,-2.5114687124835413,-1.4532955328570765,-0.7073000113116663,-1.6039584318744105,-3.3085466066943567
-0.6512096563922327,-2.5118401686297815,-1.4524677435504358,-0.7076476255999964,-1.6039345900165003,-3.307157580052511
-0.6519044081317347,-2.512019936238424,-1.4521072546588343,-0.7077553907977503,-1.6040542761432093,-3.3063910643206995
-0.6526473204242151,-2.512211624776022,-1.4517114798175257,-0.7080190817462366,-1.6038506666766565,-3.3057802359210413
-0.6533182303058069,-2.512367073689596,-1.4513276259051722,-0.7082112471209925,-1.6038983503924769,-3.305025641118185
-0.6547921339618128,-2.5127738157855433,-1.4504759947406214,-0.7086547056781214,-1.6037548224078577,-3.303528610860006
-0.6555107275592249,-2.512977902089254,-1.450104061757223,-0.7088106314288538,-1.6038745085345667,-3.3027144114123743
-0.6562417189227503,-2.5131333510028284,-1.449695889149801,-0.7090023199664515,-1.6037305037127894,-3.302103583012716
-0.6569965521441858,-2.5133255163775843,-1.4492400328265589,-0.7092421690570276,-1.6037786642657679,-3.3013489882098597
-0.6585186163531702,-2.5137208143817347,-1.4484122435199183,-0.7096980253802698,-1.6036589781390589,-3.299840037022726
-0.659309212361471,-2.513876740132467,-1.4480040709124964,-0.7099259535418909,-1.603802506123678,-3.299049202595846
-0.6600878874408167,-2.51410419145693,-1.4475606123553675,-0.7101057211505335,-1.603682819996969,-3.2983668486224573
-0.6607945601092737,-2.514320198689596,-1.4471285978900355,-0.7103574911700647,-1.6036108175860804,-3.2975521723376673
-0.6624363104449671,-2.514703098927633,-1.446324650441305,-0.7106927076922815,-1.6035268942462366,-3.2959116140948694
-0.6632512251483362,-2.514906708394186,-1.4458568731891077,-0.7108371893512171,-1.6036108175860804,-3.2952049414264124
-0.6639941374408167,-2.515134636555807,-1.4454487005816858,-0.7110407988177698,-1.6035507361041468,-3.2943666617022913
-0.6648204962359827,-2.5153496901141565,-1.4450410048114222,-0.7112329641925257,-1.6034672896014612,-3.2935760656939905
-0.6664016882525843,-2.5158050696002405,-1.4441412130938929,-0.7117241064654749,-1.6033833662616175,-3.291959349309103
-0.6672528425799769,-2.5160210768329065,-1.4436972776996058,-0.7119639555560511,-1.6034672896014612,-3.291145149861471
-0.668067757283346,-2.5162246862994593,-1.4432175795184534,-0.7121918837176722,-1.603335205708639,-3.290342632924215
-0.6688702742206019,-2.5164645353900355,-1.442749325429098,-0.7124198118792933,-1.603347126637594,-3.289492432271139
-0.6705597082721155,-2.5169318358050745,-1.4418256918536585,-0.7127912680255335,-1.6031912008868616,-3.287851874028341
-0.6713984648333948,-2.5171712080584925,-1.4413817564593714,-0.7130311171161097,-1.6032994429217737,-3.2869654337512415
-0.6721895376788538,-2.517374817525045,-1.4408538977252405,-0.7132833639727991,-1.6030834356891077,-3.286090914403097
-0.6731355826007288,-2.5176265875445765,-1.4403975645648401,-0.7134869734393519,-1.60321551958193,-3.285168711339132
-0.6748374144183558,-2.5180934111224573,-1.439413849507467,-0.7139785925494593,-1.6030595938311976,-3.283396307622091
-0.6758196989642542,-2.518285099660055,-1.438934628163473,-0.7142060438739222,-1.6031315962420862,-3.282522265111105
-0.6767185370074671,-2.518524948750631,-1.4383581320392054,-0.7144821325885218,-1.602879826222555,-3.281588141118185
-0.6776889006244105,-2.5188124815570276,-1.4378302733050745,-0.7146738211261194,-1.6029637495623987,-3.2806177775012415
-0.6797497908221644,-2.5192797819720667,-1.4367025534259241,-0.7152612845050257,-1.6028078238116663,-3.2786298433886927
-0.6808040777789515,-2.5194953123675745,-1.436150375996725,-0.7155130545245569,-1.6028440634356897,-3.2775521914111536
-0.6818345228778284,-2.5198190847979944,-1.4355509916888636,-0.7158129850970667,-1.6026762167560022,-3.276546065007345
-0.6829851309405726,-2.5200584570514124,-1.434951130543844,-0.7160046736346644,-1.6028197447406214,-3.2754204908954065
-0.6851890722857874,-2.520705525075094,-1.4336794058429163,-0.7165802160846155,-1.6026042143451136,-3.273144547139303
-0.6863635222064417,-2.5209811369525355,-1.433007542287008,-0.7169159094439905,-1.60254413286318,-3.271970812474386
-0.6876338163958948,-2.5213406721698206,-1.432347599660055,-0.7172873655902308,-1.6024482885943812,-3.270749632512228
-0.6888440291034144,-2.5216758886920374,-1.431711498891012,-0.7175510565387171,-1.6024602095233362,-3.2694440523730677
-0.691347901021139,-2.5223587195025843,-1.4302600065814417,-0.7182348410235804,-1.602412525807516,-3.26686937013735
-0.6926777998553675,-2.5226944128619593,-1.4294922987567347,-0.7185705343829554,-1.6022208372699183,-3.2655277887927454
-0.6939361731158655,-2.5230539480792444,-1.4288085142718714,-0.7189419905291956,-1.6022327581988733,-3.2642465273486536
-0.6953380743609827,-2.5234130064593714,-1.4280646483050745,-0.7192776838885706,-1.6022208372699183,-3.2629051844226282
-0.6979616324054163,-2.524083916340963,-1.4265525976764124,-0.719985310231344,-1.6021130720721644,-3.2601986567126673
-0.6993640104876917,-2.5244315306292933,-1.425748650227682,-0.720440689717428,-1.6019089857684534,-3.2588215509997767
-0.7007177511798304,-2.5247429052936,-1.42499286333193,-0.7207286993609827,-1.6020410696612757,-3.2574201265918177
-0.7021082083331507,-2.525126282368795,-1.4242008368121546,-0.7211244742022913,-1.6019089857684534,-3.2560909430133265
-0.7048514525042933,-2.5258215109454554,-1.422713581715719,-0.7218440214740198,-1.6018970648394983,-3.2532880941974085
-0.7062175909625452,-2.526144806538717,-1.421969238911764,-0.7221916357623499,-1.6017168203936976,-3.2519827524768274
-0.7075718084918421,-2.526480023060934,-1.4212496916400355,-0.7226231733905237,-1.601741139088766,-3.250605646763937
-0.7089255491839808,-2.5268033186541956,-1.4204815069781702,-0.7228873411761683,-1.6017168203936976,-3.249240223561422
-0.7115734259234827,-2.527510468159811,-1.4190180937396448,-0.723546330128805,-1.601645294819967,-3.2465813795672815
-0.7128437201129358,-2.5278223196612757,-1.4183219114886683,-0.7239897886859339,-1.6015132109271448,-3.24522835413088
-0.7141373793231409,-2.528193775807516,-1.4175904432879847,-0.7242782751666468,-1.6014774481402796,-3.24392277399172
-0.715407673512594,-2.5284932295428675,-1.416882340108053,-0.7245658079730433,-1.6015251318561,-3.2426653544055384
-0.7178524176227015,-2.529139820729391,-1.4155142943011683,-0.7251890341388147,-1.6014531294452112,-3.2401145140277308
-0.7190621534930628,-2.5294750372516077,-1.4148309866534632,-0.7255247274981897,-1.6013572851764124,-3.238869015370504
-0.7203205267535608,-2.5297868887530726,-1.4141467253314417,-0.7258604208575647,-1.6012256781207483,-3.2375996748553675
-0.7214825789081019,-2.530086342488424,-1.4135106245623987,-0.7261961142169397,-1.601285759602682,-3.2364020983325403
-0.7239154020892542,-2.5307214895831507,-1.4121792952166956,-0.7268317381488245,-1.6012614409076136,-3.234030548726217
-0.7251012961017054,-2.531081024800436,-1.4114835898028772,-0.7272031942950647,-1.6009858290301722,-3.232857052479879
-0.7262876669513147,-2.531368080769674,-1.4109070936786097,-0.7275150457965296,-1.6010578314410608,-3.231659714375631
-0.7274616400348108,-2.5316794554339808,-1.410187069569723,-0.7278268972979944,-1.6008661429034632,-3.230485979710714
-0.7298463026629847,-2.532290760670797,-1.4089039007769983,-0.7283666769610804,-1.6007464567767542,-3.22813851038088
-0.731020752583639,-2.5325663725482386,-1.4082678000079554,-0.7287018934832972,-1.6007102171527308,-3.2269049326526087
-0.7321947256671351,-2.532877747212545,-1.4076197783099573,-0.7290261427508753,-1.6006625334369105,-3.225755039845602
-0.7333572546588343,-2.53321344057192,-1.4069722334491175,-0.7293375174151819,-1.600518528615133,-3.2245574633227747
-0.7357652823077601,-2.5338600317584437,-1.4056881109820765,-0.7299492994891565,-1.600386921559469,-3.2221620718585413
-0.7369759718524378,-2.534219566975729,-1.4049561659442347,-0.7302725950824183,-1.6004346052752894,-3.2209048906909388
-0.7381857077227991,-2.534567181264059,-1.4042723814593714,-0.7306445280658167,-1.6003387610064905,-3.2197073141681116
-0.7394560019122522,-2.5349023977862757,-1.403576676045553,-0.7309921423541468,-1.6003268400775355,-3.2184975782977503
-0.7419365088092249,-2.535597626362936,-1.4021247068988245,-0.7315800825702112,-1.6001351515399378,-3.2160306612597864
-0.7431944052325647,-2.5359929243670862,-1.4013927618609827,-0.731903378163473,-1.6002309958087366,-3.214797083531515
-0.744488541279928,-2.5363405386554163,-1.400660816823141,-0.7322867552386683,-1.600039307271139,-3.21350342432131
-0.7457588354693812,-2.5366995970355433,-1.3999407927142542,-0.7326353232013147,-1.6001232306109827,-3.2122579256640833
-0.7484429518329065,-2.5374062697040003,-1.3985136190997522,-0.73334247270693,-1.5999673048602503,-3.2095752398120325
-0.7497251669513147,-2.5377538839923304,-1.3977215925799769,-0.7337263266192835,-1.6000631491290491,-3.208306137715475
-0.7510908285724085,-2.5381014982806605,-1.3970735708819788,-0.7340739409076136,-1.5998356978045862,-3.2069767157184046
-0.7524092833148401,-2.5384729544269007,-1.3962934652911585,-0.734481159840719,-1.5998714605914515,-3.2055395285235804
-0.7550571600543421,-2.539107624684469,-1.3948186079608362,-0.735117260609762,-1.5997274557696741,-3.202916924153463
-0.7563989798175257,-2.5394795576678675,-1.3941462675677698,-0.7354405562030237,-1.5997994581805628,-3.2015515009509485
-0.7577531973468226,-2.5398624579059046,-1.393426243458883,-0.7357762495623987,-1.59959584871401,-3.2002344767199915
-0.7590830961810511,-2.540161911641256,-1.3926823774920862,-0.7361720244037073,-1.5996678511248987,-3.198904816304342
-0.7616356054889124,-2.5408571402179163,-1.391254727040426,-0.7367833296405237,-1.5995000044452112,-3.196294609700338
-0.7630255858050745,-2.5412166754352015,-1.3905347029315394,-0.7370713392840784,-1.5994880835162562,-3.1949530283557337
-0.7642477194415491,-2.5415757338153284,-1.389838997517721,-0.737467114125387,-1.5992963949786585,-3.1937199274646204
-0.7655780951129358,-2.541875664387838,-1.389106575642721,-0.7378504912005823,-1.599379841481344,-3.192378346120016
-0.768130127583639,-2.5426061789142054,-1.387679402028219,-0.7384980360614222,-1.5992000738727015,-3.189803663884298
-0.7693403402911585,-2.542929474507467,-1.3869832197772425,-0.7387736479388636,-1.5990803877459925,-3.188486162816183
-0.7705867926227015,-2.543277088795797,-1.3862875143634241,-0.7391336599933069,-1.5989845434771937,-3.1872289816485804
-0.7718685309039515,-2.5436366240130823,-1.3855918089496058,-0.7394574324237269,-1.5990565458880823,-3.1859832445727747
-0.7742889563189905,-2.544271771107809,-1.384211842213766,-0.7401049772845667,-1.59892446199526,-3.183432404194967
-0.7755473295794886,-2.5445950667010706,-1.3836000601397913,-0.7404282728778284,-1.5988166967975062,-3.1821749846087855
-0.7767694632159632,-2.5449069182025355,-1.3828919569598597,-0.7408359686480921,-1.5987566153155726,-3.1810131708728235
-0.7779915968524378,-2.5452540556537073,-1.382195774708883,-0.7412074247943323,-1.5988166967975062,-3.1796839872943323
-0.7804124991046351,-2.545877281819479,-1.3809121290790003,-0.7418196837054651,-1.5986607710467737,-3.1772292296039026
-0.7816107908831995,-2.5462244192706507,-1.3801921049701136,-0.7421310583697718,-1.5985406080829065,-3.1760078112231653
-0.7828567663775843,-2.5465362707721155,-1.379495922719137,-0.7424667517291468,-1.5984810034381312,-3.174774233494894
-0.784102741871969,-2.5469077269183558,-1.3788121382342737,-0.7427781263934534,-1.5985167662249964,-3.173516575490133
-0.7865951696978968,-2.5475662390338343,-1.3774684111224573,-0.7434380690204065,-1.5983970800982874,-3.1710498968707483
-0.7878177801715296,-2.5479138533221644,-1.3767607847796839,-0.7437618414508265,-1.5982292334186,-3.1697922388659876
-0.7891114393817347,-2.548237148915426,-1.3760770002948206,-0.7440856138812464,-1.5982292334186,-3.168558661137716
-0.7903578917132776,-2.548572842274801,-1.375380818043844,-0.7444213072406214,-1.5983131567584437,-3.167372767125265
-0.7928741613971155,-2.549243752156393,-1.3739894072162073,-0.7451165358172815,-1.5982173124896448,-3.1648340860949915
-0.7941086927997034,-2.549579445515768,-1.3732450644122522,-0.7453802267657679,-1.598133389149801,-3.1635289827929896
-0.7953904310809534,-2.5498550573932093,-1.3726094404803675,-0.7456563154803675,-1.5980013052569788,-3.1623197237597864
-0.7966607252704065,-2.5502260367022913,-1.3719256559955042,-0.7459920088397425,-1.5980852285968226,-3.161086146031515
-0.7992132345782679,-2.5508368651019495,-1.3705218474017542,-0.7466633955584925,-1.5980013052569788,-3.1585233847247522
-0.8004716078387659,-2.5511844793902796,-1.3698137442218226,-0.7470229307757776,-1.5978215376483362,-3.1572657267199915
-0.801741902028219,-2.5514844099627894,-1.3691180388080042,-0.747298542653219,-1.5978577772723597,-3.156044069920675
-0.803023640309469,-2.551807705556051,-1.3683741728412073,-0.7476585547076624,-1.5978458563434046,-3.1547988096820276
-0.8055999914752405,-2.5524309317218226,-1.3669341246234339,-0.748390022908346,-1.5977619330035608,-3.1523318926440638
-0.806798283253805,-2.5527542273150843,-1.3662503401385706,-0.7486174742328089,-1.5976179281817835,-3.1510983149157923
-0.8080685774432581,-2.5530899206744593,-1.3655427137957972,-0.7489774862872522,-1.597666088734762,-3.149853054677145
-0.8093269507037562,-2.553412739430563,-1.3648102919207972,-0.749277416859762,-1.5974262396441858,-3.1486194769488733
-0.8118913809405726,-2.5540722052203577,-1.3634184042560022,-0.7500327269183558,-1.5973065535174769,-3.1460447947131556
-0.8131855169879358,-2.554431740437643,-1.3626988569842737,-0.7503445784198206,-1.5973661581622522,-3.144715134297506
-0.8144195715533655,-2.5547192732440394,-1.3619430700885218,-0.7506321112262171,-1.597198788319723,-3.1434336344348353
-0.8157017866717737,-2.5550549666034144,-1.3612349669085901,-0.7509916464435022,-1.5972345511065882,-3.1421049276935022
-0.8182061354266565,-2.5556777159320276,-1.3597949186908167,-0.7516873518573206,-1.5971744696246546,-3.139482323323385
-0.8195126692401331,-2.5560248533831995,-1.359062973652975,-0.7520225683795374,-1.5969350973712366,-3.1382246653186243
-0.8207586447345179,-2.556324307118551,-1.35840350786318,-0.7523711363421839,-1.596994702016012,-3.136919085179464
-0.8220647017108362,-2.556660000477926,-1.3577435652362269,-0.7526467482196253,-1.596875015889303,-3.135685745869772
-0.8245695273028772,-2.557354752217428,-1.3562796751605433,-0.7533538977252405,-1.596875015889303,-3.133111063634054
-0.825815502797262,-2.5576427618609827,-1.3556316534625452,-0.7537015120135706,-1.5966714064227503,-3.131889883671896
-0.8271458784686487,-2.5579898993121546,-1.3548997084247034,-0.7540133635150355,-1.5967429319964808,-3.13062030473818
-0.8283680121051233,-2.558253590260641,-1.3542278448687952,-0.7543252150165003,-1.5966351667987269,-3.1292787233935755
-0.8309205214129847,-2.5589121023761194,-1.3527758757220667,-0.755068604146139,-1.5966594854937952,-3.126715962086813
-0.832214657460348,-2.5592477957354944,-1.3520920912372034,-0.7553680578814905,-1.5964434782611292,-3.1254587809192103
-0.8334010283099573,-2.5596073309527796,-1.351396385823385,-0.7556679884540003,-1.5965035597430628,-3.1241655985461634
-0.8347190062152308,-2.5599549452411097,-1.3507245222674769,-0.7560036818133753,-1.596407715474264,-3.1228840986834925
-0.8371999899493616,-2.560553852711813,-1.349344555531637,-0.7566750685321253,-1.5963957945453089,-3.1203811804400843
-0.8384578863727015,-2.5609377066241663,-1.3486245314227503,-0.7569993177997034,-1.5961559454547327,-3.1191356817828577
-0.8396800200091761,-2.561249081288473,-1.3479769865619105,-0.7572267691241663,-1.5962517897235315,-3.1178904215442103
-0.8409140745746058,-2.5615838209735315,-1.3472684065448206,-0.7575624624835413,-1.5961201826678675,-3.1166210810290735
-0.8433707396136683,-2.5622552076922815,-1.3459246794330042,-0.7583177725421351,-1.5961559454547327,-3.114106003438131
-0.8445933500873011,-2.562626663838522,-1.3452170530902308,-0.758641544972555,-1.5958564917193812,-3.1128726641284388
-0.8458994070636194,-2.562902275715963,-1.3446052710162562,-0.7589891592608851,-1.5959880987750452,-3.1115437189685267
-0.8471100966082972,-2.5632498900042933,-1.3438971678363245,-0.7592771689044397,-1.5958197752581995,-3.110297981892721
-0.8496382872210901,-2.563920799885885,-1.3424814383136194,-0.7599604765521448,-1.5957239309894007,-3.107831064854757
-0.8509324232684534,-2.56425649324526,-1.341785732899801,-0.7603324095355433,-1.5955565611468714,-3.106513563786642
-0.8522270361529749,-2.5645673910724085,-1.3410895506488245,-0.7606318632708948,-1.5956280867206019,-3.1053159872638147
-0.8534968535052698,-2.56489068666567,-1.340370003377096,-0.7609437147723597,-1.5954483191119593,-3.104035202656881
-0.8559778372394007,-2.565550152455465,-1.3389537970172327,-0.7617114225970667,-1.5953887144671839,-3.1015198866473597
-0.8571999708758753,-2.565885368977682,-1.3382695356952112,-0.7620466391192835,-1.5952566305743616,-3.100262705479757
-0.8584941069232386,-2.566232983266012,-1.337550465260641,-0.7623584906207483,-1.5953286329852503,-3.0990055243121546
-0.8597763220416468,-2.566544834767477,-1.3368542830096644,-0.7626703421222132,-1.5951250235186976,-3.097759787236349
-0.8622449080096644,-2.567263428364889,-1.3354743162738245,-0.763305966054098,-1.5951131025897425,-3.0952091852771204
-0.8635147253619593,-2.567611042653219,-1.3347786108600062,-0.763653580342428,-1.5949810186969202,-3.0940592924701136
-0.8647616545306605,-2.567946259175436,-1.3340943495379847,-0.7640250364886683,-1.5951011816607874,-3.092706267033712
-0.8659599463092249,-2.5682814756976526,-1.3333867231952112,-0.7643368879901331,-1.5948970953570765,-3.091485087071554
-0.8685362974749964,-2.569012467061178,-1.3319948355304163,-0.7650802771197718,-1.5949214140521448,-3.0889819304095667
-0.8697345892535608,-2.569336239491598,-1.331311051045553,-0.7654283682452601,-1.5947774092303675,-3.0877485910998743
-0.871016804371969,-2.569683853779928,-1.330578629170553,-0.7657635847674769,-1.5948613325702112,-3.086503330861227
-0.8722394148456019,-2.5699947516070765,-1.3298829237567347,-0.7660635153399866,-1.594729248677389,-3.0852578322040003
-0.8747437636004847,-2.57072621980776,-1.328419033681051,-0.7666271368609827,-1.5947416464435022,-3.082634989415304
-0.8760140577899378,-2.5710490385638636,-1.3277471701251429,-0.7670224348651331,-1.5945857206927698,-3.0812938849078577
-0.8772843519793909,-2.5713728109942835,-1.3270028273211878,-0.767334286366598,-1.5946934858905237,-3.080036703740255
-0.8785303274737757,-2.5717085043536585,-1.3263428846942347,-0.7676704565631312,-1.5945618788348597,-3.07871920267214
-0.8811667601214808,-2.5724032560931605,-1.3249276320086878,-0.7683537642108362,-1.594597641621725,-3.0761688391314905
-0.8824132124530237,-2.5727747122394007,-1.3242314497577112,-0.7687614599810999,-1.5944178740130823,-3.0748751799212855
-0.8837431112872522,-2.5730741659747522,-1.3234995047198694,-0.7690609137164515,-1.594477955495016,-3.0735700766192835
-0.8849781195269983,-2.5734217802630823,-1.3228161970721644,-0.769348446522848,-1.5944178740130823,-3.072348419819967
-0.8875425497638147,-2.5741289297686976,-1.3214238325702112,-0.769996468220846,-1.5943577925311487,-3.069833580647604
-0.8887646834002894,-2.5744522253619593,-1.3207157293902796,-0.7703202406512659,-1.5941064993487757,-3.068564478551046
-0.889986817036764,-2.574799362813131,-1.32009202638735,-0.7706916967975062,-1.5942023436175745,-3.067246977482931
-0.8912695089923304,-2.575099293385641,-1.3193720022784632,-0.7710393110858362,-1.5941064993487757,-3.065929714833395
-0.8937857786761683,-2.5757816473590296,-1.3180277983294886,-0.7716510931598108,-1.5940101782428187,-3.063474957142965
-0.8950803915606897,-2.5761292616473597,-1.31728440919985,-0.7720349470721644,-1.593710724507467,-3.0621333757983606
-0.8963621298419397,-2.5764649550067347,-1.3165882269488733,-0.7724064032184046,-1.593806568776266,-3.060864512120382
-0.8976448217975062,-2.5767887274371546,-1.3159163633929651,-0.7727420965777796,-1.5937226454364222,-3.0596309343921106
-0.9001253286944788,-2.5774357954608362,-1.3144410292254847,-0.7732937971698206,-1.5937226454364222,-3.0570207277881067
-0.9013956228839319,-2.5777953306781214,-1.3138163725482386,-0.7736170927630823,-1.5935190359698694,-3.0557032267199915
-0.9026420752154749,-2.5780943075763147,-1.3130486647235315,-0.7739651838885706,-1.5935190359698694,-3.0544095675097864
-0.9039362112628382,-2.578465763722555,-1.3123648802386683,-0.7743728796588343,-1.593470875416891,-3.0530925432788294
-0.9064410368548792,-2.579148594533102,-1.3109610716449183,-0.775008503590719,-1.5934231917010706,-3.0505297819720667
-0.9076994101153772,-2.579484287892477,-1.3102648893939417,-0.7753918806659144,-1.593255345021383,-3.049248520527975
-0.9090054670916956,-2.579819981251852,-1.3095210234271448,-0.775787655507223,-1.5931595007525843,-3.0480032602893274
-0.9102399984942835,-2.5801671187030237,-1.3088372389422815,-0.7761114279376429,-1.5931833426104944,-3.0466740767108362
-0.9127681891070765,-2.5808141867267054,-1.3074091116534632,-0.7766988913165491,-1.5930994192706507,-3.0441234747516077
-0.9140990416156214,-2.5811498800860804,-1.3066652456866663,-0.7770703474627894,-1.5929916540728968,-3.0427818934070032
-0.9153927008258265,-2.5815208593951624,-1.3059571425067347,-0.7773821989642542,-1.592895809804098,-3.0414767901050013
-0.916687313710348,-2.581844154988424,-1.3051779905902308,-0.777694050465719,-1.5929558912860315,-3.0401950518237513
-0.9192402998553675,-2.582515541707174,-1.3037613073932093,-0.7782815138446253,-1.5928357283221644,-3.0376089254962366
-0.9205697218524378,-2.5828030745135706,-1.3030536810504358,-0.7786529699908655,-1.5926678816424769,-3.0363033453570765
-0.9218404928790491,-2.5831144491778772,-1.3023455778705042,-0.7789891401873987,-1.5926316420184534,-3.0350704828845423
-0.9230745474444788,-2.583437744771139,-1.3016260305987757,-0.779372517262594,-1.5927155653582972,-3.0338247458087366
-0.9256151358233851,-2.584109131489889,-1.3002460638629358,-0.7799361387835901,-1.592583958302633,-3.0313220659839075
-0.926861588154928,-2.5844443480121058,-1.2995379606830042,-0.7803195158587855,-1.5923922697650355,-3.0301361719714563
-0.928108040486471,-2.5847800413714808,-1.2987940947162073,-0.78058368364443,-1.5923803488360804,-3.0289509932147425
-0.9293306509601038,-2.5850794951068323,-1.298110310231344,-0.7809556166278284,-1.592344109212057,-3.0277655760394495
-0.9318111578570765,-2.585702721272604,-1.2967541853534144,-0.7815788427935999,-1.592236344014303,-3.025346342717306
-0.9331052939044397,-2.5860255400287073,-1.2961304823504847,-0.7819145361529749,-1.5920446554767054,-3.024160687123434
-0.9342916647540491,-2.586325470601217,-1.2954581419574183,-0.7822025457965296,-1.5921285788165491,-3.022975269948141
-0.9355381170855921,-2.586673084889547,-1.2948344389544886,-0.7825859228717249,-1.591900650654928,-3.0217300097094935
-0.9379470984088343,-2.5872719923602503,-1.2935264746295374,-0.783233944569723,-1.5918529669391077,-3.0192633310901087
-0.9391573111163538,-2.5876196066485804,-1.292818848286764,-0.7835572401629847,-1.591780964528219,-3.0180416742907923
-0.9403560797320765,-2.5878832975970667,-1.2921345869647425,-0.7838447729693812,-1.5918529669391077,-3.016796414052145
-0.941566292439596,-2.588242832814352,-1.2914627234088343,-0.7842167059527796,-1.5917208830462855,-3.0155749956714075
-0.9439871946917933,-2.5888055006610315,-1.290154759083883,-0.784828011189596,-1.5916731993304651,-3.0131197611438196
-0.9451974073993128,-2.589057270680563,-1.2894709745990198,-0.7851160208331507,-1.5915892759906214,-3.0119105021106165
-0.9464200178729456,-2.5893805662738245,-1.2888224760638636,-0.7854159514056605,-1.5916731993304651,-3.0107131640063685
-0.9476302305804651,-2.589644257222311,-1.2881034056292933,-0.7857754866229456,-1.5915291945086878,-3.009467665349142
-0.9500392119037073,-2.5903270880328577,-1.2868192831622522,-0.7864349524127405,-1.5916011969195765,-3.0070486704455774
-0.9512737433062952,-2.5906031767474573,-1.2860868612872522,-0.786722485219137,-1.591445271168844,-3.005838934575216
-0.9524958769427698,-2.590914551411764,-1.2854273954974573,-0.7870104948626917,-1.5915291945086878,-3.004641596470968
-0.9537184874164026,-2.591238323842184,-1.2847431341754358,-0.7873223463641565,-1.591433350239889,-3.0033605734454554
-0.9561994711505335,-2.5919206778155726,-1.2834351698504847,-0.7879460493670862,-1.591445271168844,-3.0009055773364466
-0.9574573675738733,-2.5922682921039026,-1.2827757040606897,-0.788269344960348,-1.591301743184225,-2.99966007867922
-0.9586203734027308,-2.5925920645343226,-1.2821272055255335,-0.7885454336749476,-1.5913975874530237,-2.998355213795797
-0.9598663488971155,-2.5929272810565394,-1.281407658253805,-0.7889288107501429,-1.591301743184225,-2.9971216360675257
-0.9622514883624476,-2.593550507222311,-1.2800758520709437,-0.7896602789508265,-1.591301743184225,-2.994666639958517
-0.9634140173541468,-2.5938738028155726,-1.2793915907489222,-0.7899363676654261,-1.5910857359515589,-2.993481461201803
-0.9646123091327112,-2.5941856543170374,-1.2786958853351038,-0.7902000586139124,-1.5911100546466272,-2.9922598044024866
-0.9657867590533655,-2.5944727102862757,-1.2780116240130823,-0.7905476729022425,-1.5911458174334925,-2.991110388432638
-0.9680998961078089,-2.5950477758990687,-1.2767518202411097,-0.7911952177630823,-1.5910261313067835,-2.988763395939962
-0.9692023436175745,-2.5953596274005335,-1.2760918776141565,-0.7914946714984339,-1.5908220450030726,-2.9876256624804896
-0.9703286329852503,-2.5956953207599085,-1.2755158583270472,-0.791722599660055,-1.5909059683429163,-2.986499849949972
-0.9713953177081507,-2.595982853566305,-1.2749040762530726,-0.7919982115374964,-1.5907142798053187,-2.9854584375964563
-0.9734810034381312,-2.596557919179098,-1.2737043539630335,-0.7925499121295374,-1.590630356465475,-2.9833505789386194
-0.9744752089129847,-2.596809689198629,-1.2731640974627894,-0.7929099241839808,-1.5904987494098108,-2.9823570887195032
-0.9755180517779749,-2.5970729033099573,-1.2726481596576136,-0.7931492964373987,-1.5905464331256312,-2.981374804173605
-0.9764292875873011,-2.5973485151873987,-1.2721203009234827,-0.7933533827411097,-1.5903309027301233,-2.98045260110964
-0.9781668821917933,-2.597875420247213,-1.2711966673480433,-0.7937849203692835,-1.5903189818011683,-2.978692595158712
-0.979041878377096,-2.598091427479879,-1.2707284132586878,-0.7939770857440394,-1.5902231375323694,-2.9777944723712366
-0.9797967115985315,-2.598306957875387,-1.270308796559469,-0.7942283789264124,-1.590295139943258,-2.9770637194262903
-0.9806121031390589,-2.598522488270895,-1.2698529402362269,-0.7944200674640101,-1.5901153723346155,-2.9762616793261927
-0.9820736090289515,-2.5989421049701136,-1.269024674092428,-0.7948520819293421,-1.5901392141925257,-2.974740807210104
-0.9827926794635218,-2.5991457144366663,-1.2686408201800745,-0.795056168233053,-1.5900433699237269,-2.974057976399557
-0.9835122267352503,-2.5993016401873987,-1.2682564894305628,-0.7952240149127405,-1.590174976979391,-2.9733992258654993
-0.984171215687887,-2.5995052496539515,-1.2678607145892542,-0.7954276243792933,-1.589935604725973,-2.972717348729269
-0.9854539076434534,-2.5998523871051233,-1.267176930104391,-0.7957394758807581,-1.5900433699237269,-2.9713638464557093
-0.9860647360431116,-2.5999963919269007,-1.266756836568014,-0.7958949247943323,-1.5898993651019495,-2.970764938985006
-0.9867480436908167,-2.6001279989825647,-1.266433064137594,-0.7961352507220667,-1.5900190512286585,-2.970178190861837
-0.9873350302325647,-2.6003077665912073,-1.2660968939410608,-0.7963030974017542,-1.5898516813861292,-2.969520155583517
-0.9885695616351526,-2.600607697163717,-1.265364948903219,-0.7966025511371058,-1.5899112860309046,-2.9683104197131556
-0.989180866871969,-2.6007631460772913,-1.2650054136859339,-0.7968304792987269,-1.589743439351217,-2.967651669179098
-0.9898160139666956,-2.600930992756979,-1.2646687666522425,-0.7968786398517054,-1.589839283620016,-2.9671128431903284
-0.9904516378985804,-2.6011226812945765,-1.264284912739889,-0.7971184889422815,-1.5897796789752405,-2.966466252003805
-0.9917095343219202,-2.6014345327960413,-1.2635768095599573,-0.797394100819723,-1.5897915999041956,-2.9652445952044886
-0.9923923651324671,-2.601602379475729,-1.2632411162005823,-0.7974541823016565,-1.5896113554583948,-2.964562002812521
-0.9930279890643519,-2.6018059889422815,-1.2628691832171839,-0.7977059523211878,-1.5897076765643519,-2.963856045399801
-0.9937351385699671,-2.6019375959979456,-1.2625210920916956,-0.7977774778949183,-1.58962327638735,-2.963269058858053
-0.9950650374041956,-2.602356259022848,-1.2617648283587855,-0.7981494108783167,-1.5896833578692835,-2.9618917147265833
-0.9957483450519007,-2.6025121847735804,-1.2613690535174769,-0.7984493414508265,-1.5894797484027308,-2.9612448851214808
-0.996467415486471,-2.602668110524313,-1.2610209623919886,-0.7984851042376917,-1.5895512739764612,-2.960538927708761
-0.9971507231341761,-2.6028717199908655,-1.26062518755068,-0.7986887137042444,-1.5894797484027308,-2.959844414387838
-0.9985407034503382,-2.6032431761371058,-1.2598932425128382,-0.7989886442767542,-1.589503590260641,-2.958430830632345
-0.9992001692401331,-2.6034229437457483,-1.259557072316305,-0.7990849653827112,-1.5892637411700647,-2.957665030156271
-0.99988300005068,-2.603590790425436,-1.2591493765460413,-0.7993605772601526,-1.5893119017230433,-2.957006279622213
-1.000542465840475,-2.6037943998919886,-1.2587769667254847,-0.7995646635638636,-1.589288059865133,-2.9563835302936
-1.0018485228167933,-2.6041420141803187,-1.2580693403827112,-0.8000319639789026,-1.5893238226519983,-2.954970423375265
-1.00250751176943,-2.604309860860006,-1.2576854864703577,-0.800295654927389,-1.5891440550433558,-2.9543476740466517
-1.0031550566302698,-2.604513470326559,-1.2573736349688929,-0.8003433386432093,-1.589179817830221,-2.953665320073263
-1.0038021246539515,-2.6046693960772913,-1.2570131460772913,-0.8005717436419886,-1.589167896901266,-2.953054491673605
-1.0050848166095179,-2.6050050894366663,-1.2563179175006312,-0.80084735551943,-1.5892041365252894,-2.9517372290240687
-1.0056236425982874,-2.6051843802081507,-1.255981747304098,-0.8008831183062952,-1.589048210774557,-2.9511025587665003
-1.0062349478351038,-2.605328385029928,-1.25568133989443,-0.8010748068438929,-1.5890958944903772,-2.9505637327777308
-1.0068581740008753,-2.605459992085592,-1.2553218046771448,-0.8012188116656702,-1.5890839735614222,-2.950000826512472
-1.007937256489889,-2.6057356039630335,-1.2546737829791468,-0.8015788237201136,-1.589072052632467,-2.9488633314715784
-1.008416477833883,-2.605879608784811,-1.254385773335592,-0.8017585913287562,-1.588952366505758,-2.948336426411764
-1.0089557806598108,-2.6059392134295862,-1.2541216055499476,-0.801854435597555,-1.5889042059527796,-2.947869364415304
-1.0094588438617151,-2.6060951391803187,-1.2538216749774378,-0.8019502798663538,-1.5890124479876917,-2.947306458150045
-1.0103820005999964,-2.606358830128805,-1.2532818953143519,-0.8021300474749964,-1.588952366505758,-2.946420733128683
-1.0108731428729456,-2.606466595326559,-1.2530415693866175,-0.8023818174945276,-1.5888446013080042,-2.945977512990133
-1.0113166014300745,-2.606574360524313,-1.252801243458883,-0.802321736012594,-1.5887845198260706,-2.9454625288592737
-1.011712376271383,-2.6066821257220667,-1.25254995027651,-0.8025496641742151,-1.5889042059527796,-2.945031468068258
-1.0125153700457972,-2.6068857351886194,-1.2520936171161097,-0.8027299086200159,-1.5888202826129358,-2.9441095034228724
-1.0129111448871058,-2.6069935003863733,-1.2518661657916468,-0.8028853575335901,-1.5887845198260706,-2.943702284489767
-1.0133302847491663,-2.6071255842791956,-1.2516616026507776,-0.8030174414264124,-1.5887005964862269,-2.9433072249041956
-1.0137255827533167,-2.607185188923971,-1.2514575163470667,-0.8032091299640101,-1.5888202826129358,-2.942972008381979
-1.0144088904010218,-2.607401196156637,-1.251061741505758,-0.8034847418414515,-1.588736359273092,-2.9422293345080774
-1.0147927443133753,-2.607508961354391,-1.2508576552020472,-0.8034608999835413,-1.5887487570392054,-2.941906277333395
-1.0151761213885706,-2.6076048056231897,-1.2506659666644495,-0.8036044279681605,-1.588604752217428,-2.94157058397402
-1.015463654194967,-2.6076887289630335,-1.2505338827716272,-0.803629223500387,-1.588712517415182,-2.941235367451803
-1.0160988012896937,-2.6078441778766077,-1.2501500288592737,-0.8038089911090296,-1.5886285940753382,-2.940529171620504
-1.0164225737201136,-2.607975784932272,-1.2500298658954065,-0.8037851492511194,-1.5886886755572718,-2.940241877232687
-1.01671010652651,-2.6080239454852503,-1.2498257795916956,-0.8037851492511194,-1.5885208288775843,-2.9399662653552454
-1.0170095602618616,-2.608084026967184,-1.2497299353228968,-0.8039172331439417,-1.588712517415182,-2.939690653477804
-1.0175970236407679,-2.608251396809713,-1.2493942419635218,-0.8040726820575159,-1.5885208288775843,-2.939188067113058
-1.0178006331073206,-2.608335320149557,-1.249225918446676,-0.8040011564837855,-1.5886529127704065,-2.9389482180224817
-1.0180404821978968,-2.6083834807025355,-1.2490938345538538,-0.8041685263263147,-1.588485066090719,-2.9386726061450403
-1.0182798544513147,-2.6084311644183558,-1.2489741484271448,-0.8041089216815394,-1.588592831288473,-2.93845779100527
-1.0187233130084437,-2.6085270086871546,-1.2487219015704554,-0.8041566053973597,-1.5884488264666956,-2.93801457086672
-1.0189150015460413,-2.608563248311178,-1.2486498991595667,-0.8044560591327112,-1.5885809103595179,-2.937786881123678
-1.0190828482257288,-2.6086233297931116,-1.2485182921039026,-0.8042405287372034,-1.588473145161764,-2.9375951925860804
-1.019214932118551,-2.6087191740619105,-1.2484219709979456,-0.8045280615435999,-1.588485066090719,-2.937403742467062
-1.0195863882647913,-2.6087310949908655,-1.248265568410055,-0.8045762220965784,-1.588376824055807,-2.9370203653918665
-1.0197065512286585,-2.6087668577777308,-1.2482059637652796,-0.8045762220965784,-1.588592831288473,-2.9368768374072474
-1.0198381582843226,-2.608790699635641,-1.2480738798724573,-0.804539982472555,-1.5884249846087855,-2.936697069798605
-1.0199821631061,-2.608790699635641,-1.2480981985675257,-0.8047316710101526,-1.588485066090719,-2.936697069798605
-1.0201018492328089,-2.6088507811175745,-1.2479780356036585,-0.8047803084002894,-1.588376824055807,-2.9365413824664515
-1.0202096144305628,-2.6088388601886194,-1.2480018774615687,-0.8045762220965784,-1.5885327498065394,-2.936481539403097
-1.0202458540545862,-2.6088507811175745,-1.2479537169085901,-0.8047440687762659,-1.5883892218219202,-2.9364333788501185
-1.0202816168414515,-2.6088865439044397,-1.2479899565326136,-0.8047683874713343,-1.5884011427508753,-2.9364455381976526
-1.0202096144305628,-2.6088507811175745,-1.248014275227682,-0.8047683874713343,-1.5883892218219202,-2.936481539403097
-1.0201857725726526,-2.6088746229754847,-1.248014275227682,-0.8048041502581995,-1.588376824055807,-2.936505381261007
-1.0202339331256312,-2.6088746229754847,-1.248014275227682,-0.8047803084002894,-1.5883649031268519,-2.936493460332052
-1.0201857725726526,-2.6088865439044397,-1.248014275227682,-0.8047440687762659,-1.588376824055807,-2.936493460332052
-1.0201976935016077,-2.6088627020465296,-1.2479780356036585,-0.8047440687762659,-1.5883172194110315,-2.936481539403097
-1.0201738516436976,-2.6088507811175745,-1.248026196156637,-0.8047316710101526,-1.5883649031268519,-2.936493460332052
-1.0201857725726526,-2.608898941670553,-1.2480018774615687,-0.8047803084002894,-1.5883529821978968,-2.936517302189962
-1.0201976935016077,-2.6088865439044397,-1.2480018774615687,-0.8047803084002894,-1.588376824055807,-2.936505381261007
-1.0201976935016077,-2.6088865439044397,-1.248026196156637,-0.8047683874713343,-1.5883529821978968,-2.936469380055563
-1.0201976935016077,-2.6088627020465296,-1.2479899565326136,-0.8047683874713343,-1.5883529821978968,-2.936481539403097
-1.0201738516436976,-2.6088507811175745,-1.248038117085592,-0.8047803084002894,-1.5883529821978968,-2.936493460332052
-1.020222012196676,-2.6088865439044397,-1.248014275227682,-0.8048041502581995,-1.5883649031268519,-2.936469380055563
-1.0201976935016077,-2.6088746229754847,-1.2479899565326136,-0.8048041502581995,-1.5883649031268519,-2.936505381261007
-1.0201857725726526,-2.608898941670553,-1.248026196156637,-0.8048041502581995,-1.5883529821978968,-2.936469380055563
-1.0201976935016077,-2.6088746229754847,-1.2480500380145472,-0.804852310811178,-1.5883529821978968,-2.936481539403097
-1.0201857725726526,-2.608898941670553,-1.2480018774615687,-0.8048761526690882,-1.5883892218219202,-2.936481539403097
-1.0201976935016077,-2.6088627020465296,-1.248014275227682,-0.8049243132220667,-1.588376824055807,-2.9364574591266077
-1.0202096144305628,-2.6088627020465296,-1.2480018774615687,-0.8048999945269983,-1.5883529821978968,-2.936493460332052
-1.0201738516436976,-2.6088507811175745,-1.2479780356036585,-0.8048761526690882,-1.588376824055807,-2.9364574591266077
-1.0201857725726526,-2.6088507811175745,-1.248026196156637,-0.8049119154559534,-1.588376824055807,-2.936505381261007
-1.0201738516436976,-2.6088746229754847,-1.2480018774615687,-0.8048880735980433,-1.5883410612689417,-2.936481539403097
-1.0202458540545862,-2.6088507811175745,-1.2479899565326136,-0.8048642317401331,-1.5883410612689417,-2.936505381261007
-1.0201976935016077,-2.6088627020465296,-1.248014275227682,-0.8048041502581995,-1.5883649031268519,-2.9365413824664515
-1.0201619307147425,-2.6088507811175745,-1.2480500380145472,-0.8048279921161097,-1.5883649031268519,-2.9365533033954065
-1.0200780073748987,-2.6088269392596644,-1.2480862776385706,-0.8047803084002894,-1.5883649031268519,-2.936697069798605
-1.02000600496401,-2.6088269392596644,-1.2481220404254358,-0.8047197500811976,-1.5883892218219202,-2.936697069798605
-1.0199220816241663,-2.6088388601886194,-1.2481702009784144,-0.8046482245074671,-1.5883649031268519,-2.936733071004049
-1.0198500792132776,-2.6088388601886194,-1.2481702009784144,-0.8046000639544886,-1.5883649031268519,-2.936805073414938
-1.0195863882647913,-2.608790699635641,-1.2483380476581019,-0.8045881430255335,-1.588376824055807,-2.9370084444629114
-1.0194905439959925,-2.608790699635641,-1.2483981291400355,-0.8044684568988245,-1.588376824055807,-2.9371281305896204
-1.0192988554583948,-2.608778778706686,-1.2484944502459925,-0.8044322172748011,-1.5883892218219202,-2.9373679796801966
-1.0191310087787073,-2.6087549368487757,-1.2486379782306116,-0.8045042196856897,-1.5883529821978968,-2.93757135072817
-1.0187113920794886,-2.608682934437887,-1.2487700621234339,-0.8043726126300257,-1.5884249846087855,-2.938026730214254
-1.0184715429889124,-2.6086109320269983,-1.2489622274981897,-0.8041685263263147,-1.588376824055807,-2.938265864049093
-1.0182440916644495,-2.608551327382223,-1.2490699926959437,-0.8042886892901819,-1.5883892218219202,-2.9385531584369105
-1.0179923216449183,-2.6085031668292444,-1.2492378393756312,-0.8040369192706507,-1.5884249846087855,-2.9388163725482386
-1.0174053351031702,-2.6082995573626917,-1.249537769948141,-0.8039410750018519,-1.5884011427508753,-2.9394152800189417
-1.0171054045306605,-2.608215634022848,-1.2497056166278284,-0.8040249983416956,-1.5884369055377405,-2.9397504965411585
-1.0167577902423304,-2.608119789754049,-1.2499097029315394,-0.8038809935199183,-1.5885565916644495,-2.940050188695089
-1.016374413167135,-2.6080239454852503,-1.2500656286822718,-0.8038690725909632,-1.588473145161764,-2.940397326146261
-1.0156195799456995,-2.607784096394674,-1.2504738012896937,-0.8035805861102503,-1.5885446707354944,-2.9411757628070276
-1.0152118841754358,-2.6076887289630335,-1.2507379690753382,-0.8036168257342737,-1.5886648336993616,-2.9416185061084192
-1.0148404280291956,-2.607544724141256,-1.250965420399801,-0.8034489790545862,-1.5885089079486292,-2.9419778029071253
-1.0144208113299769,-2.607425038014547,-1.2511456648456019,-0.8034608999835413,-1.5886405150042933,-2.9423492590533655
-1.0135100523578089,-2.6072214285479944,-1.2516258398639124,-0.8032091299640101,-1.5886405150042933,-2.9432953039752405
-1.01306659380068,-2.607089344655172,-1.2518780867206019,-0.8031495253192347,-1.5887606779681605,-2.9436548391925257
-1.0125754515277308,-2.606957737599508,-1.2521541754352015,-0.8028977552997034,-1.5886285940753382,-2.944085423146383
-1.0121076742755335,-2.606825653706686,-1.252441708241598,-0.8028734366046351,-1.5887725988971155,-2.9446123282061976
-1.0112326780902308,-2.606622044240133,-1.2528975645648401,-0.8025019804583948,-1.5887005964862269,-2.945510450993673
-1.010693375264303,-2.606478516255514,-1.2531493345843714,-0.8022740522967737,-1.5888446013080042,-2.946061436329977
-1.010226074849264,-2.6064189116107386,-1.2534497419940394,-0.80219012895693,-1.5886767546283167,-2.9466002623187464
-1.009674374257223,-2.6062148253070276,-1.2537615934955042,-0.8019502798663538,-1.5888565222369593,-2.947054926549093
-1.0087164084063929,-2.6059873739825647,-1.2543137709247034,-0.8017829100238245,-1.5888326803790491,-2.948085133229391
-1.0082128683673304,-2.605879608784811,-1.2546380201922815,-0.8016627470599573,-1.5888446013080042,-2.948588196431295
-1.0076616446124476,-2.6056998411761683,-1.254925552998678,-0.8015549818622034,-1.5887487570392054,-2.9491270224200647
-1.0071218649493616,-2.605579678212301,-1.2552254835711878,-0.8013628164874476,-1.588940445576803,-2.9496775309192103
-1.0060671011554163,-2.605340305958883,-1.2558496634112757,-0.800978962575094,-1.5889762083636683,-2.950707499180929
-1.0055277983294886,-2.6051605383502405,-1.2561858336078089,-0.8008230368243616,-1.5888922850238245,-2.9512582460986536
-1.0049050490008753,-2.6050408522235315,-1.2564852873431605,-0.8006675879107874,-1.588928524647848,-2.9518571535693567
-1.0043895880328577,-2.604884926472799,-1.2568214575396937,-0.8004878203021448,-1.5890243689166468,-2.9524436632739466
-1.003166977559225,-2.6046093145953577,-1.2574694792376917,-0.8002474943744105,-1.5890362898456019,-2.9536412397967737
-1.0025556723224085,-2.6044657866107386,-1.25781757036318,-0.8000319639789026,-1.589060131703512,-2.954228226338522
-1.0019801298724573,-2.604286019002096,-1.2581537405597132,-0.7999241987811487,-1.5889881292926233,-2.9547911326037806
-1.0013693014727991,-2.6041420141803187,-1.258465592061178,-0.7997201124774378,-1.5891321341144007,-2.9553895632373255
-1.0001471678363245,-2.603806797658102,-1.2591493765460413,-0.7993128935443323,-1.5891321341144007,-2.956658665333883
-0.9995353857623499,-2.6036627928363245,-1.2594974676715296,-0.7990849653827112,-1.5891440550433558,-2.9572935740100306
-0.9989002386676233,-2.603471104298727,-1.2599051634417933,-0.7988565603839319,-1.5891321341144007,-2.9577963987933558
-0.9982531706439417,-2.6032913366900843,-1.2602294127093714,-0.7986767927752894,-1.5892756620990198,-2.9585028330432337
-0.9969590345965784,-2.6028955618487757,-1.2609971205340784,-0.7983410994159144,-1.5892756620990198,-2.9598923365222376
-0.9962995688067835,-2.6027401129352015,-1.2613089720355433,-0.7981851736651819,-1.589288059865133,-2.960551087056295
-0.9956286589251917,-2.6025360266314905,-1.26170522371401,-0.7979934851275843,-1.5892756620990198,-2.9612448851214808
-0.994885269795553,-2.6023924986468714,-1.262113396321432,-0.7978137175189417,-1.589395825062887,-2.9619277159320276
-0.9934952894793909,-2.6020572821246546,-1.262881104146139,-0.7973821798907679,-1.5894196669207972,-2.9633050600634974
-0.9927638212787073,-2.601865593587057,-1.2632773558246058,-0.7971304098712366,-1.5894554297076624,-2.964022938405172
-0.9920209089862269,-2.6016739050494593,-1.2636850515948694,-0.7969263235675257,-1.5894315878497522,-2.96468168893923
-0.9913261572467249,-2.60150653520693,-1.2640813032733362,-0.7967703978167933,-1.5895994345294397,-2.965400520955221
-0.9898517767535608,-2.6010988394366663,-1.2648847738849085,-0.7963746229754847,-1.5895755926715296,-2.9668734709369105
-0.9891327063189905,-2.600942913685934,-1.2653048674212855,-0.7962310949908655,-1.5896957556353968,-2.967567745839254
-0.9884136358844202,-2.600727383290426,-1.265700642262594,-0.7960026899920862,-1.5895755926715296,-2.9683104197131556
-0.9876702467547815,-2.6005356947528284,-1.266108814870016,-0.7957513968097132,-1.5897915999041956,-2.969076697026388
-0.9861486593829554,-2.600164238606588,-1.266984764729635,-0.7952960173236292,-1.589743439351217,-2.9705496470080774
-0.9853575865374964,-2.5999963919269007,-1.2673686186419886,-0.7950800100909632,-1.5898755232440394,-2.9712558428393763
-0.9845784346209925,-2.599804703389303,-1.2678726355182093,-0.7949002424823206,-1.589743439351217,-2.9719985167132776
-0.9838359991656702,-2.5996249357806605,-1.268268887196676,-0.7946723143206995,-1.5898993651019495,-2.972873036061422
-0.9821937719928187,-2.599217716847555,-1.2691085974322718,-0.7942526976214808,-1.5899112860309046,-2.974429432545797
-0.98145038286318,-2.5990737120257776,-1.2696364561664026,-0.7940247694598597,-1.5900314489947718,-2.9751957098590296
-0.980624024068014,-2.598893944417135,-1.2700446287738245,-0.7937849203692835,-1.5898755232440394,-2.9759743849383753
-0.9798205534564417,-2.598642651234762,-1.2704642454730433,-0.7935450712787073,-1.5900071302997034,-2.9768479506122034
-0.9781907240497034,-2.598283116017477,-1.271388355885641,-0.7931492964373987,-1.5899713675128382,-2.9784887472735804
-0.9774120489703577,-2.5980551878558558,-1.2717965284930628,-0.7929218451129358,-1.590186897908346,-2.979278866444723
-0.9766090551959437,-2.597839657460348,-1.2723000685321253,-0.7927659193622034,-1.5900314489947718,-2.9801769892321985
-0.975745979939596,-2.5975759665118616,-1.2727325598346155,-0.7925499121295374,-1.5901630560504358,-2.981051508580343
-0.9740560690509241,-2.597144905720846,-1.2736080328570765,-0.7920463720904749,-1.5901392141925257,-2.9827638308154505
-0.9732535521136683,-2.5969651381122034,-1.274076286946432,-0.7917464415179651,-1.5902708212481897,-2.9835899511920374
-0.9723780790912073,-2.5967257658587855,-1.2745679060565394,-0.7915423552142542,-1.590198818837301,-2.984488312398092
-0.9715030829059046,-2.596450153981344,-1.27504808107485,-0.7913268248187464,-1.5903309027301233,-2.9853385130511683
-0.9697535673724573,-2.59597093263735,-1.2760079542743128,-0.7908356825457972,-1.5903189818011683,-2.987182680760519
-0.9688547293292444,-2.595766846333639,-1.2765000502215784,-0.7905595938311976,-1.5904386679278772,-2.988140646611349
-0.9678719679461878,-2.595515553151266,-1.2770040670977991,-0.7902959028827112,-1.590390984212057,-2.9890506903277796
-0.9669254461871546,-2.5952757040606897,-1.2775443235980433,-0.7899602095233362,-1.5905945936786097,-2.99003249803652
-0.9649360815631312,-2.594700638447897,-1.2787078062640589,-0.7894685904132288,-1.5906184355365198,-2.992044512425558
-0.9639413992511194,-2.5944250265704554,-1.2792838255511683,-0.7892282644854944,-1.5905945936786097,-2.993038002644674
-0.9628503958331507,-2.594149414693014,-1.2799318472491663,-0.7889645735370081,-1.590654198323385,-2.9941397348987024
-0.9617603460894983,-2.5938618818866175,-1.2804959456073206,-0.7885692755328577,-1.5907862822162073,-2.995218102131979
-0.9594233671771448,-2.593311134968893,-1.2818034330951136,-0.787933651600973,-1.5908940474139612,-2.9975407759295862
-0.9582961241351526,-2.592987362538473,-1.2824514547931116,-0.7876218000995081,-1.590846363698141,-2.9987743536578577
-0.9570377508746546,-2.5927117506610315,-1.2831113974200647,-0.7872737089740198,-1.5910018126117151,-2.9999476114856165
-0.95581561723818,-2.592424217854635,-1.2838314215289515,-0.7868784109698694,-1.5909422079669397,-3.0012052694903772
-0.9532387892352503,-2.5917890707599085,-1.2852113882647913,-0.786267105733053,-1.5911577383624476,-3.0038276354419153
-0.9519684950457972,-2.5914419333087366,-1.2859552542315882,-0.7859070936786097,-1.5910738150226038,-3.0051451365100306
-0.9505904356585901,-2.591142002736227,-1.2866633574115198,-0.7855356375323694,-1.5912774244891565,-3.0064497629748743
-0.9492843786822718,-2.5907705465899866,-1.2874310652362269,-0.7851517836200159,-1.5911815802203577,-3.007827345524923
-0.946575943623678,-2.5900877157794397,-1.2889192740069788,-0.7843845526324671,-1.5913375059710901,-3.010449473057882
-0.9451854864703577,-2.5897401014911097,-1.2896626631366175,-0.7840607802020472,-1.5912535826312464,-3.011850897465841
-0.9438074270831507,-2.5894044081317347,-1.2904790083514612,-0.7836292425738733,-1.5914095083819788,-3.013155762349264
-0.9424412886248987,-2.5890215078936976,-1.2911389509784144,-0.783245865498678,-1.5914095083819788,-3.014569107686178
-0.9396966139422815,-2.588374439870016,-1.2927468458758753,-0.7825377623187464,-1.5915291945086878,-3.01729923883547
-0.9383185545550745,-2.5880029837237757,-1.2934783140765589,-0.7821663061725062,-1.5914571920977991,-3.01872426668276
-0.9370000998126429,-2.587667767201559,-1.2942703405963343,-0.7817471663104456,-1.5916131178485315,-3.02002984682192
-0.9356339613543909,-2.587355915700094,-1.2950623671161097,-0.7813752333270472,-1.5916131178485315,-3.0214064756976526
-0.9330094496356409,-2.5866969267474573,-1.2965148130999964,-0.7806437651263636,-1.5918048063861292,-3.0240052382098597
-0.9317153135882776,-2.5863850752459925,-1.29724628130068,-0.7802355925189417,-1.5917452017413538,-3.0252743403064173
-0.9304087797748011,-2.586073700581686,-1.2980025450335901,-0.7798641363727015,-1.591888729725973,-3.026543919240133
-0.9291747252093714,-2.585714642201559,-1.298662010823385,-0.7795646826373499,-1.5918529669391077,-3.027813498173849
-0.9266579786883753,-2.5850918928729456,-1.300065819417135,-0.778905216847555,-1.5920565764056605,-3.0302200953113
-0.9254596869098108,-2.5847800413714808,-1.3007739225970667,-0.7785690466510218,-1.5920208136187952,-3.0314298311816614
-0.9242733160602015,-2.5844085852252405,-1.3014338652240198,-0.778149429951803,-1.5921881834613245,-3.0326152483569544
-0.9230626265155237,-2.584097210560934,-1.3020818869220179,-0.7778738180743616,-1.5920804182635706,-3.0337887446032923
-0.9206660429583948,-2.5834739843951624,-1.3034380117999476,-0.7772744337665003,-1.5922721068011683,-3.0361953417407435
-0.9194915930377405,-2.5831626097308558,-1.3040860334979456,-0.7769025007831019,-1.5924642721759241,-3.037333075200216
-0.9183409849749964,-2.582838837300436,-1.3046734968768519,-0.7765072027789515,-1.5924161116229456,-3.0385668913470667
-0.917154614125387,-2.5825632254229944,-1.3053935209857386,-0.7761591116534632,-1.5925238768206995,-3.039788548146383
-0.9148533979998987,-2.5818923155414026,-1.3066414038287562,-0.775583569203512,-1.592572037373678,-3.042159382496969
-0.9136551062213343,-2.581592861806051,-1.3073013464557093,-0.7752001921283167,-1.592776123677389,-3.0434046427356165
-0.9124568144427698,-2.5812576452838343,-1.3079856077777308,-0.7749002615558069,-1.592691723500387,-3.044626061116354
-0.9112823645221155,-2.580970112477438,-1.3086450735675257,-0.7745168844806116,-1.5929315725909632,-3.0458834807025355
-0.9088614622699183,-2.5803712050067347,-1.3099530378924769,-0.7738330999957483,-1.5929558912860315,-3.048326079045431
-0.9076631704913538,-2.5800474325763147,-1.31061298051943,-0.7734854857074183,-1.5929439703570765,-3.0495715777026575
-0.9064286390887659,-2.5797837416278284,-1.3112967650042933,-0.7731135527240198,-1.593015495930807,-3.0508292357074183
-0.9051826635943812,-2.5794604460345667,-1.3119567076312464,-0.772778336201803,-1.5930874983416956,-3.0520628134356897
-0.90265399614443,-2.578812901173727,-1.3133366743670862,-0.7721307913409632,-1.5932076613055628,-3.05449349084963
-0.901407543812887,-2.57847768465151,-1.3140204588519495,-0.7717707792865198,-1.5931356588946741,-3.0558229128467005
-0.9001253286944788,-2.5781777540790003,-1.314716641102926,-0.7713869253741663,-1.5932672659503382,-3.057068649922506
-0.8987949530230921,-2.577854935322897,-1.3154485861407679,-0.7709916273700159,-1.5933273474322718,-3.0583015123950403
-0.896158520375387,-2.57717210451235,-1.316876236592428,-0.7702720800982874,-1.5934589544879358,-3.0609124342547815
-0.8948524633990687,-2.5767887274371546,-1.3175719420062464,-0.7699125448810022,-1.5933874289142054,-3.0622533003436487
-0.8934624830829065,-2.5764411131488245,-1.3182924429522913,-0.7695286909686487,-1.5935071150409144,-3.063558880482809
-0.8921321074115198,-2.5761173407184046,-1.3190725485431116,-0.7691448370562952,-1.5936148802386683,-3.064875904713766
-0.889508072529928,-2.575386349354879,-1.3205598036395472,-0.7684858481036585,-1.5937469641314905,-3.0675700346576136
-0.888153378163473,-2.5750630537616175,-1.3212798277484339,-0.7681735197650355,-1.5937469641314905,-3.0688756147967737
-0.8868592421161097,-2.574775520955221,-1.3220117727862757,-0.7677300612079065,-1.5937588850604456,-3.070205275212423
-0.8854811827289026,-2.574440304433004,-1.322707478200094,-0.7673705259906214,-1.5938904921161097,-3.07152229944338
-0.8829048315631312,-2.5738051573382776,-1.324207607899801,-0.766674820576803,-1.594022576008932,-3.074120585118429
-0.8816106955157679,-2.5734813849078577,-1.3249395529376429,-0.7662795225726526,-1.5939624945269983,-3.075426165257589
-0.8803160826312464,-2.573146168385641,-1.3256595770465296,-0.7658956686602991,-1.5941303412066858,-3.0767198244677942
-0.8789857069598597,-2.572822395955221,-1.3264029661761683,-0.7655838171588343,-1.5940583387957972,-3.0780485312091272
-0.8764331976519983,-2.5721877256976526,-1.3277953306781214,-0.7649481932269495,-1.5941899458514612,-3.0805636088000696
-0.8751390616046351,-2.5718639532672327,-1.328491512929098,-0.7645648161517542,-1.5943339506732386,-3.081892792378561
-0.8738930861102503,-2.571540657673971,-1.329259220753805,-0.7641690413104456,-1.5943940321551722,-3.0831380526172083
-0.8726103941546839,-2.571216885243551,-1.3299430052386683,-0.7638214270221155,-1.5943697134601038,-3.0844314734088343
-0.8701184431659144,-2.570534054433004,-1.3313949743853968,-0.7631619612323206,-1.5943940321551722,-3.0869224707232874
-0.8689072767840784,-2.5702346006976526,-1.3321383635150355,-0.7627900282489222,-1.5945737997638147,-3.0882034937488
-0.8676736990558069,-2.5698989073382776,-1.3327625433551233,-0.7624180952655237,-1.5945375601397913,-3.089377228413717
-0.8664153257953089,-2.569563690816061,-1.3334820906268519,-0.7620585600482386,-1.5945494810687464,-3.090646568928854
-0.8639462629901331,-2.568880860005514,-1.33486253419985,-0.7614715735064905,-1.594621483479635,-3.0931018034564417
-0.8627365271197718,-2.5685933271991175,-1.335510555897848,-0.761087719594137,-1.5947173277484339,-3.0942750612842005
-0.8615377585040491,-2.5682933966266077,-1.3361700216876429,-0.7607157866107386,-1.5947893301593226,-3.095520321522848
-0.8602793852435511,-2.567946259175436,-1.336841885243551,-0.7604039351092737,-1.5946934858905237,-3.096694056187765
-0.8577874342547815,-2.567395035420553,-1.3382094542132776,-0.7596848646747034,-1.5948613325702112,-3.0992088953601282
-0.8565409819232386,-2.5670955816852015,-1.3388579527484339,-0.7593730131732386,-1.5949333349811,-3.1004419962512415
-0.8552945295916956,-2.5668204466449183,-1.3395536581622522,-0.7589891592608851,-1.595064942036764,-3.1017115751849573
-0.854072395955221,-2.5664847532855433,-1.3402379194842737,-0.7586777845965784,-1.5949690977679651,-3.1029093901263636
-0.8515918890582483,-2.565897289906637,-1.3416054884540003,-0.7580660025226038,-1.5950887838946741,-3.105471674595968
-0.8503335157977503,-2.565525833760397,-1.3422296682940882,-0.7576940695392054,-1.5952208677874964,-3.1067174116717737
-0.8490875403033655,-2.56521445909609,-1.34296161333193,-0.7573106924640101,-1.5951250235186976,-3.1079629103290003
-0.8478286902057093,-2.56489068666567,-1.3436811606036585,-0.75696307817568,-1.5953167120562952,-3.1093040148364466
-0.8453243414508265,-2.5642202536212366,-1.3450730482684534,-0.7563632170306605,-1.5954244772540491,-3.11181885400881
-0.8441141287433069,-2.5638731161700647,-1.345781151448385,-0.7559917608844202,-1.5954244772540491,-3.113123957310812
-0.842867676411764,-2.5636094252215784,-1.3464644590960901,-0.7556198279010218,-1.5955804030047815,-3.1143816153155726
-0.841597859059469,-2.5632737318622034,-1.3471606413470667,-0.7552602926837366,-1.5956280867206019,-3.115615193043844
-0.8391054312335413,-2.562650505696432,-1.3486006895648401,-0.754613224660055,-1.5957959334002894,-3.118202034627096
-0.8378823439227503,-2.5623391310321253,-1.3492720762835901,-0.7542408148394983,-1.595748249684469,-3.11938721338381
-0.8365405241595667,-2.5620272795306605,-1.3500402609454554,-0.753857437764303,-1.5959880987750452,-3.120584551488058
-0.835306469594137,-2.561727825795309,-1.3507002035724085,-0.7534859816180628,-1.5958803335772913,-3.121902052556173
-0.8327658812152308,-2.5610931555377405,-1.3521164099322718,-0.7528145948993128,-1.5960958639727991,-3.1244528929339808
-0.8314717451678675,-2.560781780873434,-1.352811638508932,-0.7524068991290491,-1.5961321035968226,-3.125770394002096
-0.8302252928363245,-2.560458008443014,-1.353544060383932,-0.7519868055926722,-1.5962875525103968,-3.1270275751696985
-0.8289073149310511,-2.5601466337787073,-1.3542636076556605,-0.7516749540912073,-1.5961678663836878,-3.1282969156848353
-0.8263548056231897,-2.559523407612936,-1.3557398954974573,-0.7510398069964808,-1.5964315573321741,-3.130955521260397
-0.8250606695758265,-2.559187714253561,-1.3564956823932093,-0.7506440321551722,-1.596407715474264,-3.1322489420520228
-0.8237903753863733,-2.558828655873434,-1.3571913878070276,-0.7502725760089319,-1.596551243458883,-3.133566443120138
-0.8225443998919886,-2.5585172812091272,-1.3579352537738245,-0.7499249617206019,-1.5964315573321741,-3.1348353067981165
-0.8200276533709925,-2.5578344503985804,-1.3593276182757776,-0.7492893377887171,-1.5965874830829065,-3.137374464665548
-0.8187335173236292,-2.557474915181295,-1.3600829283343714,-0.7489054838763636,-1.5965755621539515,-3.138667647038595
-0.8174994627581995,-2.55713922182192,-1.3607552687274378,-0.7485335508929651,-1.5967429319964808,-3.1399253050433558
-0.8162654081927698,-2.5568397680865687,-1.3614748159991663,-0.7481864134417933,-1.5966714064227503,-3.1411588827716272
-0.8137248198138636,-2.5561803022967737,-1.3628547827350062,-0.7475503126727503,-1.596875015889303,-3.143769089375631
-0.8124783674823206,-2.5558694044696253,-1.363514248524801,-0.7472270170794886,-1.5968030134784144,-3.1450024286853235
-0.8112204710589808,-2.5555575529681605,-1.364234749470846,-0.74683124223818,-1.596994702016012,-3.146236006413595
-0.8099620977984827,-2.555258576069967,-1.3649304548846644,-0.746495548878805,-1.5969226996051233,-3.1475775877581995
-0.807469669972555,-2.5546234289752405,-1.3663581053363245,-0.7457764784442347,-1.5970547834979456,-3.1499725023852747
-0.8061874548541468,-2.5542996565448206,-1.367054287587301,-0.7453802267657679,-1.5970309416400355,-3.15126616159548
-0.8049410025226038,-2.553988281880514,-1.3677499930011194,-0.7450326124774378,-1.5972703138934534,-3.152451817189352
-0.8036711851703089,-2.553688351308004,-1.3684099356280726,-0.7447689215289515,-1.5971387068377894,-3.1537564436541956
-0.8011067549334925,-2.5529935995685022,-1.3698137442218226,-0.7440975348102015,-1.5972345511065882,-3.156163994465963
-0.7998483816729944,-2.552717987691061,-1.3705337683307093,-0.7436779181109827,-1.597462002431051,-3.157433573399679
-0.7986624876605433,-2.552370850239889,-1.3712294737445276,-0.7433298269854944,-1.5974744001971644,-3.158618752156393
-0.7973321119891565,-2.5520475546466272,-1.3719375769244593,-0.7429702917682093,-1.5975220839129847,-3.1599002520190638
-0.7948272863971155,-2.5514124075519007,-1.3732569853412073,-0.7423232237445276,-1.5975459257708948,-3.162391487752096
-0.7935574690448206,-2.5510409514056605,-1.3739407698260706,-0.7419036070453089,-1.5977619330035608,-3.1636367479907435
-0.7923110167132776,-2.550765339528219,-1.3746255079852503,-0.7415674368487757,-1.5977018515216272,-3.16490608850588
-0.7910531202899378,-2.5504420439349573,-1.3753092924701136,-0.7412679831134241,-1.5978215376483362,-3.166175190602438
-0.7885606924640101,-2.5497830549823206,-1.3766768614398401,-0.7405603567706507,-1.5978458563434046,-3.1687384287463587
-0.7873261610614222,-2.5494354406939905,-1.3773725668536585,-0.7401407400714319,-1.5980256239520472,-3.169983688985006
-0.7860925833331507,-2.549171749745504,-1.3780329863177698,-0.739816967641012,-1.5979417006122034,-3.1713250319110315
-0.7848575750934046,-2.5488246122943323,-1.37872821489443,-0.7394936720477503,-1.5980256239520472,-3.1725946108447474
-0.7823055426227015,-2.548225227986471,-1.3801081816302698,-0.7387617270099085,-1.5980733076678675,-3.1751335302936
-0.7810714880572718,-2.547854248677389,-1.3808043638812464,-0.7383664290057581,-1.598241154347555,-3.176415030156271
-0.7798131147967737,-2.547542397175924,-1.3815725485431116,-0.7380784193622034,-1.5982053915606897,-3.177612368260519
-0.7784951368915003,-2.5472071806537073,-1.3822677771197718,-0.7377308050738733,-1.5982053915606897,-3.178917471562521
-0.7760747114764612,-2.5465481917010706,-1.3836959044085901,-0.7370713392840784,-1.5983012358294886,-3.18142015138735
-0.7748044172870081,-2.5462005774127405,-1.3843558470355433,-0.7366274038897913,-1.5983369986163538,-3.1826658884631556
-0.7735465208636683,-2.545877281819479,-1.3850749174701136,-0.7363036314593714,-1.5984929243670862,-3.183911387120382
-0.7722762266742151,-2.545553509389059,-1.3857234160052698,-0.7359922567950647,-1.5983732382403772,-3.1852286497699183
-0.7696760336505335,-2.544834915791647,-1.3871515432940882,-0.7352727095233362,-1.5985406080829065,-3.1877079645739954
-0.7684295813189905,-2.5444873015033167,-1.38788348833193,-0.7349613348590296,-1.5985286871539515,-3.1890490690814417
-0.7671354452716272,-2.544164005910055,-1.3885424772845667,-0.7345650831805628,-1.5987327734576624,-3.1903186480151575
-0.7658651510821741,-2.54382831255068,-1.3892510573016565,-0.7342656294452112,-1.5986488501178187,-3.1916001478778284
-0.7633369604693812,-2.5431931654559534,-1.3906543890582483,-0.733558479939596,-1.5988286177264612,-3.194126907979147
-0.7620790640460413,-2.542905632649557,-1.3914106527911585,-0.7332103888141077,-1.5988886992083948,-3.195444409047262
-0.7607486883746546,-2.5426061789142054,-1.3921063582049769,-0.7328270117389124,-1.5989964644061487,-3.196629826222555
-0.7595508734332483,-2.542306725178854,-1.3928025404559534,-0.7324908415423792,-1.5989368597613733,-3.197923247014181
-0.756998364125387,-2.5416834990130823,-1.3942301909076136,-0.7317717711078089,-1.599116627370016,-3.200401846562521
-0.7557280699359339,-2.5413487593280237,-1.3949263731585901,-0.7313998381244105,-1.5992963949786585,-3.201695267354147
-0.7544100920306605,-2.541036907826559,-1.3956459204303187,-0.7310522238360804,-1.599379841481344,-3.2029648462878626
-0.753211800252096,-2.540713135396139,-1.3963540236102503,-0.7307646910296839,-1.5993202368365687,-3.204198185597555
-0.7506116072284144,-2.5401023069964808,-1.3977816740619105,-0.7300809065448206,-1.5994041601764124,-3.206773344670431
-0.7493775526629847,-2.539790932332174,-1.3984416166888636,-0.7296732107745569,-1.5995476881610315,-3.2080424467669886
-0.7481191794024866,-2.539455238972799,-1.3991735617267054,-0.7293136755572718,-1.5996435324298304,-3.2093239466296595
-0.7468732039081019,-2.539095703755514,-1.3998330275165003,-0.7290142218219202,-1.5995119253741663,-3.210569683705465
-0.7443330923663538,-2.5384848753558558,-1.4012368361102503,-0.7283185164081019,-1.5996797720538538,-3.2130964438067835
-0.7430384794818323,-2.5380895773517054,-1.4019086996661585,-0.7279108206378382,-1.5997517744647425,-3.21434194246401
-0.7418525854693812,-2.5377782026873987,-1.4026530424701136,-0.727574650441305,-1.5998953024493616,-3.215623203908102
-0.7405465284930628,-2.5374425093280237,-1.4033482710467737,-0.7272632757769983,-1.5997875372516077,-3.2168567816363733
-0.7380059401141565,-2.5368436018573206,-1.404752556477682,-0.726544205342428,-1.5999434630023401,-3.2193477789508265
-0.7367718855487269,-2.536544148121969,-1.4054845015155237,-0.7261603514300745,-1.5999673048602503,-3.220569435750143
-0.7354539076434534,-2.536197010670797,-1.4062164465533655,-0.7258365789996546,-1.6001232306109827,-3.2218509356128138
-0.7341716925250452,-2.5358851591693323,-1.406924072896139,-0.7254770437823694,-1.600039307271139,-3.2231560389148157
-0.7316439787494105,-2.535261933003561,-1.4083035627948206,-0.7247212568866175,-1.6001952330218714,-3.225659195576803
-0.7303255240069788,-2.534950558339254,-1.4090359846698206,-0.7243741194354456,-1.600170914326803,-3.226928774510519
-0.7290199438678187,-2.534614864979879,-1.4097197691546839,-0.7240617910968226,-1.6003626028644007,-3.2281864325152796
-0.7277973333941858,-2.5342558065997522,-1.4104636351214808,-0.7237260977374476,-1.6003029982196253,-3.2295637766467493
-0.7252209822284144,-2.5335848967181605,-1.4118312040912073,-0.7229831854449671,-1.6004465262042444,-3.2322104612933558
-0.7239392439471644,-2.5332616011248987,-1.412539307271139,-0.7226231733905237,-1.6004827658282679,-3.233539644871847
-0.7226694265948694,-2.5329139868365687,-1.4132350126849573,-0.7222994009601038,-1.6006744543658655,-3.234845225011007
-0.721374813710348,-2.5325306097613733,-1.4139187971698206,-0.721964184437887,-1.6005786100970667,-3.236126486455099
