youngblood1998/my_ws/src/ur5_platform/ur5_platform_manipulation/wzq/test_x.csv
j0,j1,j2,j3,j4,j5
-1.2180264631854456,-2.839583698903219,-0.7567809263812464,-1.0498316923724573,-1.6182692686664026,-2.6639466921435755
-1.2180383841144007,-2.839583698903219,-0.7567690054522913,-1.049784008656637,-1.6182454268084925,-2.6639586130725306
-1.218074146901266,-2.839583698903219,-0.7568047682391565,-1.0498078505145472,-1.618305508290426,-2.663886849080221
-1.2179902235614222,-2.8396080175982874,-0.7567570845233362,-1.049795929585592,-1.618293587361471,-2.663874689732687
-1.2180145422564905,-2.839595619832174,-0.7567809263812464,-1.0498078505145472,-1.618293587361471,-2.6639466921435755
-1.2180021444903772,-2.839571777974264,-0.7567928473102015,-1.049795929585592,-1.6182335058795374,-2.6639466921435755
-1.2180021444903772,-2.839583698903219,-0.756744686757223,-1.0498197714435022,-1.618281666432516,-2.663886849080221
-1.2180145422564905,-2.8396318594561976,-0.7567570845233362,-1.049795929585592,-1.618281666432516,-2.663874689732687
-1.2180383841144007,-2.839583698903219,-0.7567809263812464,-1.0498078505145472,-1.618293587361471,-2.663898770009176
-1.2180145422564905,-2.8396080175982874,-0.7567809263812464,-1.0498316923724573,-1.618281666432516,-2.6638267675982874
-1.2180021444903772,-2.839595619832174,-0.7568286100970667,-1.0498197714435022,-1.618281666432516,-2.663790766392843
-1.2180021444903772,-2.8396437803851526,-0.7567690054522913,-1.0498078505145472,-1.6182692686664026,-2.6638029257403772
-1.2180622259723108,-2.839595619832174,-0.7567809263812464,-1.0498197714435022,-1.618305508290426,-2.663778845463888
-1.2180383841144007,-2.8396318594561976,-0.7567928473102015,-1.0498078505145472,-1.6182692686664026,-2.6638386885272425
-1.2180383841144007,-2.8396199385272425,-0.7567809263812464,-1.0498197714435022,-1.618293587361471,-2.6638148466693323
-1.2180383841144007,-2.8396318594561976,-0.7568166891681116,-1.0498078505145472,-1.6182215849505823,-2.663778845463888
-1.2180264631854456,-2.839571777974264,-0.7568405310260218,-1.0497358481036585,-1.6182692686664026,-2.6638267675982874
-1.217954460774557,-2.839583698903219,-0.7569244543658655,-1.0496280829059046,-1.6182573477374476,-2.663886849080221
-1.2179182211505335,-2.839571777974264,-0.7570326964007776,-1.0496519247638147,-1.6182692686664026,-2.6639466921435755
-1.2178223768817347,-2.839547936116354,-0.7571404615985315,-1.0495203177081507,-1.618293587361471,-2.6639226118670862
-1.2177627722369593,-2.8394997755633753,-0.7572367827044886,-1.0494845549212855,-1.6182454268084925,-2.6640542189227503
-1.2175586859332483,-2.8393800894366663,-0.7575967947589319,-1.0492919127093714,-1.618281666432516,-2.6641979853259485
-1.2174871603595179,-2.839344326649801,-0.7577651182757776,-1.049351994191305,-1.618281666432516,-2.664245907460348
-1.2173550764666956,-2.8392842451678675,-0.7579692045794886,-1.0491002241717737,-1.618281666432516,-2.664509121571676
-1.217187229787008,-2.8391645590411585,-0.7582333723651331,-1.0492561499225062,-1.6183174292193812,-2.6645811239825647
-1.2168758551227015,-2.8389127890216272,-0.7586649099933069,-1.0490644613849085,-1.618293587361471,-2.664964262639181
-1.2166841665851038,-2.8388050238238733,-0.7589886824237269,-1.0487287680255335,-1.618281666432516,-2.6651559511767786
-1.216503922139303,-2.8386128584491175,-0.7592766920672815,-1.048788849507467,-1.6183174292193812,-2.6653836409198206
-1.2163003126727503,-2.8384926954852503,-0.7596491018878382,-1.0485366026507776,-1.6183174292193812,-2.6655271689044397
-1.2158687750445765,-2.8381455580340784,-0.76038104692568,-1.0481050650226038,-1.6184490362750452,-2.6661019960986536
-1.2156289259540003,-2.8379300276385706,-0.7607291380511683,-1.0478532950030726,-1.618401352559225,-2.666389290486471
-1.2154014746295374,-2.837774101887838,-0.7611492315875452,-1.0476248900042933,-1.618425194417135,-2.666616980229513
-1.2151497046100062,-2.8375585714923304,-0.7615450064288538,-1.0474332014666956,-1.618425194417135,-2.6667967478381556
-1.2146104017840784,-2.8371389547931116,-0.7624571959124964,-1.0470259825335901,-1.6184371153460901,-2.667323176060812
-1.2143586317645472,-2.836923424397604,-0.7629011313067835,-1.0467742125140589,-1.6184490362750452,-2.66758639017214
-1.2140701452838343,-2.836731735860006,-0.7633689085589808,-1.0464862028705042,-1.6184971968280237,-2.667945925389425
-1.2137706915484827,-2.83651572862734,-0.7638610045062464,-1.0462468306170862,-1.6185572783099573,-2.6682573000537317
-1.213123623524801,-2.8360722700702112,-0.7648213545428675,-1.0457189718829554,-1.6185691992389124,-2.668891731892721
-1.2128122488604944,-2.83584434190859,-0.7653253714190882,-1.0455029646502894,-1.6185691992389124,-2.669227186833517
-1.2125003973590296,-2.835592571889059,-0.7658174673663538,-1.0452874342547815,-1.6185811201678675,-2.669586483632223
-1.2121647039996546,-2.835377041493551,-0.766369644795553,-1.0450118223773401,-1.6186049620257776,-2.6698976198779505
-1.2115772406207483,-2.8348501364337366,-0.7673657576190394,-1.0444119612323206,-1.6186650435077112,-2.6705084482776087
-1.2112177054034632,-2.8346341292010706,-0.7679174582110804,-1.0441244284259241,-1.6186769644366663,-2.6708195845233362
-1.2109063307391565,-2.8343709150897425,-0.7685177961932581,-1.043884579335348,-1.61876088777651,-2.6711552778827112
-1.2105467955218714,-2.8341310659991663,-0.7690337339984339,-1.0436447302447718,-1.6187847296344202,-2.671501938496725
-1.2098873297320765,-2.833639446889059,-0.7700775305377405,-1.0429852644549769,-1.61876088777651,-2.6721487681018274
-1.2095401922809046,-2.833339516316549,-0.770665470753805,-1.0427096525775355,-1.6187728087054651,-2.6725202242480677
-1.2091801802264612,-2.8330400625811976,-0.771193806325094,-1.0423734823810022,-1.6188567320453089,-2.6728671232806605
-1.208832089100973,-2.832764450703756,-0.7717698256122034,-1.0421693960772913,-1.6188085714923304,-2.673262421284811
-1.2081368605243128,-2.832165543233053,-0.7729819456683558,-1.0415824095355433,-1.6188924948321741,-2.6739569346057337
-1.2077773253070276,-2.8318899313556116,-0.773534123097555,-1.04124623933901,-1.6189168135272425,-2.6743279139148157
-1.2073939482318323,-2.83161431947817,-0.7742179075824183,-1.040910545979635,-1.6189406553851526,-2.6746631304370325
-1.2070344130145472,-2.831278626118795,-0.7748301664935511,-1.040562931691305,-1.6189525763141077,-2.6750946680652063
-1.2062791029559534,-2.830691162739889,-0.7760661284076136,-1.0399754683123987,-1.6189764181720179,-2.675800625477926
-1.205895725880758,-2.8303797880755823,-0.776642147694723,-1.0396397749530237,-1.6190364996539515,-2.676244084035055
-1.2054761091815394,-2.8300679365741175,-0.7773264090167444,-1.0393036047564905,-1.6190364996539515,-2.6766391436206263
-1.2050445715533655,-2.829780880604879,-0.7779501120196741,-1.0389321486102503,-1.6190603415118616,-2.6770697275744837
-1.2042415777789515,-2.8291214148150843,-0.7792943159686487,-1.0383208433734339,-1.619096581135885,-2.6778722445117396
-1.2037981192218226,-2.8287981192218226,-0.779978100453512,-1.0379489103900355,-1.619096581135885,-2.6783397833453577
-1.2033661047564905,-2.8284862677203577,-0.7806981245623987,-1.037576977406637,-1.6191924254046839,-2.678770367299215
-1.2029107252704065,-2.828162972127096,-0.7813823858844202,-1.0372298399554651,-1.6191681067096155,-2.6791535059558313
-1.2020238081561487,-2.827515427266256,-0.7828224341021937,-1.036473576222555,-1.619216267262594,-2.680075470601217
-1.20160419145693,-2.827144447957174,-0.7835906187640589,-1.0360663572894495,-1.6192639509784144,-2.6806145350085657
-1.2011249701129358,-2.826808754597799,-0.7842982451068323,-1.035670582448141,-1.6192520300494593,-2.681021515523092
-1.2006333510028284,-2.826437298451559,-0.7850306669818323,-1.0353110472308558,-1.6193841139422815,-2.681453053151266
-1.1997225920306605,-2.825681988392965,-0.7866023222552698,-1.034567658101217,-1.6194317976581019,-2.6824706236468714
-1.1991947332965296,-2.825310532246725,-0.7873590628253382,-1.034111801777975,-1.6194680372821253,-2.6828776041613978
-1.1987393538104456,-2.8249147574054163,-0.7881024519549769,-1.0337165037738245,-1.6193960348712366,-2.683404509221212
-1.1982482115374964,-2.8245671431170862,-0.7889068762408655,-1.0333684126483362,-1.6196115652667444,-2.683871571217672
-1.1972535292254847,-2.823812786732809,-0.7904189268695276,-1.0325287024127405,-1.6195877234088343,-2.684793297444479
-1.1967137495623987,-2.823500935231344,-0.7912586371051233,-1.0321572462665003,-1.6197074095355433,-2.6853800455676478
-1.196282211934225,-2.8231056372271937,-0.7920749823199671,-1.03176194826235,-1.6195638815509241,-2.6859074274646204
-1.195730988179342,-2.8227699438678187,-0.7929032484637659,-1.0313780943499964,-1.6197674910174769,-2.686362091694967
-1.1952274481402796,-2.82239801088442,-0.7936952749835413,-1.0309703985797327,-1.6197074095355433,-2.686924997960226
-1.1941846052752894,-2.821667496358053,-0.7953875700580042,-1.030130688344137,-1.6198514143573206,-2.6878705660449427
-1.193716828023092,-2.821307961140768,-0.7962034384356897,-1.0297110716449183,-1.619791332875387,-2.6883378664599817
-1.1931536833392542,-2.8209121862994593,-0.7971270720111292,-1.029231373463766,-1.619995419179098,-2.6889007727252405
-1.1921346823321741,-2.82009727159609,-0.7987831274615687,-1.0283921400653284,-1.619995419179098,-2.6900740305529993
-1.191547695790426,-2.8197019735919397,-0.7996118704425257,-1.0279725233661097,-1.6200431028949183,-2.6906006971942347
-1.1910679976092737,-2.819294277821676,-0.8004515806781214,-1.0275052229510706,-1.6199830214129847,-2.6911874453174036
-1.1904929319964808,-2.8188870588885706,-0.8013280073748987,-1.0270732084857386,-1.6201995054828089,-2.691690508519308
-1.1894133726703089,-2.8180840651141565,-0.8030913511859339,-1.0261977354632776,-1.620211426411764,-2.692756477986471
-1.1889222303973597,-2.817688767110006,-0.803932015095846,-1.0257065931903284,-1.6201508680926722,-2.6932953039752405
-1.1883710066424769,-2.8172691504107874,-0.8048079649554651,-1.0252626577960413,-1.620223347340719,-2.693857733403341
-1.1879037062274378,-2.816873852406637,-0.8056839148150843,-1.0248435179339808,-1.6202953497516077,-2.694444719945089
-1.1868246237384241,-2.816082779561178,-0.8074243704425257,-1.0238717238055628,-1.6203911940204065,-2.695522133504049
-1.1862733999835413,-2.8156631628619593,-0.8083122412310999,-1.0233801046954554,-1.6203911940204065,-2.6960371176349085
-1.1857221762286585,-2.815267864857809,-0.8092244307147425,-1.0229366461383265,-1.6203911940204065,-2.696587864552633
-1.1851590315448206,-2.814860169087545,-0.8101123015033167,-1.0224688688861292,-1.6204989592181605,-2.6970790068255823
-1.1840561071978968,-2.8140576521502894,-0.8118765989886683,-1.0215094725238245,-1.6205466429339808,-2.698228184376852
-1.1835406462298792,-2.8136494795428675,-0.8128364721881312,-1.021137539540426,-1.6205228010760706,-2.6987910906421106
-1.1829775015460413,-2.8131945768939417,-0.8137486616717737,-1.0206578413592737,-1.6205108801471155,-2.6993301550494593
-1.1823771635638636,-2.812786881123678,-0.814648453389303,-1.0201190153705042,-1.620690647755758,-2.699904505406515
-1.1812151114093226,-2.8119481245623987,-0.8164365927325647,-1.0192073027240198,-1.6207025686847132,-2.7010658423053187
-1.1806157271014612,-2.811516586934225,-0.8173964659320276,-1.0187276045428675,-1.6208222548114222,-2.7016528288470667
-1.1800759474383753,-2.8111332098590296,-0.8183210531817835,-1.0182598272906702,-1.6207144896136683,-2.70215613046755
-1.1795008818255823,-2.810690228139059,-0.8192327658282679,-1.0178282896624964,-1.6208346525775355,-2.70274264017214
-1.178326431904928,-2.8098629156695765,-0.8210929075824183,-1.0168688933001917,-1.620810333882467,-2.7039642969714563
-1.1777871290790003,-2.8094194571124476,-0.8220170179950159,-1.0163891951190394,-1.6209901014911097,-2.704514805470602
-1.1771872679339808,-2.809000317250387,-0.8230131308185022,-1.015886131917135,-1.6209901014911097,-2.70514947572817
-1.1766122023211878,-2.8085807005511683,-0.8239849249469202,-1.0153701941119593,-1.6209304968463343,-2.7056642214404505
-1.1754258314715784,-2.80764609972109,-0.8259771505938929,-1.0144107977496546,-1.6209662596331995,-2.7068737188922327
-1.1748140493976038,-2.8071544806109827,-0.8269975821124476,-1.0139554182635706,-1.6210501829730433,-2.707508150731222
-1.1741908232318323,-2.8066991011248987,-0.8281129042254847,-1.0133917967425745,-1.6211817900287073,-2.7081309000598353
-1.1735194365130823,-2.8062079588519495,-0.8291333357440394,-1.012876335774557,-1.6210501829730433,-2.7087059656726282
-1.172140900288717,-2.8051417509662073,-0.8312695662127894,-1.0117128531085413,-1.621253792439596,-2.7100828329669397
-1.1714218298541468,-2.8046143690692347,-0.8323500792132776,-1.0111616293536585,-1.621265713368551,-2.710729424153463
-1.1707266012774866,-2.8040745894061487,-0.8335493246661585,-1.0106099287616175,-1.6213977972613733,-2.7114840189563196
-1.1699956099139612,-2.803559128438131,-0.8347256819354456,-1.0100587050067347,-1.621265713368551,-2.712250296269552
-1.1684735457049769,-2.8024333159076136,-0.8370898405658167,-1.0088351408587855,-1.6214097181903284,-2.7137227694140833
-1.1677539984332483,-2.8018339315997522,-0.8383382002459925,-1.0081637541400355,-1.6215055624591272,-2.714489285145895
-1.1669510046588343,-2.801222626362936,-0.8396342436419886,-1.007552448903219,-1.6216371695147913,-2.715339247380392
-1.166112248097555,-2.800635639821188,-0.8409298102008265,-1.0069525877581995,-1.6215413252459925,-2.716057840977804
-1.16443378130068,-2.7993653456317347,-0.8435824553119105,-1.005573574696676,-1.62170917192568,-2.717710558568136
-1.163630787526266,-2.798717800770895,-0.8448908964740198,-1.0048545042621058,-1.6218169371234339,-2.7185123602496546
-1.1627677122699183,-2.798046890889303,-0.8463061491595667,-1.0041106382953089,-1.6218889395343226,-2.71936279932131
-1.161832634602682,-2.7973759810077112,-0.8476985136615198,-1.0034154097186487,-1.6218770186053675,-2.720224920903341
-1.1601064840899866,-2.7960456053363245,-0.8505671660052698,-1.0019524733172815,-1.6219967047320765,-2.7220330874072474
-1.1591838041888636,-2.795410458241598,-0.8519709745990198,-1.0011370817767542,-1.6221888701068323,-2.722835365925924
-1.1582492033587855,-2.7946794668780726,-0.8534954229937952,-1.0004537741290491,-1.6222127119647425,-2.7238171736346644
-1.1573856512652796,-2.7939966360675257,-0.8550189177142542,-0.9997466246234339,-1.622176472340719,-2.7246909777270716
-1.155611817036764,-2.7926180998431605,-0.8580072561847132,-0.9982593695269983,-1.6223085562335413,-2.726511065159933
-1.1546767393695276,-2.791910950337545,-0.8595431486712855,-0.997443977986471,-1.622368637715475,-2.727457348500387
-1.1537421385394495,-2.7912281195269983,-0.8610437552081507,-0.9967368284808558,-1.6224401632892054,-2.7283194700824183
-1.1528790632831019,-2.7905452887164515,-0.8625195662127894,-0.9959452787982386,-1.62238055864443,-2.7292774359332483
-1.1511290709124964,-2.7892263571368616,-0.865448300038473,-0.9944103399859827,-1.6225240866290491,-2.731133286152975
-1.1502421537982386,-2.7886036078082483,-0.8668635527240198,-0.993666950856344,-1.6225360075580042,-2.73207933107485
-1.1493313948260706,-2.7879326979266565,-0.8683159987079065,-0.9929478804217737,-1.6227157751666468,-2.7329533735858362
-1.1484559218036097,-2.7872374693499964,-0.8696959654437464,-0.9922283331500452,-1.6225960890399378,-2.7339232603656214
-1.1467183271991175,-2.7859914938556116,-0.8724563757525843,-0.9908011595355433,-1.6228116194354456,-2.7357078234301966
-1.1458428541766565,-2.7853320280658167,-0.8738129774676722,-0.990082089100973,-1.6228597799884241,-2.736581627522604
-1.145003620778219,-2.7847445646869105,-0.8751805464373987,-0.9893863836871546,-1.6230276266681116,-2.737443987523214
-1.1442249456988733,-2.7840855757342737,-0.8765247503863733,-0.9887030760394495,-1.6228955427752894,-2.738257948552267
-1.142498795186178,-2.782851521168844,-0.8791769186602991,-0.9873359839068812,-1.6231473127948206,-2.739922587071554
-1.141707722340719,-2.782276455556051,-0.8804605642901819,-0.9866884390460413,-1.6230996290790003,-2.7407243887530726
-1.1409643332110804,-2.7816651503192347,-0.8817809263812464,-0.9860766569720667,-1.6232793966876429,-2.741478983555929
-1.140113655720846,-2.7810776869403284,-0.8830650488482874,-0.985321346913473,-1.6232193152057093,-2.7422576586352747
-1.1385911146747034,-2.779891316090719,-0.8856332937823694,-0.984110180531637,-1.6233394781695765,-2.743825976048605
-1.1378119627581995,-2.779316250477926,-0.8868330160724085,-0.983438793812887,-1.6234472433673304,-2.7446401754962366
-1.1370809713946741,-2.7787650267230433,-0.8881052176104944,-0.982851807271139,-1.6235311667071741,-2.7454188505755823
-1.1363256613360804,-2.7781899611102503,-0.8893654982196253,-0.9822161833392542,-1.6234472433673304,-2.7461610476123255
-1.134815518056051,-2.7770994345294397,-0.8918016592608851,-0.9809811750995081,-1.6235674063311976,-2.7476335207568567
-1.1340726057635706,-2.7765958944903772,-0.892989460621969,-0.9803093115435999,-1.6236870924579065,-2.748352352772848
-1.1333773771869105,-2.775996510182516,-0.8941896597491663,-0.9797819296466272,-1.6237710157977503,-2.749106470738546
-1.1326702276812952,-2.7754815260516565,-0.8954380194293421,-0.9791706244098108,-1.6236990133868616,-2.7498608271228235
-1.1311000029193323,-2.7743313948260706,-0.8977659384356897,-0.9779589811908167,-1.6238067785846155,-2.751321856175558
-1.1304047743426722,-2.773804012929098,-0.8989179770099085,-0.9773476759540003,-1.6239507834063929,-2.7520645300494593
-1.129601780568258,-2.7732041517840784,-0.900153938923971,-0.9767244497882288,-1.6239984671222132,-2.752878252659933
-1.128906551991598,-2.772677246724264,-0.901341740285055,-0.9761608282672327,-1.623974625264303,-2.753609005604879
-1.1273482481585901,-2.7715986410724085,-0.9037182966815394,-0.9749496618853968,-1.6241067091571253,-2.755117718373434
-1.1266291777240198,-2.7710354963885706,-0.9049304167376917,-0.9743378798114222,-1.6242263952838343,-2.755824152623312
-1.125873867665426,-2.770484272633688,-0.9061182180987757,-0.9736908117877405,-1.624310318623678,-2.756686274205343
-1.1251667181598108,-2.769921604787008,-0.9073422590838831,-0.9730547110186976,-1.6242263952838343,-2.7573209444629114
-1.1236327330218714,-2.768759075795309,-0.9098146597491663,-0.9718082586871546,-1.624418083821432,-2.7589133421527308
-1.1228421370135706,-2.7681711355792444,-0.9110749403582972,-0.9711845556842249,-1.624430004750387,-2.7596915403949183
-1.122098747883932,-2.767535988484518,-0.9122627417193812,-0.97052508989443,-1.6245620886432093,-2.760482136403219
-1.1212714354144495,-2.766949478779928,-0.9135344664203089,-0.9698894659625452,-1.6244900862323206,-2.7612245718585413
-1.1197498480426233,-2.7657631079303187,-0.9161513487445276,-0.9686062971698206,-1.624646011983053,-2.7628048102008265
-1.118946377431051,-2.7651637236224573,-0.9174707571612757,-0.967971150075094,-1.6246097723590296,-2.7636314074145716
-1.1181195417987269,-2.764564816151754,-0.9187310377704065,-0.9673712889300745,-1.624765698109762,-2.7643497625934046
-1.1173284689532679,-2.7640135923968714,-0.9200146834002894,-0.9666636625873011,-1.6246698538409632,-2.765211884175436
-1.11574632326235,-2.7627785841571253,-0.9226554075824183,-0.9654291311847132,-1.6248377005206507,-2.7668522039996546
-1.114967171345846,-2.7621915976153772,-0.9239395300494593,-0.9646733442889612,-1.6248014608966272,-2.767714802418844
-1.1141637007342737,-2.761568848286764,-0.9252236525165003,-0.964085880910055,-1.6250413099872034,-2.768445078526632
-1.1133249441729944,-2.7609813849078577,-0.9265316168414515,-0.9633787314044397,-1.6249216238604944,-2.769295040761129
-1.1117904821978968,-2.7598069349872034,-0.9291232267962855,-0.9620354811297815,-1.6251490751849573,-2.7708638350116175
-1.1110237280475062,-2.7592080275165003,-0.9303835074054163,-0.961304012929098,-1.6251490751849573,-2.771665636693136
-1.110220734273092,-2.758597199116842,-0.9316795508014124,-0.9606807867633265,-1.6252568403827112,-2.772480312977926
-1.1094172636615198,-2.758045498524801,-0.9329517523394983,-0.959973160420553,-1.625221077595846,-2.7732225100146692
-1.1078594366656702,-2.756882969533102,-0.935495678578512,-0.958750073109762,-1.62535268465151,-2.7748149077044886
-1.1070082823382776,-2.7562602202044886,-0.9366839567767542,-0.9580310026751917,-1.6255806128131312,-2.7756534258471888
-1.1062410513507288,-2.7556846777545374,-0.93793231645693,-0.9574192206012171,-1.6254847685443323,-2.7764201799975794
-1.1054261366473597,-2.7550376097308558,-0.9391801992999476,-0.9567115942584437,-1.6256044546710413,-2.777210060750143
-1.103856388722555,-2.75388747850527,-0.9416645208941858,-0.9554169813739222,-1.6256282965289515,-2.7786949316607874
-1.1031015555011194,-2.753300491963522,-0.9429248015033167,-0.9548533598529261,-1.6258323828326624,-2.779485527669088
-1.102274243031637,-2.7527249495135706,-0.9441726843463343,-0.9541576544391077,-1.6257484594928187,-2.7802632490741175
-1.1015308539019983,-2.752185646687643,-0.9454563299762171,-0.9534862677203577,-1.6258681456195276,-2.781041924153463
-1.0999968687640589,-2.751035515462057,-0.9479649702655237,-0.9522631804095667,-1.6258919874774378,-2.7825024763690394
-1.0991938749896448,-2.7504480520831507,-0.9492366949664515,-0.9516757170306605,-1.6260598341571253,-2.783257071171896
-1.0984504858600062,-2.7498729864703577,-0.9503648916827601,-0.9510038534747522,-1.626012150441305,-2.7840712706195276
-1.097635571156637,-2.7492855230914515,-0.9516366163836878,-0.9503329435931605,-1.6260479132281702,-2.78483754793276
-1.0960653463946741,-2.748147789631979,-0.9542406241046351,-0.9490855375873011,-1.626131836568014,-2.786370340977804
-1.0953343550311487,-2.747596089039938,-0.9554770628558558,-0.9484742323504847,-1.6262396017657679,-2.7871249357806605
-1.0945308844195765,-2.7470329443561,-0.9567850271808069,-0.947850529347555,-1.6262758413897913,-2.787926737462179
-1.093776051198141,-2.746493164693014,-0.9580329100238245,-0.9471910635577601,-1.626251522694723,-2.7886694113360804
-1.0922415892230433,-2.7453673521624964,-0.9605653921710413,-0.9459798971759241,-1.6262996832477015,-2.790285889302389
-1.0914509932147425,-2.744851891194479,-0.9618733564959925,-0.9453681151019495,-1.6264556089984339,-2.791028086339132
-1.0907195250140589,-2.744192902241842,-0.9630973974810999,-0.9447930494891565,-1.6264556089984339,-2.7917588392840784
-1.0899284521686,-2.7435935179339808,-0.9643457571612757,-0.9441216627704065,-1.626467529927389,-2.7925613562213343
-1.0884421507464808,-2.7424314657794397,-0.9668052832232874,-0.9428866545306605,-1.6265271345721644,-2.7942257563220423
-1.08765155473818,-2.7418320814715784,-0.9680059591876429,-0.9421909491168421,-1.6267431418048304,-2.795015875493185
-1.086872402821676,-2.7412331740008753,-0.9692414442645472,-0.9415915648089808,-1.6266830603228968,-2.7958300749408167
-1.0860932509051722,-2.740633789693014,-0.970489803944723,-0.9408844153033655,-1.6267789045916956,-2.7966442743884485
-1.0845592657672327,-2.7394474188434046,-0.9729741255389612,-0.9395769278155726,-1.6268747488604944,-2.7982006708728235
-1.0837562719928187,-2.738896195088522,-0.9742220083819788,-0.9388936201678675,-1.6270907560931605,-2.798967425023214
-1.0829532782184046,-2.7382968107806605,-0.9754579702960413,-0.9383423964129847,-1.6270068327533167,-2.799769465123312
-1.082221810017721,-2.7377098242389124,-0.976717774068014,-0.9376462141620081,-1.6271503607379358,-2.8005476633654993
-1.0806997458087366,-2.736511532460348,-0.9791901747332972,-0.9364116827594202,-1.6272223631488245,-2.802056614552633
-1.0798843542682093,-2.7359245459186,-0.9805219809161585,-0.9357040564166468,-1.627378288899557,-2.8028228918658655
-1.0791533629046839,-2.735373322163717,-0.9817941824542444,-0.9350927511798304,-1.6273420492755335,-2.8036494890796106
-1.0783746878253382,-2.734750572835104,-0.9830301443683069,-0.9344690481769007,-1.6274259726153772,-2.8043797651873987
-1.076792065297262,-2.73362380663027,-0.9856227079974573,-0.9331625143634241,-1.6274383703814905,-2.8059242407428187
-1.0760377089129847,-2.7330005804644983,-0.9868949095355433,-0.9324906508075159,-1.6276057402240198,-2.8067026774035853
-1.075282398854391,-2.7324493567096155,-0.9882023970233362,-0.9317830244647425,-1.627509895955221,-2.807469431553976
-1.074515167866842,-2.731814686452047,-0.9894269148456019,-0.9312198797809046,-1.6276658217059534,-2.8082593123065394
-1.0728967825519007,-2.730591599141256,-0.991922680531637,-0.9298766295062464,-1.6276777426349085,-2.8098281065570276
-1.07213002840151,-2.729980770741598,-0.9931467215167444,-0.9292414824115198,-1.6278098265277308,-2.81061822572817
-1.071315113698141,-2.7293699423419397,-0.9944184462176722,-0.9285576979266565,-1.6277497450457972,-2.8113604227649134
-1.0705235640155237,-2.7288063208209437,-0.9957030455218714,-0.9279344717608851,-1.627857510243551,-2.812151018773214
-1.0690014998065394,-2.7276442686664026,-0.9981268087970179,-0.9266274611102503,-1.627965275441305,-2.813791338597433
-1.0681989828692835,-2.7270925680743616,-0.9993870894061487,-0.9259918371783655,-1.6280973593341272,-2.8145461718188685
-1.0674799124347132,-2.726506058369772,-1.0006349722491663,-0.9253447691546839,-1.6280015150653284,-2.815359894429342
-1.0666406790362757,-2.725942913685934,-1.0019314924823206,-0.9247086683856409,-1.6282051245318812,-2.8161984125720423
-1.065094296132223,-2.724732224141256,-1.0044754187213343,-0.9234378973590296,-1.6282408873187464,-2.8177908102618616
-1.0642793814288538,-2.7241690794574183,-1.0057113806353968,-0.9227784315692347,-1.628289047871725,-2.8185814062701624
-1.0635126272784632,-2.723570171986715,-1.0070074240313929,-0.9221785704242151,-1.62830096880068,-2.8193591276751917
-1.062721077595846,-2.722983185444967,-1.0082677046405237,-0.9215434233294886,-1.6284926573382776,-2.8201258818255823
-1.0611751715289515,-2.7218321005450647,-1.0108116308795374,-0.9202840963946741,-1.628636662160055,-2.8217302004443567
-1.0603602568255823,-2.721293274556295,-1.0121195952044886,-0.9196246306048792,-1.6285885016070765,-2.8225088755237024
-1.059629265462057,-2.7207658926593226,-1.013439957295553,-0.9189890066729944,-1.6286128203021448,-2.8232629934894007
-1.058850113545553,-2.7202027479754847,-1.0147116819964808,-0.9183295408831995,-1.6287205854998987,-2.8240652720080774
-1.0573399702655237,-2.718992058430807,-1.0172441641436976,-0.9171064535724085,-1.6288641134845179,-2.8255980650531214
-1.0565488974200647,-2.718405548726217,-1.01848012605776,-0.91638690630068,-1.628768269215719,-2.8263524214373987
-1.0557215849505823,-2.7178061644183558,-1.0197280089007776,-0.9157398382769983,-1.6288402716266077,-2.8271306196795862
-1.0549305121051233,-2.717243019734518,-1.0209878126727503,-0.9150922934161585,-1.62897235551943,-2.827909294758932
-1.0533488432513636,-2.716128174458639,-1.0234597365008753,-0.9138453642474573,-1.6291397253619593,-2.829489533101217
-1.0525816122638147,-2.7155655066119593,-1.0247438589679163,-0.9132216612445276,-1.6291640440570276,-2.830268208180563
-1.051802937184469,-2.714942280446188,-1.0259798208819788,-0.9125984350787562,-1.6291158835040491,-2.8310940901385706
-1.0510953108416956,-2.714414898549215,-1.02728778520693,-0.9119747320758265,-1.6292837301837366,-2.8318126837359827
-1.0494774023639124,-2.713252369557516,-1.029748264943258,-0.9106558004962366,-1.6293318907367151,-2.8333216349231165
-1.0487220923053187,-2.712665859852926,-1.030924145375387,-0.9100683371173304,-1.6293562094317835,-2.834087912236349
-1.0479310194598597,-2.712090317402975,-1.0321725050555628,-0.9093363920794886,-1.6293318907367151,-2.834914032612936
-1.0471766630755823,-2.711491409932272,-1.0335162321673792,-0.9087255636798304,-1.6294878164874476,-2.8356927076922815
-1.0455463568316858,-2.710341278706686,-1.0360119978534144,-0.9074185530291956,-1.6295717398272913,-2.837213102971212
-1.0448153654681605,-2.7097418943988245,-1.0372126738177698,-0.906806770955221,-1.6295836607562464,-2.8380635420428675
-1.0440600554095667,-2.7091668287860315,-1.0385201613055628,-0.9061592260943812,-1.6295717398272913,-2.838829580937521
-1.0432928244220179,-2.7085912863360804,-1.0397804419146937,-0.9055236021624964,-1.6297157446490687,-2.8395841757403772
-1.0417473951922815,-2.7074173132525843,-1.042276684437887,-0.9042528311358851,-1.629775349293844,-2.841092650090353
-1.0409200827227991,-2.706829849873678,-1.04358417192568,-0.9036648909198206,-1.629775349293844,-2.8418951670276087
-1.0401409308062952,-2.7062304655658167,-1.044880215321676,-0.9030059019671839,-1.6297872702227991,-2.84263784090151
-1.0393980185138147,-2.7056191603290003,-1.0461648146258753,-0.9022982756244105,-1.6299670378314417,-2.8434036413775843
-1.0378997961627405,-2.704409424458639,-1.0487211386310022,-0.9010394255267542,-1.630099121724264,-2.8449249903308313
-1.0370848814593714,-2.7038219610797327,-1.049980942402975,-0.900344196950094,-1.6300390402423304,-2.84572679201235
-1.0362818876849573,-2.7032468954669397,-1.0512412230121058,-0.8997443358050745,-1.6301229635821741,-2.846577231084005
-1.0355146566974085,-2.702683750783102,-1.052561108266012,-0.899024788533346,-1.6303027311908167,-2.8473194281207483
-1.0339563528644007,-2.7014854590045374,-1.0550811926471155,-0.8977416197406214,-1.6304343382464808,-2.8488763014422815
-1.03318959871401,-2.7008984724627894,-1.056329075490133,-0.8970826307879847,-1.6303628126727503,-2.8496785799609583
-1.0324462095843714,-2.700299088154928,-1.0576370398150843,-0.8964827696429651,-1.6305182615863245,-2.8504329363452356
-1.0316436926471155,-2.699711624776022,-1.0588491598712366,-0.8957994619952601,-1.630566422139303,-2.851198975239889
-1.0301216284381312,-2.6984899679767054,-1.06134540239443,-0.8944681326495569,-1.6307461897479456,-2.8528156916247767
-1.0292704741107386,-2.697914425526754,-1.0625689665423792,-0.893808666859762,-1.6306384245501917,-2.8535941282855433
-1.0285514036761683,-2.6973512808429163,-1.0638054052936,-0.8931973616229456,-1.6307700316058558,-2.8543246428119105
-1.0277960936175745,-2.696752373372213,-1.065017048512594,-0.8926218191729944,-1.6308420340167444,-2.8551748434649866
-1.02625018755068,-2.6956260840045374,-1.067561451588766,-0.8913148085223597,-1.6309617201434534,-2.8568392435656946
-1.025459114705221,-2.695002857838766,-1.0688093344317835,-0.8906553427325647,-1.6308658758746546,-2.857629362736837
-1.0246685186969202,-2.694451634083883,-1.0700090567218226,-0.8900082747088831,-1.6309860388385218,-2.858419958745138
-1.023865048085348,-2.693864647542135,-1.0712574164019983,-0.8894322554217737,-1.631033722554342,-2.8591981569873255
-1.02228290239443,-2.6926782766925257,-1.0737775007831019,-0.8880656401263636,-1.6311658064471644,-2.860778872166769
-1.0215399901019495,-2.692115132008688,-1.0750849882708948,-0.8874300161944788,-1.6311057249652308,-2.8616409937488
-1.0207489172564905,-2.691540066395895,-1.0763095060931605,-0.8867223898517054,-1.6312015692340296,-2.8623834292041224
-1.0199459234820765,-2.690965000783102,-1.0776293913470667,-0.8861830870257776,-1.6312854925738733,-2.863173548375265
-1.018400017415182,-2.689862076436178,-1.0801971594439905,-0.8849242369281214,-1.6313932577716272,-2.864718500767843
-1.0175851027118128,-2.689287010823385,-1.0815051237689417,-0.8843124548541468,-1.6313093344317835,-2.8655086199389856
-1.0168898741351526,-2.688723866139547,-1.0827658812152308,-0.8836167494403284,-1.631477181111471,-2.866250816975729
-1.0160749594317835,-2.6880887190448206,-1.0840380827533167,-0.8830178419696253,-1.6315491835223597,-2.8670533339129847
-1.0145404974566858,-2.6869500319110315,-1.086545769368307,-0.8817580381976526,-1.6316807905780237,-2.8684781233416956
-1.0137494246112269,-2.6863749662982386,-1.0878055731402796,-0.8811472097979944,-1.6316331068622034,-2.8692806402789515
-1.0129831472979944,-2.6858118216144007,-1.0890772978412073,-0.8805235067950647,-1.6317527929889124,-2.870059315358297
-1.012167755757467,-2.6852129141436976,-1.0902774969684046,-0.8798039595233362,-1.631824795399801,-2.870873037968771
-1.0106337706195276,-2.684122387562887,-1.0928214232074183,-0.8785808722125452,-1.6320164839373987,-2.872453753148214
-1.0098183790790003,-2.6834991613971155,-1.094069782887594,-0.8779214064227503,-1.6319206396686,-2.8731840292560022
-1.0090273062335413,-2.682972256337301,-1.0953176657306116,-0.8772743383990687,-1.632160488759176,-2.8739987055407923
-1.0082605520831507,-2.6823490301715296,-1.0965774695025843,-0.8765185515033167,-1.632052246724264,-2.8747172991382044
-1.0066664854632776,-2.6811745802508753,-1.0991094748126429,-0.875319782887594,-1.6321724096881312,-2.876333777104513
-1.0058873335467737,-2.6805155912982386,-1.1003697554217737,-0.8746240774737757,-1.6322920958148401,-2.8771238962756556
-1.005096737538473,-2.6799405256854456,-1.1016419569598597,-0.8740127722369593,-1.6324003378497522,-2.8779500166522425
-1.004317585621969,-2.679401222859518,-1.1029136816607874,-0.8734009901629847,-1.6323040167437952,-2.8787522951709192
-1.002711598073141,-2.6782029310809534,-1.1054938475238245,-0.872105900441305,-1.6325200239764612,-2.880285088215963
-1.0019801298724573,-2.6776040236102503,-1.1067660490619105,-0.8714707533465784,-1.6325319449054163,-2.88108736673464
-1.001213852559225,-2.676992718373434,-1.1080134550677698,-0.8708232084857386,-1.6326401869403284,-2.881841484700338
-1.000434700642721,-2.676417652760641,-1.1092737356769007,-0.8702119032489222,-1.6325562636004847,-2.8826680819140833
-0.9988883177386683,-2.6752193609820765,-1.1118419806109827,-0.8688810507403772,-1.6326759497271937,-2.8842485586749476
-0.9981334845172327,-2.67460805574526,-1.1131137053119105,-0.8682335058795374,-1.6326759497271937,-2.8849552313434046
-0.9973662535296839,-2.674044911061422,-1.1143859068499964,-0.867525879536764,-1.6328437964068812,-2.8857694307910364
-0.9965751806842249,-2.673469845448629,-1.115645710621969,-0.8669384161578577,-1.6327117125140589,-2.886535708104269
-0.995004955922262,-2.6723197142230433,-1.1180937925921839,-0.8656671682940882,-1.6328557173358362,-2.888080422078268
-0.9942143599139612,-2.671732250844137,-1.1193535963641565,-0.8650558630572718,-1.6329038778888147,-2.888810698186056
-0.9934476057635706,-2.671157185231344,-1.1205657164203089,-0.8643601576434534,-1.6330235640155237,-2.889637295399801
-0.9926441351519983,-2.670582119618551,-1.1218493620501917,-0.8637970129596155,-1.6329157988177698,-2.890451494847433
-0.9911583105670374,-2.6693719069110315,-1.1243098417865198,-0.8624418417560022,-1.6330235640155237,-2.892031971608297
-0.9903796354876917,-2.6688087622271937,-1.1255338827716272,-0.8618901411639612,-1.6331194082843226,-2.8927984873401087
-0.9896481672870081,-2.6681860128985804,-1.1268180052386683,-0.8612187544452112,-1.6332510153399866,-2.893564764653341
-0.9888690153705042,-2.6675265471087855,-1.1280902067767542,-0.8605592886554163,-1.6331794897662562,-2.894367043172018
-0.9873226324664515,-2.666412655507223,-1.1305854956256312,-0.8592880407916468,-1.6332271734820765,-2.8958638350116175
-0.9865201155291956,-2.6658132711993616,-1.131857697163717,-0.8586290518390101,-1.6334551016436976,-2.8966661135302942
-0.9857414404498499,-2.665285889302389,-1.1331294218646448,-0.8580296675311487,-1.633406941090719,-2.897456709538595
-0.9850218931781214,-2.664710823689596,-1.1343777815448206,-0.8573697249041956,-1.6335390249835413,-2.898270908986227
-0.9834402243243616,-2.663548771535055,-1.1369336287127894,-0.8560751120196741,-1.6336587111102503,-2.89982778230776
-0.9826491514789026,-2.6629374662982386,-1.1382296721087855,-0.8553913275348108,-1.6338146368609827,-2.9006174246417444
-0.9818699995623987,-2.6623624006854456,-1.1394417921649378,-0.8548038641559046,-1.633742634450094,-2.901360098515646
-0.9810908476458948,-2.6617634932147425,-1.140761677418844,-0.8541205565081995,-1.6339462439166468,-2.9021626154529017
-0.9795449415790003,-2.6606248060809534,-1.1432936827289026,-0.8528736273394983,-1.6341021696673792,-2.9036832491504114
-0.9786942640887659,-2.6600616613971155,-1.1445539633380335,-0.8522017637835901,-1.6340301672564905,-2.904425923024313
-0.9779627958880823,-2.659522358571188,-1.1458256880389612,-0.8516266981707972,-1.6341622511493128,-2.9052401224719446
-0.9772079626666468,-2.6589353720294397,-1.1470616499530237,-0.8510029951678675,-1.6342337767230433,-2.9059582392321985
-0.9756258169757288,-2.657821003590719,-1.1495936552630823,-0.8497198263751429,-1.6344135443316858,-2.9074912706958216
-0.9748590628253382,-2.6572216192828577,-1.1508777777301233,-0.849072281514303,-1.6342938582049769,-2.908269468938009
-0.9740684668170374,-2.6566227118121546,-1.1519697348224085,-0.8484013716327112,-1.6344497839557093,-2.90906006494631
-0.9732654730426233,-2.6560118834124964,-1.1532776991473597,-0.8478372732745569,-1.6344378630267542,-2.909802261983053
-0.971659008656637,-2.6548731962787073,-1.1557734648333948,-0.8464825789081019,-1.6345933119403284,-2.9113951365100306
-0.9708922545062464,-2.654273811970846,-1.1570213476764124,-0.8458712736712855,-1.6345093886004847,-2.912161413823263
-0.9701131025897425,-2.6537349859820765,-1.1582816282855433,-0.8451998869525355,-1.634665314351217,-2.9129274527179163
-0.9693220297442835,-2.6531360785113733,-1.1595771948443812,-0.8445642630206507,-1.6347373167621058,-2.9137538115130823
-0.967788044606344,-2.6520217100726526,-1.1620615164386194,-0.8432815710650843,-1.6348331610309046,-2.915370051060812
-0.9670093695269983,-2.6514347235309046,-1.1633818785296839,-0.8427293936358851,-1.6347973982440394,-2.9161246458636683
-0.9662302176104944,-2.650811497365133,-1.1646416823016565,-0.84204608598818,-1.6348932425128382,-2.9169274012195032
-0.9654868284808558,-2.65023643175234,-1.1658771673785608,-0.8414228598224085,-1.6349409262286585,-2.917729202901022
-0.963905159627096,-2.6490381399737757,-1.1684096495257776,-0.8401158491717737,-1.6350849310504358,-2.9193342367755335
-0.9631498495685022,-2.6484268347369593,-1.169753376637594,-0.8395159880267542,-1.6350129286395472,-2.9201601187335413
-0.96240741411318,-2.6478760878192347,-1.17102557817568,-0.8388446013080042,-1.6352046171771448,-2.920962635670797
-0.961616341267721,-2.6473005453692835,-1.1723092238055628,-0.8381851355182093,-1.635096851979391,-2.9217408339129847
-0.960034195576803,-2.6461380163775843,-1.1748531500445765,-0.8368542830096644,-1.6352165381061,-2.923333231602804
-0.9592793623553675,-2.6455753485309046,-1.176101032887594,-0.8361948172198694,-1.6354082266436976,-2.92413574854006
-0.9585002104388636,-2.644952122365133,-1.177361313496725,-0.8355472723590296,-1.635432545338766,-2.9249025026904505
-0.9577091375934046,-2.644352738057272,-1.1786091963397425,-0.8348758856402796,-1.6354201475726526,-2.9256683031665247
-0.9561756292926233,-2.6431430021869105,-1.1810930410968226,-0.8335445562945765,-1.6355164686786097,-2.927189652119772
-0.9554322401629847,-2.6425560156451624,-1.1822932402240198,-0.8329094091998499,-1.6357205549823206,-2.927955452595846
-0.9546650091754358,-2.6419690291034144,-1.1835406462298792,-0.8322861830340784,-1.6356003920184534,-2.9287219683276575
-0.9538982550250452,-2.6414173285113733,-1.184789005910055,-0.8316267172442835,-1.635792080556051,-2.929488722478048
-0.9523280302630823,-2.6402671972857874,-1.187249008809225,-0.8304031530963343,-1.635792080556051,-2.9310689608203333
-0.9515612761126917,-2.639656368886129,-1.1884849707232874,-0.8297441641436976,-1.6358640829669397,-2.9318116346942347
-0.9507582823382776,-2.6390331427203577,-1.1897204558001917,-0.8290727774249476,-1.635780159627096,-2.932661835347311
-0.9500034491168421,-2.6384576002704065,-1.1909330526935022,-0.8284009138690394,-1.636008087788717,-2.933380190526144
-0.9484451452838343,-2.6372597853290003,-1.1934407393084925,-0.8271778265582483,-1.635996166859762,-2.9349728266345423
-0.9475825468646448,-2.636660401021139,-1.1946409384356897,-0.8265064398394983,-1.636103932057516,-2.93575102487673
-0.9468515555011194,-2.636085335408346,-1.1959126631366175,-0.8258832136737269,-1.6360319296466272,-2.9365413824664515
-0.9460480848895472,-2.6354859511004847,-1.1971848646747034,-0.8252719084369105,-1.6361997763263147,-2.9372599760638636
-0.9445145765887659,-2.634336296712057,-1.1997407118426722,-0.8239405790912073,-1.63623553911318,-2.9389243761645716
-0.9437235037433069,-2.633785072957174,-1.2010844389544886,-0.8233769575702112,-1.6362836996661585,-2.939714495335714
-0.9429205099688929,-2.6331260840045374,-1.202428166066305,-0.8226454893695276,-1.6362956205951136,-2.940529171620504
-0.942141358052389,-2.632538620625631,-1.2037604490863245,-0.8220704237567347,-1.6364153067218226,-2.9414268175708216
-0.940523926411764,-2.6313045660602015,-1.2064483801471155,-0.8207033316241663,-1.63658315340151,-2.9430199305163782
-0.9396608511554163,-2.6307175795184534,-1.2077201048480433,-0.8201640287982386,-1.6364873091327112,-2.9438582102404993
-0.938822094594137,-2.630094353352682,-1.2091124693499964,-0.8193720022784632,-1.6366551558123987,-2.9446962515460413
-0.938019100819723,-2.6294949690448206,-1.2104561964618128,-0.8187730948077601,-1.6366313139544886,-2.9454384485827845
-0.9363773504840296,-2.628261391316549,-1.2131560484515589,-0.8173578421222132,-1.6368468443499964,-2.947162691746847
-0.935526196156637,-2.6276024023639124,-1.2145236174212855,-0.8166745344745081,-1.6368587652789515,-2.947965208684103
-0.9346993605243128,-2.6270511786090296,-1.2158673445331019,-0.8159549872027796,-1.6369426886187952,-2.9488514105426233
-0.9338243643390101,-2.626404110585348,-1.217248264943258,-0.8152836004840296,-1.6369908491717737,-2.949665609990255
-0.9320748488055628,-2.625049893056051,-1.2200072447406214,-0.8137729803668421,-1.637146298085348,-2.9513781706439417
-0.9311993757831019,-2.6244147459613245,-1.2213757673846644,-0.813089672719137,-1.6373022238360804,-2.952264372502462
-0.9303253332721155,-2.623768154774801,-1.2227194944964808,-0.8123338858233851,-1.6372421423541468,-2.9531503359424036
-0.9294503370868128,-2.6231568495379847,-1.224147144948141,-0.8116028944598597,-1.6374700705157679,-2.9539886156665247
-0.9277246634112757,-2.621826950703756,-1.2269910017596644,-0.8101514021502894,-1.6375182310687464,-2.9557486216174524
-0.926849667225973,-2.6211803595172327,-1.2284310499774378,-0.8094924131976526,-1.6376140753375452,-2.9566946665393274
-0.9259269873248499,-2.6205571333514612,-1.2297995726214808,-0.808760944996969,-1.6375778357135218,-2.957473341618673
-0.9250882307635706,-2.619945828114645,-1.231251064931051,-0.8080533186541956,-1.6377814451800745,-2.9583354632007044
-0.9233382383929651,-2.6186516920672815,-1.2341068426715296,-0.8066385428058069,-1.6378534475909632,-2.9601195494281214
-0.9225114027606409,-2.617992703114645,-1.2355111281024378,-0.8058832327472132,-1.637817684804098,-2.960982147847311
-0.9216607252704065,-2.6173575560199183,-1.2369025389300745,-0.8051756064044397,-1.6378896872149866,-2.9618077913867396
-0.920821491871969,-2.61672288576235,-1.2382586638080042,-0.8045042196856897,-1.6379974524127405,-2.9626463095294397
-0.9191802183734339,-2.61548883119692,-1.24091083208193,-0.8031495253192347,-1.6381290594684046,-2.9643107096301478
-0.9184129873858851,-2.6149614492999476,-1.2421820799456995,-0.8024895826922815,-1.6380212942706507,-2.965053383504049
-0.9176219145404261,-2.6143506209002894,-1.243502442036764,-0.8018305937396448,-1.638153378163473,-2.965855423604147
-0.9168432394610804,-2.613751236592428,-1.2447622458087366,-0.8012188116656702,-1.6381052176104944,-2.9666102568255823
-0.9153087774859827,-2.612577263508932,-1.247246567402975,-0.7999361197101038,-1.6383088270770472,-2.9680946508990687
-0.9146259466754358,-2.612026039754049,-1.2483742872821253,-0.7993367354022425,-1.6382611433612269,-2.968849245701925
-0.9139068762408655,-2.6114867369281214,-1.2494900862323206,-0.7986887137042444,-1.6383689085589808,-2.969555918370382
-0.9131634871112269,-2.6109235922442835,-1.2506778875934046,-0.7981613318072718,-1.6383331457721155,-2.970285956059591
-0.9118097464190882,-2.6098693052874964,-1.2529338041888636,-0.7970102469073694,-1.6384885946856897,-2.9716272989856165
-0.9111502806292933,-2.6094020048724573,-1.2539413611041468,-0.7964828650103968,-1.638416592274801,-2.9722862879382532
-0.9104793707477015,-2.608898941670553,-1.2549498716937464,-0.7959430853473108,-1.6385968367206019,-2.9729440847979944
-0.9098442236529749,-2.608443562184469,-1.2560175100909632,-0.795391861592428,-1.6385372320758265,-2.9736388365374964
-0.9086697737323206,-2.6074608008014124,-1.2579610983477991,-0.7944319883929651,-1.6386330763446253,-2.9748125712024134
-0.908034626637594,-2.607041660939352,-1.2588613669024866,-0.7939408461200159,-1.638716999684469,-2.9753995577441614
-0.9075077215777796,-2.606610123311178,-1.259761158620016,-0.7934611479388636,-1.6388128439532679,-2.975938383732931
-0.9069684187518519,-2.6062029043780726,-1.2606852690326136,-0.7930539290057581,-1.6387646834002894,-2.976548735295431
-0.9059374968158167,-2.6053999106036585,-1.262353245412008,-0.7922022978412073,-1.6388128439532679,-2.977638546620504
-0.9054220358477991,-2.6050289312945765,-1.263193432484762,-0.791722599660055,-1.638956371937887,-2.978105608616964
-0.9049666563617151,-2.6046693960772913,-1.264057461415426,-0.7913506666766565,-1.6388967672931116,-2.978572670613424
-0.904487435017721,-2.604262177144186,-1.2648728529559534,-0.7909072081195276,-1.6390402952777308,-2.9791834990130823
-0.9035165945636194,-2.6035788694964808,-1.266433064137594,-0.7900918165790003,-1.6391480604754847,-2.9801650683032435
-0.9030016104327601,-2.6032193342791956,-1.2672370115863245,-0.7897203604327601,-1.6391599814044397,-2.980691973363058
-0.9025581518756312,-2.6028478781329554,-1.2680290381061,-0.7893484274493616,-1.6391361395465296,-2.9811952749835413
-0.9020307699786585,-2.6025002638446253,-1.268796745930807,-0.7890008131610315,-1.639292065297262,-2.981638256703512
-0.9010360876666468,-2.601733986531393,-1.2703564802752894,-0.7881854216205042,-1.639411751423971,-2.9826439062701624
-0.9005444685565394,-2.6013744513141077,-1.2710889021502894,-0.7878020445453089,-1.6392682234393519,-2.9831228891955774
-0.9000771681415003,-2.6010387579547327,-1.2719762961017054,-0.7874181906329554,-1.639423672352926,-2.9835780302630823
-0.8995502630816858,-2.6006315390216272,-1.2727206389056605,-0.7869504133807581,-1.6393640677081507,-2.984116856251852
-0.8985312620746058,-2.599912468587057,-1.274304215108053,-0.7861712614642542,-1.6394956747638147,-2.9850991407977503
-0.8980038801776331,-2.5995290915118616,-1.2751324812518519,-0.7857397238360804,-1.639411751423971,-2.9855898062335413
-0.897501293812887,-2.5991457144366663,-1.2759483496295374,-0.7852838675128382,-1.6395438353167933,-2.9860926310168665
-0.8969739119159144,-2.598762337361471,-1.2767518202411097,-0.7848518530475062,-1.6394718329059046,-2.9866555372821253
-0.895942513142721,-2.5980194250689905,-1.278407398854391,-0.784036938344137,-1.639615837727682,-2.9877453486071985
-0.8954156080829065,-2.597623650227682,-1.279259983693258,-0.7835453192340296,-1.6395557562457483,-2.9882364908801478
-0.8949006239520472,-2.5972288290606897,-1.2800877729998987,-0.7831376234637659,-1.6397832075702112,-2.9886913935290735
-0.8943732420550745,-2.5968335310565394,-1.2809518019305628,-0.7827418486224573,-1.6396516005145472,-2.9892540613757532
-0.8933303991900843,-2.5960305372821253,-1.2826197783099573,-0.7818549315081995,-1.6398194471942347,-2.990271870289938
-0.8928392569171351,-2.595635239277975,-1.283447567616598,-0.7813990751849573,-1.639735523854391,-2.9908106962787073
-0.8922880331622522,-2.5952399412738245,-1.2842872778521937,-0.7809794584857386,-1.6399272123919886,-2.991373602543966
-0.8918083349810999,-2.5948084036456507,-1.2851269880877894,-0.7805717627154749,-1.639735523854391,-2.9918649832354944
-0.890789810811178,-2.5940774122821253,-1.2868192831622522,-0.7796486059771937,-1.6399033705340784,-2.9928825537311
-0.8902743498431605,-2.5936344305621546,-1.2876713911639612,-0.7793005148517054,-1.6398432890521448,-2.9934213797198694
-0.8897355238543909,-2.593299214039938,-1.2884991804706019,-0.7788689772235315,-1.6399992148028772,-2.9938765207873743
-0.8892801443683069,-2.592963520680563,-1.2893393675433558,-0.7784856001483362,-1.6399152914630335,-2.9943915049182337
-0.8882611433612269,-2.5922444502459925,-1.2908270994769495,-0.7776220480548304,-1.6401069800006312,-2.9954093138324183
-0.8877580801593226,-2.5918968359576624,-1.29163104692568,-0.7772863546954554,-1.6400468985186976,-2.9958279768573206
-0.8872788588153284,-2.5915611425982874,-1.2923863569842737,-0.7768786589251917,-1.6401789824115198,-2.996354881917135
-0.8868234793292444,-2.5912140051471155,-1.2931788603412073,-0.776459042225973,-1.6401308218585413,-2.9968224207507532
-0.885864559804098,-2.5905068556415003,-1.2946541945086878,-0.7757037321673792,-1.6402385870562952,-2.9977684656726282
-0.8854692617999476,-2.5901716391192835,-1.295422379170553,-0.775344196950094,-1.6401427427874964,-2.998211447392599
-0.8850377241717737,-2.5898240248309534,-1.2961066404925745,-0.7749365011798304,-1.6402986685382288,-2.9986305872546595
-0.8845942656146448,-2.589524571095602,-1.2968023459063929,-0.7745645681964319,-1.6402385870562952,-2.9990015665637415
-0.8837793509112757,-2.58887750307192,-1.298218075429098,-0.7738330999957483,-1.6403706709491175,-2.999911610280172
-0.8833721319781702,-2.588578526173727,-1.2989261786090296,-0.7735093275653284,-1.6402867476092737,-3.0002947489367884
-0.8830125967608851,-2.588290516530172,-1.2996099630938929,-0.7731497923480433,-1.6404545942889612,-3.000726286564962
-0.8825929800616663,-2.5879910627948206,-1.300257984791891,-0.7728140989886683,-1.6403587500201624,-3.001181189213888
-0.8817780653582972,-2.587451759968893,-1.3015058676349085,-0.7722623983966272,-1.6404545942889612,-3.0019834677325647
-0.8813827673541468,-2.587128464375631,-1.3021414915667933,-0.7719386259662073,-1.6404545942889612,-3.002354685460226
-0.8810351530658167,-2.586864773427145,-1.302729908620016,-0.7716029326068323,-1.6406105200396937,-3.0027018229113978
-0.880615536366598,-2.5866249243365687,-1.3033059279071253,-0.7712672392474573,-1.6405141989337366,-3.003084961568014
-0.8798845450030726,-2.5860617796527308,-1.3044937292682093,-0.7706797758685511,-1.6405742804156702,-3.0038276354419153
-0.8795736471759241,-2.585822407399313,-1.305021111165182,-0.7704036871539515,-1.640658203755514,-3.004174772893087
-0.879226032887594,-2.5855944792376917,-1.305549446736471,-0.7701042334185999,-1.6407421270953577,-3.004510227833883
-0.8789261023150843,-2.585283104573385,-1.3061378637896937,-0.7698405424701136,-1.640658203755514,-3.0049052874194544
-0.878218952809469,-2.5847561995135706,-1.3071816603290003,-0.769228760396139,-1.6407659689532679,-3.005552117024557
-0.8778956572162073,-2.5845401922809046,-1.3076971212970179,-0.769012753163473,-1.6408260504352015,-3.005838934575216
-0.8775718847857874,-2.5843008200274866,-1.3082249800311487,-0.7688091436969202,-1.640886131917135,-3.0061145464526575
-0.8772485891925257,-2.584025208150045,-1.3087409178363245,-0.7685096899615687,-1.6407902876483362,-3.0064619223224085
-0.876601521168844,-2.5835698286639612,-1.309737507496969,-0.7680180708514612,-1.6408980528460901,-3.007084671651022
-0.8763254324542444,-2.5833657423602503,-1.3101571241961878,-0.76776630083193,-1.6409700552569788,-3.0074077288257044
-0.876049820576803,-2.5831387678729456,-1.310624901448385,-0.7674902121173304,-1.6410535017596644,-3.007683340703146
-0.8757866064654749,-2.5828869978534144,-1.3110807577716272,-0.7672627607928675,-1.6409700552569788,-3.0079827944384974
-0.8752349058734339,-2.582491699849264,-1.3119805494891565,-0.7668069044696253,-1.6410535017596644,-3.0085814634906214
-0.8748996893512171,-2.582251850758688,-1.312448803578512,-0.7665670553790491,-1.6410658995257776,-3.0088332335101526
-0.8746836821185511,-2.58203632036318,-1.3128927389727991,-0.7663033644305628,-1.6411975065814417,-3.0090728441821497
-0.8743961493121546,-2.581844154988424,-1.3132885138141077,-0.766087834035055,-1.6410177389727991,-3.0093358198748987
-0.8739169279681605,-2.581485096608297,-1.3141287008868616,-0.7657278219806116,-1.641137425099508,-3.0097907225238245
-0.8736651579486292,-2.5812695662127894,-1.3144410292254847,-0.7654760519610804,-1.6410658995257776,-3.010054413472311
-0.8734615484820765,-2.581113640462057,-1.3148487249957483,-0.765416447316305,-1.6412575880633753,-3.010317627583639
-0.8732097784625452,-2.5809577147113245,-1.3152321020709437,-0.7652486006366175,-1.641125504170553,-3.010557476674215
-0.8727663199054163,-2.580682102833883,-1.3159402052508753,-0.7649481932269495,-1.6411975065814417,-3.010904614125387
-0.8725984732257288,-2.580526653920309,-1.31622821489443,-0.7647808233844202,-1.641125504170553,-3.011144224797384
-0.872382942830221,-2.58043080965151,-1.316552464162008,-0.7646124998675745,-1.6412695089923304,-3.0112879912005823
-0.8721917311297815,-2.580287281666891,-1.316876236592428,-0.7643969694720667,-1.6411016623126429,-3.0115392843829554
-0.8718321959124964,-2.58005935350527,-1.3174403349505823,-0.7640250364886683,-1.641233269368307,-3.0119345823871058
-0.8716281096087855,-2.5799158255206507,-1.3177045027362269,-0.7640374342547815,-1.6411617437945765,-3.0120542685138147
-0.871556584035055,-2.5798075834857386,-1.317967716847555,-0.7637375036822718,-1.6413534323321741,-3.0122581163989466
-0.8714240233050745,-2.5797117392169397,-1.3181727568255823,-0.7638214270221155,-1.6411617437945765,-3.0123420397387903
-0.871136490498678,-2.579496208821432,-1.3186162153827112,-0.7636774222003382,-1.6413052717791956,-3.01253325143923
-0.871016804371969,-2.579400364552633,-1.3187602202044886,-0.7634614149676722,-1.641137425099508,-3.0125933329211634
-0.8709328810321253,-2.5793164412127894,-1.3189519087420862,-0.7634976545916956,-1.6413653532611292,-3.0127370993243616
-0.8708127180682581,-2.5792325178729456,-1.319120232258932,-0.7634018103228968,-1.641233269368307,-3.0127370993243616
-0.8706453482257288,-2.5791128317462366,-1.3194440046893519,-0.7632578055011194,-1.6413653532611292,-3.012904469166891
-0.8706091086017054,-2.5790885130511683,-1.3195999304400843,-0.7631500403033655,-1.6412094275103968,-3.0129879156695765
-0.8704894224749964,-2.579016987477438,-1.319671932850973,-0.7631381193744105,-1.6413891951190394,-3.0131197611438196
-0.8704894224749964,-2.5789688269244593,-1.3197439352618616,-0.7630894819842737,-1.6412814299212855,-3.0131078402148646
-0.8704417387591761,-2.578921143208639,-1.3198636213885706,-0.7630894819842737,-1.6413891951190394,-3.0132156054126185
-0.870429817830221,-2.578956905995504,-1.3198874632464808,-0.7629221121417444,-1.6412575880633753,-3.013263527547018
-0.870429817830221,-2.578944985066549,-1.3199246565448206,-0.7629941145526331,-1.6413534323321741,-3.0132396856891077
-0.8704417387591761,-2.578956905995504,-1.319899861012594,-0.7628977934466761,-1.6412094275103968,-3.013287607823507
-0.8704417387591761,-2.5789807478534144,-1.3198278586017054,-0.7630298773394983,-1.6412814299212855,-3.0132396856891077
-0.8704655806170862,-2.578956905995504,-1.3198278586017054,-0.7629941145526331,-1.641233269368307,-3.0132277647601526
-0.8704536596881312,-2.578956905995504,-1.319803539906637,-0.7629941145526331,-1.641233269368307,-3.013251606618063
-0.8704536596881312,-2.5789807478534144,-1.3198159376727503,-0.7629941145526331,-1.6412456671344202,-3.0132156054126185
-0.8704779783831995,-2.578944985066549,-1.3198159376727503,-0.7630060354815882,-1.641233269368307,-3.013251606618063
-0.8704417387591761,-2.578944985066549,-1.3198517004596155,-0.7629941145526331,-1.6412575880633753,-3.0132396856891077
-0.8704779783831995,-2.578956905995504,-1.3198517004596155,-0.7629941145526331,-1.641233269368307,-3.013275686894552
-0.8704417387591761,-2.5789807478534144,-1.3198874632464808,-0.7630060354815882,-1.6412456671344202,-3.013251606618063
-0.8704417387591761,-2.5789688269244593,-1.3198278586017054,-0.7629941145526331,-1.641233269368307,-3.013251606618063
-0.8705013434039515,-2.578933064137594,-1.319803539906637,-0.7629697958575647,-1.6412456671344202,-3.013251606618063
-0.8704655806170862,-2.578933064137594,-1.3198760191546839,-0.7629817167865198,-1.6412575880633753,-3.013251606618063
-0.8704417387591761,-2.5789688269244593,-1.3198397795306605,-0.7629459539996546,-1.6412575880633753,-3.013251606618063
-0.8704536596881312,-2.5789688269244593,-1.3198278586017054,-0.7629697958575647,-1.6412695089923304,-3.0132396856891077
-0.8704779783831995,-2.5790050665484827,-1.3198517004596155,-0.7629697958575647,-1.641233269368307,-3.013275686894552
-0.870429817830221,-2.5789688269244593,-1.3197920958148401,-0.7629817167865198,-1.641233269368307,-3.0132277647601526
-0.8704655806170862,-2.578956905995504,-1.3198278586017054,-0.7630417982684534,-1.6412814299212855,-3.013263527547018
-0.8704779783831995,-2.5789807478534144,-1.3197796980487269,-0.7630656401263636,-1.6412933508502405,-3.0132036844836634
-0.8704655806170862,-2.5789688269244593,-1.3197439352618616,-0.7630179564105433,-1.6412695089923304,-3.0132036844836634
-0.8705251852618616,-2.5789807478534144,-1.3197200934039515,-0.7631381193744105,-1.6412814299212855,-3.013167683278219
-0.8705733458148401,-2.579016987477438,-1.3196361700641077,-0.7632220427142542,-1.6412814299212855,-3.013155762349264
-0.8706572691546839,-2.579076592122213,-1.3194440046893519,-0.763305966054098,-1.6412695089923304,-3.0130837599383753
-0.8707769552813929,-2.579136673604147,-1.319348160420553,-0.7634256521808069,-1.6412575880633753,-3.01304799715151
-0.8708489576922815,-2.579160515462057,-1.3191922346698206,-0.7633898893939417,-1.6412695089923304,-3.012892548237936
-0.8709328810321253,-2.5792086760150355,-1.3190234343158167,-0.7634976545916956,-1.6412933508502405,-3.0128803888904017
-0.8711484114276331,-2.579364601765768,-1.3187721411334437,-0.7636173407184046,-1.6412814299212855,-3.0127370993243616
-0.8713162581073206,-2.5794361273394983,-1.3185198942767542,-0.7637737433062952,-1.6412456671344202,-3.012557331715719
-0.8714001814471644,-2.5795920530902308,-1.3183882872210901,-0.7637737433062952,-1.6412456671344202,-3.012545410786764
-0.8716400305377405,-2.5796521345721644,-1.318160359059469,-0.7640011946307581,-1.6412814299212855,-3.0123420397387903
-0.8719037214862269,-2.579939667378561,-1.3176444212542933,-0.7641690413104456,-1.6412213484393519,-3.012078348790304
-0.8720596472369593,-2.580071274434225,-1.3173802534686487,-0.7641809622394007,-1.641233269368307,-3.0120423475848597
-0.8722513357745569,-2.580191437398092,-1.317092243825094,-0.7644327322589319,-1.641233269368307,-3.0118029753314417
-0.8724549452411097,-2.580323044453756,-1.316756550465719,-0.7644928137408655,-1.6412456671344202,-3.0115633646594446
-0.8728740851031702,-2.5805986563311976,-1.3160842100726526,-0.764876667653219,-1.6411855856524866,-3.0109885374652308
-0.8730781714068812,-2.580790344868795,-1.3157485167132776,-0.7651761213885706,-1.641137425099508,-3.0107372442828577
-0.873305622731344,-2.5809338728534144,-1.3153765837298792,-0.765320126210348,-1.641125504170553,-3.0105095545398157
-0.8735693136798304,-2.581113640462057,-1.3149922529803675,-0.7655838171588343,-1.6411736647235315,-3.0102458635913294
-0.8741443792926233,-2.581461254750387,-1.314176384602682,-0.7659319082843226,-1.641125504170553,-3.009635035191671
-0.8744562307940882,-2.581676785145895,-1.3136966864215296,-0.7660635153399866,-1.6410897413836878,-3.0093358198748987
-0.8747080008136194,-2.581844154988424,-1.3132403532611292,-0.7663634459124964,-1.6410778204547327,-3.0090368429767054
-0.8749955336200159,-2.5820120016681116,-1.3128088156329554,-0.7664950529681605,-1.6410897413836878,-3.008749310170309
-0.8756426016436976,-2.5824793020831507,-1.3118489424334925,-0.7670462767230433,-1.6409576574908655,-3.00816256204714
-0.8759539763080042,-2.5826953093158167,-1.3113330046283167,-0.7672746817218226,-1.640993897114889,-3.007815186177389
-0.8762653509723108,-2.5829227606402796,-1.310840908681051,-0.7675746122943323,-1.6409819761859339,-3.007455650960104
-0.8765772024737757,-2.5831626097308558,-1.3103130499469202,-0.7678502241717737,-1.6409700552569788,-3.007120672856466
-0.8773325125323694,-2.58366567293276,-1.3093050161944788,-0.76843768755068,-1.6409218947040003,-3.00641376176943
-0.8776558081256312,-2.5839293638812464,-1.3087647596942347,-0.7687972227679651,-1.6408618132220667,-3.006042782460348
-0.8779671827899378,-2.5841930548297327,-1.3082850615130823,-0.7690251509295862,-1.6408618132220667,-3.005707565938131
-0.8783744017230433,-2.584468666707174,-1.307732884083883,-0.7692764441119593,-1.6408141295062464,-3.005348507558004
-0.8791177908526819,-2.5849717299090784,-1.3065694014178675,-0.7698405424701136,-1.6408022085772913,-3.0046897570239466
-0.8794415632831019,-2.5851758162127894,-1.3060057798968714,-0.7700684706317347,-1.640658203755514,-3.004282538090841
-0.8797891775714319,-2.5854628721820276,-1.3054655233966272,-0.7704156080829065,-1.6407421270953577,-3.003923479710714
-0.8801844755755823,-2.585726563130514,-1.3048537413226526,-0.7707517782794397,-1.640538517628805,-3.0035162607776087
-0.8809393087970179,-2.5862296263324183,-1.3036893049823206,-0.7713268438922327,-1.6405623594867151,-3.0026539007769983
-0.8812506834613245,-2.5864809195147913,-1.303077522908346,-0.7716510931598108,-1.6404183546649378,-3.0023067633258265
-0.8817060629474085,-2.5867446104632776,-1.3024657408343714,-0.7719987074481409,-1.6405141989337366,-3.001911465321676
-0.8821018377887171,-2.5870445410357874,-1.3018177191363733,-0.7723825613604944,-1.6403468290912073,-3.001564327870504
-0.8829405943499964,-2.5876076857196253,-1.3005698362933558,-0.7729700247394007,-1.6403587500201624,-3.0007501284228724
-0.8833840529071253,-2.5878832975970667,-1.299922291432516,-0.7732456366168421,-1.6402385870562952,-3.0003307501422327
-0.8838031927691858,-2.5881827513324183,-1.2992499510394495,-0.7735813299762171,-1.6403706709491175,-2.999899689351217
-0.8842108885394495,-2.5884702841388147,-1.2985780874835413,-0.7739413420306605,-1.640214745198385,-2.999420706425802
-0.8850258032428187,-2.589057270680563,-1.2971981207477015,-0.7746484915362757,-1.6402266661273401,-2.9985345045672815
-0.8854931036578577,-2.589332405720846,-1.2965505758868616,-0.7749722639666956,-1.640083138142721,-2.998091522847311
-0.885864559804098,-2.5896323362933558,-1.2958186308490198,-0.7753561178790491,-1.6402266661273401,-2.997660462056295
-0.8863676230060022,-2.5899675528155726,-1.2951586882220667,-0.7757752577411097,-1.640071217213766,-2.9971934000598353
-0.8873270193683069,-2.5906031767474573,-1.2937424818622034,-0.776459042225973,-1.6402385870562952,-2.9962595144854944
-0.8877218405352991,-2.5909627119647425,-1.2929871718036097,-0.7768428961383265,-1.6400588194476526,-2.995780054722921
-0.8882492224322718,-2.591274086629049,-1.29230243364443,-0.7772148291217249,-1.6401069800006312,-2.9952896277057093
-0.8887284437762659,-2.591597382222311,-1.2914984861956995,-0.7775982061969202,-1.6401069800006312,-2.9948464075671595
-0.8897112051593226,-2.592292133961813,-1.2900469938861292,-0.7782452742206019,-1.6401308218585413,-2.9938765207873743
-0.8902505079852503,-2.5926039854632776,-1.2893269697772425,-0.7786529699908655,-1.6399872938739222,-2.99337345758547
-0.8907540480243128,-2.592963520680563,-1.2885711828814905,-0.779024902974264,-1.6399872938739222,-2.9928465525256556
-0.8912571112262171,-2.593311134968893,-1.2877791563617151,-0.7795046011554163,-1.6400468985186976,-2.992295805607931
-0.8922999540912073,-2.5939815680133265,-1.2862313429461878,-0.780247990285055,-1.6399629751788538,-2.9913256804095667
-0.8928154150592249,-2.5943530241595667,-1.2854154745685022,-0.7806318441974085,-1.6398552099811,-2.9908466974841517
-0.8933065573321741,-2.594700638447897,-1.2845514456378382,-0.7810633818255823,-1.6398552099811,-2.990319792424337
-0.893869702016012,-2.5951078573810022,-1.283795181904928,-0.7814829985248011,-1.6399510542498987,-2.9897688070880335
-0.8949125448810022,-2.5957911650287073,-1.2822116057025355,-0.7822983900653284,-1.6398075262652796,-2.9886913935290735
-0.8953917662249964,-2.5961864630328577,-1.2814200560199183,-0.7827776114093226,-1.639747444783346,-2.988164488469259
-0.8959549109088343,-2.596581761037008,-1.2806275526629847,-0.7831977049456995,-1.639615837727682,-2.9876256624804896
-0.8964818159686487,-2.5969770590411585,-1.2797277609454554,-0.7835934797870081,-1.639759365712301,-2.9870627562152308
-0.8975847403155726,-2.597743813191549,-1.278071705495016,-0.784492317830221,-1.639615837727682,-2.986032787953512
-0.8980758825885218,-2.5981510321246546,-1.277219597493307,-0.7849357763873499,-1.6396635214435022,-2.985434357319967
-0.898663345967428,-2.598522488270895,-1.276332203541891,-0.7853196302997034,-1.6394718329059046,-2.984823528920309
-0.8992026487933558,-2.5989421049701136,-1.275480095540182,-0.7857635656939905,-1.6395795981036585,-2.9843085447894495
-0.9003170172320765,-2.5997565428363245,-1.2738006750689905,-0.7866748015033167,-1.6394718329059046,-2.983194891606466
-0.9008682409869593,-2.600164238606588,-1.2728522459613245,-0.7870820204364222,-1.6393759886371058,-2.9826200644122522
-0.9014433065997522,-2.6005595366107386,-1.2719882170306605,-0.787490193043844,-1.6393159071551722,-2.9820573965655726
-0.9020069281207483,-2.600955311452047,-1.2711008230792444,-0.7879217306720179,-1.6393879095660608,-2.981422726308004
-0.9031932989703577,-2.601745907460348,-1.2693608442889612,-0.7888568083392542,-1.6393521467791956,-2.980344835911886
-0.9037445227252405,-2.6021650473224085,-1.2684605757342737,-0.7893484274493616,-1.6391361395465296,-2.9797819296466272
-0.9043439070331019,-2.602560345326559,-1.2675603071795862,-0.789828125630514,-1.6391962210284632,-2.9791715780841272
-0.9049189726458948,-2.6029794851886194,-1.266672436391012,-0.7902596632586878,-1.6390765349017542,-2.978560749684469
-0.9060571829425257,-2.603806797658102,-1.264824692402975,-0.7912309805499476,-1.6390164534198206,-2.9774230162249964
-0.906656567250387,-2.604262177144186,-1.2639125029193323,-0.7916868368731897,-1.6388605276690882,-2.9768601099597376
-0.9072678724872034,-2.6046813170062464,-1.263097111378805,-0.7921059767352503,-1.638968292866842,-2.9762731234179896
-0.9078190962420862,-2.605124298726217,-1.262125317250387,-0.792609993611471,-1.6387885252581995,-2.9756391684161585
-0.909041706715719,-2.6059392134295862,-1.26030141512026,-0.7935569922076624,-1.6387408415423792,-2.974429432545797
-0.9095929304706019,-2.606358830128805,-1.2593415419207972,-0.7940247694598597,-1.6386569182025355,-2.9739025274859827
-0.9101799170123499,-2.6067898909198206,-1.258585278187887,-0.7945163885699671,-1.6387289206134241,-2.97325569788088
-0.9108389059649866,-2.607185188923971,-1.2575896422015589,-0.7949841658221644,-1.6385372320758265,-2.9726691881762903
-0.9120734373675745,-2.6080239454852503,-1.2556937376605433,-0.7959907690631312,-1.6384885946856897,-2.9713876883136194
-0.9126609007464808,-2.608467404042379,-1.2546737829791468,-0.7965305487262171,-1.6385248343097132,-2.970764938985006
-0.9133074919330042,-2.608910862599508,-1.253725830708639,-0.7970464865313929,-1.638500992451803,-2.9701061884509485
-0.9140031973468226,-2.6093900839435022,-1.2526815573321741,-0.7975857893573206,-1.6383450667010706,-2.9694841543780726
-0.9153206984149378,-2.6103490034686487,-1.2506540457354944,-0.798629109059469,-1.638296906148092,-2.9682026545154017
-0.9160397688495081,-2.6108277479754847,-1.2495620886432093,-0.7991326490985315,-1.6383331457721155,-2.9674838224994105
-0.9167473951922815,-2.611330811177389,-1.2484701315509241,-0.7996962706195276,-1.6383331457721155,-2.966825548802511
-0.9174540678607386,-2.6118462721454065,-1.2473543326007288,-0.8003194967852991,-1.638177220021383,-2.9660473505603235
-0.9189766089068812,-2.6129124800311487,-1.2450020948993128,-0.8014949003802698,-1.6380932966815394,-2.9645379225360315
-0.9197548071490687,-2.6134398619281214,-1.2437542120562952,-0.8021424452411097,-1.638153378163473,-2.9638081232654017
-0.9205339590655726,-2.6139310042010706,-1.2425544897662562,-0.802741829548971,-1.6381171385394495,-2.963029448186056
-0.9213488737689417,-2.614542309437887,-1.2412703672992151,-0.8034489790545862,-1.637961212788717,-2.962203327809469
-0.9230507055865687,-2.6156566778766077,-1.2386067549334925,-0.8048160711871546,-1.6378534475909632,-2.960503164921896
-0.9239853064166468,-2.616255585347311,-1.237274471913473,-0.8054874579059046,-1.6378772894488733,-2.9596405665027063
-0.9248483816729944,-2.616854492818014,-1.235894505177633,-0.8062070051776331,-1.6378057638751429,-2.9587064425097864
-0.9257591406451624,-2.6174896399127405,-1.2344911734210413,-0.8069866339312952,-1.6376617590533655,-2.9577844778644007
-0.9276168982135218,-2.6187356154071253,-1.2316950003253382,-0.8083775679217737,-1.6375301519977015,-2.9558685461627405
-0.928563419972555,-2.619394604359762,-1.2301953474627894,-0.8091090361224573,-1.637601677571432,-2.9549344221698206
-0.9295104185687464,-2.6200059095965784,-1.2287910620318812,-0.8098157087909144,-1.6374343077289026,-2.9539526144610804
-0.9304688612567347,-2.6206052939044397,-1.2272794882403772,-0.8106315771685999,-1.6373384634601038,-2.9530065695392054
-0.9324105421649378,-2.6218512693988245,-1.2243636290179651,-0.8120577971087855,-1.6371706167804163,-2.951066557561056
-0.9333451429950159,-2.6225221792804163,-1.2229355017291468,-0.812789265309469,-1.6372783819781702,-2.950024668370382
-0.934267822896139,-2.623205010090963,-1.221447769795553,-0.813545052205221,-1.6370986143695276,-2.949174944554464
-0.9352267424212855,-2.6238039175616663,-1.2199953238116663,-0.8143962065326136,-1.6370504538165491,-2.948097054158346
-0.9371679464923304,-2.6251218954669397,-1.2170794645892542,-0.8158953825580042,-1.6368110815631312,-2.946181122456686
-0.9381030241595667,-2.6257689634906214,-1.2156041304217737,-0.8166382948504847,-1.636895004902975,-2.9452591578113
-0.9390495459185999,-2.6264284292804163,-1.2141402403460901,-0.817453686391012,-1.6366432348834437,-2.9442887941943567
-0.9399603048907679,-2.627110783253805,-1.2127001921283167,-0.8181732336627405,-1.6367271582232874,-2.94334322610964
-0.9418419043170374,-2.6283815542804163,-1.209747616444723,-0.819564167653219,-1.63658315340151,-2.9414387384997767
-0.9427645842181605,-2.6290162245379847,-1.2083442846881312,-0.820235554371969,-1.6365473906146448,-2.94049317041506
-0.9436753431903284,-2.629674736653463,-1.2069404760943812,-0.8210390249835413,-1.6364272276507776,-2.9396191279040735
-0.9446104208575647,-2.6303580443011683,-1.2054761091815394,-0.8217342535602015,-1.6365230719195765,-2.9386847654925745
-0.9463360945331019,-2.6316044966327112,-1.2028005758868616,-0.8231137434588831,-1.6364272276507776,-2.936852995549337
-0.9472349325763147,-2.6322510878192347,-1.2014439741717737,-0.8238084951983851,-1.6363313833819788,-2.9359784762011927
-0.9480379263507288,-2.632838551198141,-1.200160328541891,-0.824564282094137,-1.6362116972552698,-2.935152594243185
-0.9488766829120081,-2.6334736982928675,-1.198876682912008,-0.8251641432391565,-1.6363194624530237,-2.9342661539660853
-0.9504945913897913,-2.6346238295184534,-1.1963446776019495,-0.8264825979815882,-1.636223618184225,-2.932577912007467
-0.9512618223773401,-2.6351988951312464,-1.1951449553119105,-0.8270819822894495,-1.6360800901996058,-2.9318116346942347
-0.9521005789386194,-2.6357858816729944,-1.1939566771136683,-0.8278372923480433,-1.6360557715045374,-2.931021038685934
-0.9528916517840784,-2.6363967100726526,-1.1927569548236292,-0.8283770720111292,-1.6360920111285608,-2.9302309195147913
-0.9544852415667933,-2.6375115553485315,-1.190392796193258,-0.8296602408038538,-1.635984245930807,-2.9287100473987024
-0.9552281538592737,-2.638050381337301,-1.1892645994769495,-0.8302715460406702,-1.6358402411090296,-2.927847925816671
-0.9560435453998011,-2.638601605092184,-1.1880648771869105,-0.8309190909015101,-1.635780159627096,-2.927117649708883
-0.9567745367633265,-2.6391528288470667,-1.186925236378805,-0.8315308729754847,-1.6359003225909632,-2.9263151327716272
-0.958320442830221,-2.640219513569967,-1.1844890753375452,-0.8327415625201624,-1.6357443968402308,-2.924842421208517
-0.9590638319598597,-2.6407583395587366,-1.1833131949054163,-0.8333528677569788,-1.6355884710894983,-2.9240759054767054
-0.959818188344137,-2.641333882008688,-1.1821253935443323,-0.8339288870440882,-1.6354807058917444,-2.923333231602804
-0.9605973402606409,-2.641848866139547,-1.1808765570269983,-0.8346360365497034,-1.6355646292315882,-2.922471586857931
-0.9621675650226038,-2.642963234578268,-1.178441349660055,-0.8357871214496058,-1.6354449431048792,-2.920938555394308
-0.9629462401019495,-2.6434906164752405,-1.177265469227926,-0.8364585081683558,-1.6352646986590784,-2.920231882725851
-0.963665787373678,-2.644041363392965,-1.17596942583193,-0.8370583693133753,-1.635228459035055,-2.9193697611438196
-0.9644807020770472,-2.644592587147848,-1.1747811476336878,-0.8376935164081019,-1.6352165381061,-2.918603483830587
-0.966074291859762,-2.645623032246725,-1.1721890608416956,-0.8389647642718714,-1.6351569334613245,-2.9169872442828577
-0.9669254461871546,-2.6461742560016077,-1.1709774176227015,-0.839611832295553,-1.634977165852682,-2.916196648274557
-0.9677999655352991,-2.6467612425433558,-1.1697176138507288,-0.8402355352984827,-1.6349647680865687,-2.9153104464160364
-0.9686391989337366,-2.6473005453692835,-1.1684210936175745,-0.8407629171954554,-1.6349409262286585,-2.9146161715136927
-0.9702690283404749,-2.648379151021139,-1.1659014860736292,-0.8420942465411585,-1.6348450819598597,-2.912903610860006
-0.9710601011859339,-2.648942295704977,-1.1646292845355433,-0.8427055517779749,-1.634641472493307,-2.91205341020693
-0.9719465414630335,-2.6495054403888147,-1.163405720387594,-0.843365494404928,-1.634653393422262,-2.911323134099142
-0.9727495352374476,-2.6500566641436976,-1.1620615164386194,-0.8439644018756312,-1.634545628224508,-2.9104486147509974
-0.9744275251971644,-2.6511829535113733,-1.159541432057516,-0.8453434149371546,-1.6344855467425745,-2.908724371586935
-0.9752782026873987,-2.651734177266256,-1.158257786427633,-0.8459551970111292,-1.634305779133932,-2.907898251210348
-0.9761174360858362,-2.652273480092184,-1.1569493452655237,-0.846710507069723,-1.6343539396869105,-2.907060209904806
-0.9769805113421839,-2.6528127829181116,-1.155665699635641,-0.8473098913775843,-1.6342337767230433,-2.9063413778888147
-0.9786222616778772,-2.6539624373065394,-1.1530855337726038,-0.8486889044391077,-1.6342700163470667,-2.904569212590353
-0.97949725786318,-2.654513661061422,-1.1518133322345179,-0.849288288746969,-1.6340659300433558,-2.9038150946246546
-0.9803360144244593,-2.65507680574526,-1.1504576841937464,-0.849947754536764,-1.6341140905963343,-2.90294057527651
-0.9811390081988733,-2.6556523481952112,-1.1491974035846155,-0.8505714575396937,-1.6339581648456019,-2.902102772389547
-0.9828527609454554,-2.6568144003497522,-1.14665395418276,-0.8519142309771937,-1.6339104811297815,-2.9004860560046595
-0.9836562315570276,-2.657365624104635,-1.1453941504107874,-0.8525975386248987,-1.6337068716632288,-2.8996358553515833
-0.9844468275653284,-2.657928768788473,-1.144097630177633,-0.853281323109762,-1.6337903181659144,-2.8988097349749964
-0.9852975050555628,-2.658491913472311,-1.1428378264056605,-0.8539765516864222,-1.6336105505572718,-2.89805514017214
-0.9869635740863245,-2.65967828432192,-1.1402695814715784,-0.8552477995501917,-1.6335027853595179,-2.896282974873678
-0.9877904097186487,-2.6602771917926233,-1.139033619557516,-0.8558715025531214,-1.633406941090719,-2.895444933568136
-0.9885695616351526,-2.6608527342425745,-1.1377976576434534,-0.8565543333636683,-1.6334670225726526,-2.89459473291506
-0.9893963972674769,-2.661499802266256,-1.1364896933185022,-0.8572495619403284,-1.6332271734820765,-2.893804136906759
-0.9910505453692835,-2.6626737753497522,-1.1339934507953089,-0.8585570494281214,-1.633167568837301,-2.892115894948141
-0.9918292204486292,-2.6632731596576136,-1.1327818075763147,-0.8592165152179163,-1.633059326802389,-2.89127761522402
-0.992584530507223,-2.6638363043414515,-1.1315339247332972,-0.8598278204547327,-1.633167568837301,-2.890475575123922
-0.9934237639056605,-2.6643994490252894,-1.1304295698748987,-0.8604872862445276,-1.6329878012286585,-2.889625374470846
-0.995004955922262,-2.6655858198748987,-1.1278379599200647,-0.8617222944842737,-1.633059326802389,-2.8879130522357386
-0.9958441893206995,-2.666196648274557,-1.1266258398639124,-0.8624780813800257,-1.6328676382647913,-2.8871944586383265
-0.9966352621661585,-2.666760269795553,-1.1253779570208948,-0.8630536238299769,-1.63293964067568,-2.8863678614245813
-0.9974144140826624,-2.667358700429098,-1.1241653601275843,-0.8636773268329065,-1.6328795591937464,-2.885590140019552
-0.9990561644183558,-2.668508831654684,-1.1217058340655726,-0.8649242560016077,-1.6328795591937464,-2.8840089480029505
-0.9998109976397913,-2.66907245317568,-1.12046987215151,-0.865643326436178,-1.6326640287982386,-2.883230988179342
-1.0006502310382288,-2.669623676930563,-1.1192100683795374,-0.866302792225973,-1.6327479521380823,-2.882404390965597
-1.0014413038836878,-2.670246426259176,-1.1180098692523401,-0.8669140974627894,-1.6326521078692835,-2.8815787474261683
-1.0030830542193812,-2.6714089552508753,-1.1154659430133265,-0.8681376616107386,-1.6326521078692835,-2.8799615542041224
-1.0039342085467737,-2.671960179005758,-1.1141698996173304,-0.8688448111163538,-1.632472340260641,-2.8791237513171595
-1.004772965108053,-2.672547165547506,-1.1128976980792444,-0.869551960621969,-1.632496182118551,-2.878261391316549
-1.0055401960956019,-2.6731579939471644,-1.1116135756122034,-0.8701399008380335,-1.6324604193316858,-2.8774471918689173
-1.0072057882892054,-2.6742728392230433,-1.1091058889972132,-0.8713868300067347,-1.6324361006366175,-2.8757827917682093
-1.0080331007586878,-2.6748960653888147,-1.1078336874591272,-0.871986214314596,-1.6322320143329065,-2.874908749257223
-1.008871857319967,-2.6754587332354944,-1.1065376440631312,-0.8727296034442347,-1.632256333027975,-2.874094549809591
-1.0096986929522913,-2.675998036061422,-1.1052535215960901,-0.8733294645892542,-1.6321480909930628,-2.8732920328723353
-1.0112689177142542,-2.6771367231952112,-1.1027339140521448,-0.8745878378497522,-1.6320646444903772,-2.8715437094317835
-1.0120957533465784,-2.6776159445392054,-1.1014617125140589,-0.8751757780658167,-1.6318848768817347,-2.870777193699972
-1.0129230658160608,-2.678178612385885,-1.1002371946917933,-0.8758710066424769,-1.6319683233844202,-2.8699634710894983
-1.0137375036822718,-2.6787541548358362,-1.0989654699908655,-0.8765543142901819,-1.6317885557757776,-2.8690767923938196
-1.0153797308551233,-2.679844681416647,-1.0964697043048304,-0.8778975645648401,-1.6317289511310022,-2.86746055284609
-1.0161946455584925,-2.6803959051715296,-1.0952094236956995,-0.8785570303546351,-1.631584946309225,-2.8666937986956995
-1.0170815626727503,-2.6809585730182093,-1.0939257780658167,-0.8792045752154749,-1.6317289511310022,-2.8658321539508265
-1.017848316823141,-2.681497875844137,-1.0927255789386194,-0.8798759619342249,-1.6315611044513147,-2.8650296370135706
-1.0195263067828577,-2.6825645605670374,-1.090205494557516,-0.8811228911029261,-1.631465260182516,-2.863377396260397
-1.0203536192523401,-2.68311578432192,-1.0889337698565882,-0.8817942778216761,-1.631345574055807,-2.8625391165362757
-1.0211566130267542,-2.6836188475238245,-1.0876615683185022,-0.8823464552508753,-1.631489102040426,-2.8617129961596888
-1.0219948927508753,-2.684218231831686,-1.0864017645465296,-0.8830655256854456,-1.6312254110919397,-2.860910479222433
-1.0235894362079065,-2.6852849165545862,-1.0838092009173792,-0.8842886129962366,-1.6312373320208948,-2.859246079121725
-1.0244281927691858,-2.685848061238424,-1.0825374762164515,-0.8849962393390101,-1.631153408681051,-2.8583839575396937
-1.025231663380758,-2.6864469687091272,-1.0813010374652308,-0.8855837027179163,-1.631153408681051,-2.857569758092062
-1.026022736226217,-2.6869738737689417,-1.0799935499774378,-0.8863027731524866,-1.6309497992144983,-2.8567193190204065
-1.0276764074908655,-2.688040558491842,-1.0774615446673792,-0.8875740210162562,-1.6309497992144983,-2.8550549189196985
-1.0285032431231897,-2.68857986131777,-1.0762608687030237,-0.8882334868060511,-1.630890194569723,-2.8542287985431116
-1.029330078755514,-2.6891911665545862,-1.0749171415912073,-0.8888805548297327,-1.630890194569723,-2.853342358266012
-1.0301454702960413,-2.689706627522604,-1.0736573378192347,-0.889564339314596,-1.6306622664081019,-2.852624479924337
-1.0317509810077112,-2.6908448378192347,-1.0711854139911097,-0.8908589521991175,-1.6306622664081019,-2.8509836832629603
-1.0325663725482386,-2.691420380269186,-1.0699132124530237,-0.8914826552020472,-1.6305182615863245,-2.850121561680929
-1.0333932081805628,-2.692019287739889,-1.0687134901629847,-0.8921545187579554,-1.6305902639972132,-2.8493428866015833
-1.034220043812887,-2.692630116139547,-1.067465607319967,-0.8928139845477503,-1.6304224173175257,-2.8485291639911097
-1.0358741919146937,-2.69382888475527,-1.0649932066546839,-0.8941329161273401,-1.6303508917437952,-2.8468883673297327
-1.0366886297809046,-2.694451634083883,-1.0637810865985315,-0.8947923819171351,-1.630218807850973,-2.84607440630068
-1.0374921003924769,-2.695038620625631,-1.062533203755514,-0.8954876104937952,-1.6302908102618616,-2.845247809086935
-1.0383432547198694,-2.6956618467914026,-1.0612495581256312,-0.8960755507098597,-1.6300872007953089,-2.844433848057882
-1.0400093237506312,-2.696824375783102,-1.0586932341205042,-0.8974540869342249,-1.6300032774554651,-2.8428052107440394
-1.0408242384540003,-2.697423283253805,-1.0574572722064417,-0.8980296293841761,-1.6299193541156214,-2.8419910112964075
-1.0416153112994593,-2.698010269795553,-1.056136433278219,-0.8987129370318812,-1.6299789587603968,-2.841248337422506
-1.0425017515765589,-2.698561493550436,-1.0548890272723597,-0.8993485609637659,-1.6297395865069788,-2.8404341379748743
-1.0441439787494105,-2.6997597853290003,-1.0523327032672327,-0.9007275740252894,-1.6297276655780237,-2.8388055006610315
-1.0449350515948694,-2.7003710905658167,-1.0510605017291468,-0.9013031164752405,-1.6296194235431116,-2.8379557768451136
-1.0457738081561487,-2.7009461561786097,-1.049776856099264,-0.9019864241229456,-1.6297033468829554,-2.8371532599078577
-1.046577278767721,-2.7014735380755823,-1.0484803358661097,-0.9025982061969202,-1.6295116583453577,-2.83632737794985
-1.048182789479391,-2.7026475111590784,-1.0459845701800745,-0.9038813749896448,-1.6295116583453577,-2.834662739430563
-1.0490582625018519,-2.7031987349139612,-1.0447009245501917,-0.904480282460348,-1.6293318907367151,-2.8338125387774866
-1.0498011747943323,-2.7037861982928675,-1.0434883276568812,-0.9050443808185022,-1.6294520537005823,-2.832938019429342
-1.0506518522845667,-2.7043851057635706,-1.0422404448138636,-0.9057396093951624,-1.62929612794985,-2.832172218953268
-1.052366081868307,-2.7055113951312464,-1.039708439503805,-0.9069746176349085,-1.62931996980776,-2.830519501362936
-1.053169075642721,-2.706122700368063,-1.0384600798236292,-0.9076579252826136,-1.6291397253619593,-2.8296693007098597
-1.0539725462542933,-2.7066381613360804,-1.037248436604635,-0.9082935492144983,-1.629223648701803,-2.8288548628436487
-1.0547507444964808,-2.7072137037860315,-1.0359519163714808,-0.9089892546283167,-1.6290801207171839,-2.8279691378222864
-1.0564172903644007,-2.708303753529684,-1.0335281530963343,-0.9102361837970179,-1.629103962575094,-2.8263288179980677
-1.0571840445147913,-2.70889121690859,-1.0322802702533167,-0.9109438101397913,-1.628876034413473,-2.825562063847677
-1.0580108801471155,-2.709442440663473,-1.0310199896441858,-0.9115069548236292,-1.62897235551943,-2.8247481028186243
-1.0588143507586878,-2.7099817434894007,-1.0297721068011683,-0.912142578755514,-1.6288283506976526,-2.8239458242999476
-1.060444180165426,-2.7111075560199183,-1.0272520224200647,-0.9134495894061487,-1.6287444273578089,-2.8222690264331263
-1.0612953344928187,-2.7116711775409144,-1.026003662739889,-0.914156738911764,-1.6287086645709437,-2.821502987538473
-1.0620859305011194,-2.712198082600729,-1.024696175252096,-0.9147446791278284,-1.62864858308901,-2.8207367102252405
-1.0628770033465784,-2.712761704121725,-1.0234721342669886,-0.9154160658465784,-1.6284449736224573,-2.819862190877096
-1.0644953886615198,-2.7138035933123987,-1.020867649708883,-0.9167111555682581,-1.628312889729635,-2.8182218710528772
-1.0653341452227991,-2.7143428961383265,-1.0196192900287073,-0.9173701445208948,-1.6283729712115687,-2.817371670399801
-1.0661614576922815,-2.714858357106344,-1.0183594862567347,-0.9180901686297815,-1.6282170454608362,-2.8165574709521692
-1.0669763723956507,-2.715409580861227,-1.0170276800738733,-0.918701473866598,-1.628181282673971,-2.815683428441183
-1.068618122731344,-2.7165358702289026,-1.0145557562457483,-0.9200204054461878,-1.627965275441305,-2.81405479112734
-1.0694568792926233,-2.7170990149127405,-1.013235870991842,-0.9206679503070276,-1.6280611197101038,-2.813169066105978
-1.0702479521380823,-2.7176383177386683,-1.0120237509356897,-0.9213631788836878,-1.627833668385641,-2.8122826258288782
-1.0711115042315882,-2.718177620564596,-1.0106795469867151,-0.9220107237445276,-1.6279175917254847,-2.811540190373556
-1.0726812521563929,-2.7192676703082483,-1.0081599394427698,-0.9233658949481409,-1.6277735869037073,-2.8098400274859827
-1.0735562483416956,-2.7198551336871546,-1.0068991819964808,-0.9239051977740687,-1.627845589314596,-2.8089779059039515
-1.074275318776266,-2.7204182783709925,-1.005639378224508,-0.9246128241168421,-1.6276300589190882,-2.808223311101095
-1.0751264731036585,-2.720945660267965,-1.0044034163104456,-0.9252608458148401,-1.627737824116842,-2.807385508214132
-1.0767563025103968,-2.7221677939044397,-1.0018952528582972,-0.9265554586993616,-1.6275580565081995,-2.805720869694845
-1.0776189009295862,-2.7226832548724573,-1.0006592909442347,-0.927166763936178,-1.6276300589190882,-2.8049185911761683
-1.0784223715411585,-2.723342243825094,-0.9993990103351038,-0.9278982321368616,-1.627402130757467,-2.804163996373312
-1.0792253653155726,-2.723917786275045,-0.9981868902789515,-0.9285100142108362,-1.627509895955221,-2.803314272557394
-1.0808675924884241,-2.7251156012164515,-0.9957149664508265,-0.9297927061664026,-1.627282444630758,-2.8016255537616175
-1.0817063490497034,-2.7256911436664026,-0.9944904486285608,-0.9304402510272425,-1.6273062864886683,-2.800859276448385
-1.0824855009662073,-2.726301972066061,-0.9932187239276331,-0.9311001936541956,-1.6271026770221155,-2.8000686804400843
-1.0832889715777796,-2.7268531958209437,-0.9919827620135706,-0.9317949453936976,-1.6272223631488245,-2.7992544809924524
-1.084930721913473,-2.728027645741598,-0.989450756703512,-0.9330785910235804,-1.627066437398092,-2.797542397175924
-1.0857580343829554,-2.728602711354391,-0.988166634236471,-0.9336898962603968,-1.6268866697894495,-2.7967281977282923
-1.086512867604391,-2.7292259375201624,-0.9869068304644983,-0.9342892805682581,-1.6268389860736292,-2.7959139982806605
-1.0873878637896937,-2.7298367659198206,-0.9856107870685022,-0.9349845091449183,-1.6268628279315394,-2.7950754801379603
-1.0889938513385218,-2.73099929491152,-0.9830301443683069,-0.9362080732928675,-1.6266949812518519,-2.7934230009662073
-1.0898445288287562,-2.731598679219381,-0.9818061033831995,-0.9369152227984827,-1.6264913717852991,-2.7926092783557337
-1.0906718412982386,-2.732149902974264,-0.9804742972003382,-0.9374907652484339,-1.6265271345721644,-2.7917588392840784
-1.0914748350726526,-2.732713047658102,-0.9792020956622522,-0.9381139914142054,-1.6264913717852991,-2.790908400212423
-1.0931409041034144,-2.733875576649801,-0.9766457716571253,-0.93939716020693,-1.626479450856344,-2.789327923451559
-1.0939081350909632,-2.734474484120504,-0.9754341284381312,-0.9400804678546351,-1.6263116041766565,-2.7885616461383265
-1.0947468916522425,-2.7350977102862757,-0.97412616411318,-0.9407761732684534,-1.6263235251056116,-2.787699524556295
-1.0956218878375452,-2.7356727758990687,-0.9728902021991175,-0.9414117972003382,-1.6262877623187464,-2.7869213263141077
-1.0972397963153284,-2.736823383961813,-0.9704058806048792,-0.942718807850973,-1.626251522694723,-2.785269085560934
-1.098079029713766,-2.737434212361471,-0.9691818396197718,-0.9433777968036097,-1.6260598341571253,-2.7844184080706995
-1.0989182631122034,-2.7379615942584437,-0.9679454008685511,-0.9440138975726526,-1.6260841528521937,-2.7836278120623987
-1.0997689406024378,-2.7385247389422815,-0.9666255156146448,-0.9445894400226038,-1.6260960737811487,-2.7827780882464808
-1.1014111677752894,-2.739615265523092,-0.9641292730914515,-0.9458602110492151,-1.62600022951235,-2.7812333742724817
-1.1022141615497034,-2.740178887044088,-0.9628694693194788,-0.946507755910055,-1.6258800665484827,-2.780431095753805
-1.1029933134662073,-2.7407177130328577,-0.9615734259234827,-0.947179142628805,-1.6258562246905726,-2.779593054448263
-1.1038201490985315,-2.7412689367877405,-0.9603131453143519,-0.9478266874896448,-1.6258800665484827,-2.778778855000631
-1.1054380575763147,-2.742371384297506,-0.9577568213092249,-0.9491460959063929,-1.625808064137594,-2.7771499792682093
-1.1062772909747522,-2.742898766194479,-0.956461254750387,-0.9497569243060511,-1.6256526152240198,-2.776384178792135
-1.1070321241961878,-2.743497673665182,-0.955177132283346,-0.9504168669330042,-1.62567645708193,-2.7755215803729456
-1.1078594366656702,-2.743988815938131,-0.9538806120501917,-0.9510882536517542,-1.6255806128131312,-2.774730984364645
-1.1094535032855433,-2.7450798193561,-0.9513972441302698,-0.952407185231344,-1.6254966894732874,-2.7730427424060267
-1.1102927366839808,-2.7455948034869593,-0.950148884450094,-0.9530184904681605,-1.62535268465151,-2.7721930185901087
-1.1110957304583948,-2.7461817900287073,-0.9488886038409632,-0.9536660353290003,-1.6253889242755335,-2.7713785807238978
-1.111922566090719,-2.7467454115497034,-0.9476044813739222,-0.9543498198138636,-1.6251972357379358,-2.770444456730978
-1.1135767141925257,-2.747824017201559,-0.9451444784747522,-0.9556925932513636,-1.6250413099872034,-2.7688639799701136
-1.1143315474139612,-2.748411003743307,-0.9439204374896448,-0.95630389848818,-1.6251252333270472,-2.7680254618274134
-1.1151588598834437,-2.7489503065692347,-0.9426844755755823,-0.9569757620440882,-1.6249216238604944,-2.7671757380114954
-1.1159856955157679,-2.749477211629049,-0.9414842764483851,-0.9576590696917933,-1.6250293890582483,-2.766409222279684
-1.1175921599017542,-2.750580135975973,-0.939000431691305,-0.9589298407184046,-1.6248496214496058,-2.7647209803210657
-1.1184309164630335,-2.7511313597308558,-0.937728230153219,-0.9596017042743128,-1.6248014608966272,-2.7638588587390345
-1.1192458311664026,-2.7516701857196253,-0.9365041891681116,-0.9602611700641077,-1.6246698538409632,-2.7630324999438685
-1.120049301777975,-2.752221409474508,-0.9352200667010706,-0.9608724753009241,-1.6246936956988733,-2.7621944586383265
-1.1216791311847132,-2.753348175679342,-0.9326399008380335,-0.9622271696673792,-1.624646011983053,-2.760590140019552
-1.1225064436541956,-2.7539590040790003,-0.9314034620868128,-0.9629228750811976,-1.624430004750387,-2.7598233858691614
-1.1233332792865198,-2.7545345465289515,-0.9301074186908167,-0.9635346571551722,-1.6244900862323206,-2.7589972654925745
-1.124148193989889,-2.7550976912127894,-0.9287875334369105,-0.9642179648028772,-1.6243942419635218,-2.7581592241870325
-1.1257661024676722,-2.7562840620623987,-0.9263036886798304,-0.9654172102557581,-1.6243460814105433,-2.7564709822284144
-1.1266167799579065,-2.756906811391012,-0.9249714056598108,-0.9660881201373499,-1.624190632496969,-2.7556806246386927
-1.127444092427389,-2.7574942747699183,-0.9237473646747034,-0.9667356649981897,-1.6242263952838343,-2.7548421064959925
-1.1282714048968714,-2.758045498524801,-0.9224513212787073,-0.9673355261432093,-1.624094311391012,-2.7540395895587366
-1.1299493948565882,-2.7592318693744105,-0.9198473135577601,-0.9685824553119105,-1.6240585486041468,-2.7523513476001185
-1.1307523886310022,-2.759855095540182,-0.9186351935016077,-0.9692180792437952,-1.623854939137594,-2.7515016237842005
-1.1315797011004847,-2.7604664007769983,-0.9173749128924769,-0.9699013868915003,-1.623986546193258,-2.750627342854635
-1.1323946158038538,-2.7610533873187464,-0.9161265532123011,-0.9705126921283167,-1.6237710157977503,-2.749777380620138
-1.134000603352682,-2.7622273604022425,-0.9135945479022425,-0.9718559424029749,-1.6237471739398401,-2.748124663029806
-1.1348279158221644,-2.7627909819232386,-0.9123466650592249,-0.9724791685687464,-1.6235674063311976,-2.7473459879504603
-1.1356185118304651,-2.7633779684649866,-0.9110868612872522,-0.9731629530536097,-1.6237109343158167,-2.746448342000143
-1.1364577452289026,-2.7639177481280726,-0.9099229017840784,-0.9737866560565394,-1.6234472433673304,-2.7456815878497522
-1.1380756537066858,-2.7651036421405237,-0.9073541800128382,-0.9750216642962855,-1.62339955965151,-2.743969504033224
-1.138867203389303,-2.7656667868243616,-0.9060819784747522,-0.9756806532489222,-1.6233275572406214,-2.7431193033801478
-1.1397541205035608,-2.766278092061178,-0.904858414326803,-0.9763405958758753,-1.6233757177936,-2.7423411051379603
-1.1405089537249964,-2.766829315816061,-0.9036458174334925,-0.9769638220416468,-1.6231353918658655,-2.7415629068957728
-1.1421993414508265,-2.768003765736715,-0.9011018911944788,-0.9782589117633265,-1.623075310383932,-2.739922587071554
-1.1430261770831507,-2.7686026732074183,-0.8998296896563929,-0.9789064566241663,-1.6230157057391565,-2.739107910786764
-1.1438410917865198,-2.769130531941549,-0.8986299673663538,-0.9795420805560511,-1.6230633894549769,-2.7382338682757776
-1.1446803251849573,-2.769705597554342,-0.8973096052752894,-0.9802253882037562,-1.6227996985064905,-2.737467590962545
-1.1463106314288538,-2.7709038893329065,-0.8948014418231409,-0.9815080801593226,-1.62272817293276,-2.735791031514303
-1.1471617857562464,-2.7714670340167444,-0.893432919179098,-0.9822161833392542,-1.6226919333087366,-2.7349892298327845
-1.1479767004596155,-2.7720420996295374,-0.8921378294574183,-0.9828756491290491,-1.6227157751666468,-2.734091107045309
-1.148815933858053,-2.7726295630084437,-0.8908537069903772,-0.9835827986346644,-1.6225960890399378,-2.7332645098315638
-1.1505654493915003,-2.773780171071188,-0.8881891409503382,-0.9849618116961878,-1.6225360075580042,-2.7315881888019007
-1.1514409224139612,-2.774379078541891,-0.8868330160724085,-0.9856575171100062,-1.6224883238421839,-2.730642620717184
-1.1522915999041956,-2.7749183813678187,-0.8855369726764124,-0.9863045851336878,-1.6225841681109827,-2.729744259511129
-1.1531665960894983,-2.775505844746725,-0.8841808477984827,-0.9870837370501917,-1.6223323980914515,-2.7288225332843226
-1.1549285093890589,-2.776691738759176,-0.881420914326803,-0.9884393850909632,-1.6223323980914515,-2.727074209843771
-1.15582782426943,-2.7772792021380823,-0.8800767103778284,-0.9891341368304651,-1.622176472340719,-2.7261999289142054
-1.1567147413836878,-2.777914349232809,-0.8786843458758753,-0.9898179213153284,-1.6222966353045862,-2.725337807332174
-1.1576255003558558,-2.778477493916647,-0.8773406187640589,-0.9906333128558558,-1.622044865285055,-2.7244280020343226
-1.1595070997821253,-2.779735867177145,-0.8745325247394007,-0.9920724073993128,-1.6220210234271448,-2.722571913396017
-1.1604660193072718,-2.7804067770587366,-0.8731282393084925,-0.9927919546710413,-1.621937100087301,-2.721661631261007
-1.161401096974508,-2.7809818426715296,-0.8717239538775843,-0.9935229460345667,-1.6219490210162562,-2.7207158247577112
-1.1623719374286097,-2.781605068837301,-0.8703201452838343,-0.9943025747882288,-1.6217334906207483,-2.719841543828146
-1.164206329976217,-2.782851521168844,-0.8674281279193323,-0.9957178274737757,-1.621601406727926,-2.7180097738849085
-1.165117088948385,-2.7834866682635706,-0.8660600821124476,-0.9963768164264124,-1.6216853300677698,-2.717135731373922
-1.1659920851336878,-2.7840736548053187,-0.8646076361285608,-0.9971321264850062,-1.6214936415301722,-2.716297451649801
-1.1668790022479456,-2.7846487204181116,-0.8632157484637659,-0.9978278318988245,-1.621469799672262,-2.715375010167257
-1.168617073689596,-2.785931412373678,-0.8605034987079065,-0.9991706053363245,-1.621241871510641,-2.7136388460742396
-1.1694439093219202,-2.7865422407733362,-0.8591473738299769,-0.9998300711261194,-1.6213377157794397,-2.7127531210528772
-1.1702950636493128,-2.7871416250811976,-0.857767407094137,-1.000549618397848,-1.6212061087237757,-2.7118786017047327
-1.1711342970477503,-2.787764851246969,-0.8564713636981409,-1.0011852423297327,-1.6211941877948206,-2.711052481328146
-1.1727760473834437,-2.7889273802386683,-0.8539632002459925,-1.0024922529803675,-1.6209901014911097,-2.7093282381640833
-1.173591438923971,-2.7895262877093714,-0.8526909987079065,-1.0031636396991175,-1.6210983435260218,-2.708550039921896
-1.1744187513934534,-2.7900899092303675,-0.8514664808856409,-1.0038474241839808,-1.6209424177752894,-2.7077599207507532
-1.175185505543844,-2.7907007376300257,-0.8503029982196253,-1.0044706503497522,-1.6209304968463343,-2.706921641026632
-1.176636044179098,-2.791767422352926,-0.848022762929098,-1.0057061354266565,-1.620798412953512,-2.7054007689105433
-1.177439037953512,-2.7922704855548304,-0.8469308058368128,-1.0062692801104944,-1.6208942572223108,-2.7047064940081995
-1.178110424672262,-2.792797867451803,-0.845886532460348,-1.0067370573626917,-1.620690647755758,-2.704036060963766
-1.1788175741778772,-2.7933009306537073,-0.8448188940631312,-1.007348362599508,-1.6207025686847132,-2.7032695452319544
-1.1801002661334437,-2.7942240873919886,-0.8428385893451136,-1.0083559195147913,-1.620559040700094,-2.7018685976611536
-1.1807234922992151,-2.794643227254049,-0.841841999684469,-1.0088232199298304,-1.620666805897848,-2.7012816111194056
-1.1813347975360315,-2.795086685811178,-0.8409059683429163,-1.0093148390399378,-1.6204870382892054,-2.700623337422506
-1.1818979422198694,-2.795518223439352,-0.8400185743915003,-1.00977069536318,-1.6205108801471155,-2.7000604311572474
-1.1830013434039515,-2.796309296284811,-0.8382299582110804,-1.0107176939593714,-1.620354954396383,-2.6988869349109095
-1.1835644880877894,-2.7967045942889612,-0.8373778502093714,-1.0111973921405237,-1.6204388777362269,-2.69834810892214
-1.184091869984762,-2.797112290059225,-0.8365376631366175,-1.0115812460528772,-1.6202953497516077,-2.6978095213519495
-1.1846192518817347,-2.7975075880633753,-0.8357222715960901,-1.0119650999652308,-1.620343033467428,-2.6973303000079554
-1.1856144110309046,-2.7982028166400355,-0.83423358598818,-1.0127680937396448,-1.6201995054828089,-2.696300808583395
-1.1861174742328089,-2.7985380331622522,-0.8334534803973597,-1.0131643454181116,-1.6202829519854944,-2.69584566751589
-1.1866329352008265,-2.798837963734762,-0.8326733748065394,-1.0135834852801722,-1.6200550238238733,-2.6952946821795862
-1.1871002356158655,-2.799197498952047,-0.8318818251239222,-1.0139554182635706,-1.6201751867877405,-2.694803778325216
-1.1880715529071253,-2.799844566975729,-0.8303573767291468,-1.0147469679461878,-1.620019261037008,-2.693845812474386
-1.1885746161090296,-2.800131622944967,-0.8296135107623499,-1.015130345021383,-1.6200788656817835,-2.693367306386129
-1.189066235219137,-2.8005030790912073,-0.828869644795553,-1.0154536406146448,-1.6199114958392542,-2.6928518454181116
-1.189533535634176,-2.8008392492877405,-0.8280771414386194,-1.015862290059225,-1.6200431028949183,-2.6923490206347864
-1.1905530134784144,-2.8014982382403772,-0.8265531698810022,-1.0166657606707972,-1.6198871771441858,-2.691331450139181
-1.1910441557513636,-2.8018816153155726,-0.8257492224322718,-1.017120663319723,-1.619803253804342,-2.6908164660083216
-1.1915953795062464,-2.8022053877459925,-0.8249929586993616,-1.01756459871401,-1.6196954886065882,-2.6903374830829065
-1.192122761403219,-2.802504841481344,-0.8241770903216761,-1.0179484526263636,-1.6197674910174769,-2.6897626558886927
-1.1931775251971644,-2.8032477537738245,-0.822545353566305,-1.018763844166891,-1.6196478048907679,-2.6886850039111536
-1.193704907094137,-2.8035710493670862,-0.8217170874225062,-1.0191834608661097,-1.6196115652667444,-2.6881101767169397
-1.1942442099200647,-2.8039549032794397,-0.8210213820086878,-1.0195911566363733,-1.6194918791400355,-2.6875832716571253
-1.194819752370016,-2.8043387571917933,-0.8200729529010218,-1.0200346151935022,-1.6196115652667444,-2.6870926062213343
