youngblood1998/my_ws/src/ur5_platform/ur5_platform_manipulation/wzq/test_random.csv
j0,j1,j2,j3,j4,j5
-0.830057446156637,-2.493018929158346,-1.431831185017721,-0.7503207365619105,-1.5975702444659632,-3.137817446385519
-0.830057446156637,-2.4924195448504847,-1.431723419819967,-0.7510274092303675,-1.5975821653949183,-3.1379130522357386
-0.8300455252276819,-2.4917362372027796,-1.4315555731402796,-0.7519148031817835,-1.5975702444659632,-3.1378653685199183
-0.8301056067096155,-2.4911378065692347,-1.4314478079425257,-0.7526705900775355,-1.5975340048419397,-3.1377936045276087
-0.8300936857806605,-2.490514580403463,-1.4312556425677698,-0.7534497419940394,-1.5975821653949183,-3.1378775278674524
-0.8301656881915491,-2.489220921193258,-1.4309795538531702,-0.7550204435931605,-1.597558323537008,-3.137733761464254
-0.8301294485675257,-2.4885738531695765,-1.430836025868551,-0.7558358351336878,-1.5976060072528284,-3.137829605733053
-0.8301413694964808,-2.4878667036639612,-1.4307034651385706,-0.7566035429583948,-1.597666088734762,-3.137709681187765
-0.8301413694964808,-2.487220112477438,-1.4305599371539515,-0.757430378590719,-1.597678009663717,-3.1377816835986536
-0.8302133719073694,-2.485781971608297,-1.4302356878863733,-0.7590730826007288,-1.5977500120746058,-3.137709681187765
-0.8302014509784144,-2.48505145708193,-1.4300077597247522,-0.7599123159991663,-1.5977256933795374,-3.1377816835986536
-0.8302014509784144,-2.484320942555563,-1.429864231740133,-0.7608235518084925,-1.5976899305926722,-3.137625757847921
-0.8302252928363245,-2.483542267476217,-1.429744068776266,-0.761759106312887,-1.5977137724505823,-3.1376736799823206
-0.830261532460348,-2.4819725195514124,-1.4293597380267542,-0.763641659413473,-1.5977137724505823,-3.137577835713522
-0.8302491346942347,-2.4811580816852015,-1.4291680494891565,-0.7645767370807093,-1.5977137724505823,-3.137625757847921
-0.8302972952472132,-2.4803431669818323,-1.4289878050433558,-0.765667740498678,-1.5977018515216272,-3.137577835713522
-0.8302853743182581,-2.479468647633688,-1.428796116505758,-0.7666271368609827,-1.5977256933795374,-3.137589756642477
-0.8303573767291468,-2.477743927632467,-1.4283998648272913,-0.7688091436969202,-1.5977137724505823,-3.1375299135791224
-0.8302972952472132,-2.476845089589254,-1.428232494984762,-0.7699006239520472,-1.597678009663717,-3.1375418345080774
-0.8303812185870569,-2.4759109655963343,-1.4279926458941858,-0.7710755507098597,-1.597666088734762,-3.1374459902392786
-0.8304050604449671,-2.474976364766256,-1.427788559590475,-0.7722504774676722,-1.5976899305926722,-3.1375179926501673
-0.8304289023028772,-2.4730356375323694,-1.4273322264300745,-0.7746966520892542,-1.5977137724505823,-3.1373863855945032
-0.8304289023028772,-2.472065273915426,-1.4271405378924769,-0.7759550253497522,-1.597678009663717,-3.1374340693103235
-0.8304532209979456,-2.471022907887594,-1.4269002119647425,-0.7771547476397913,-1.5977137724505823,-3.1373027006732386
-0.8304770628558558,-2.470004383717672,-1.4266484419452112,-0.7784255186664026,-1.5976899305926722,-3.137362543736593
-0.830512825642721,-2.4679439703570765,-1.4261687437640589,-0.7808836142169397,-1.597678009663717,-3.1371946970569056
-0.8305371443377894,-2.466937843953268,-1.4259164969073694,-0.782142464314596,-1.5976899305926722,-3.1372786203967493
-0.8305609861956995,-2.4658950010882776,-1.425652805958883,-0.7835453192340296,-1.597678009663717,-3.137218777333395
-0.8305967489825647,-2.4648054281817835,-1.4254487196551722,-0.7848637739764612,-1.597678009663717,-3.137122933064596
-0.8305848280536097,-2.4626486937152308,-1.4249447027789515,-0.7874062697040003,-1.5977018515216272,-3.1370747725116175
-0.8306687513934534,-2.4615348021136683,-1.4246810118304651,-0.7886889616595667,-1.5977018515216272,-3.1370988527881067
-0.8306449095355433,-2.460480038319723,-1.4244650045977991,-0.79004413286318,-1.5977137724505823,-3.1371586958514612
-0.8306806723224085,-2.459402386342184,-1.4242494742022913,-0.7913506666766565,-1.5977018515216272,-3.1370747725116175
-0.8306806723224085,-2.4571498076068323,-1.4237092177020472,-0.7940366903888147,-1.5976899305926722,-3.1370509306537073
-0.830728832875387,-2.45608359972109,-1.4234450499164026,-0.7953198591815394,-1.5977018515216272,-3.137003008519308
-0.8307169119464319,-2.455017391835348,-1.4231932798968714,-0.796638313923971,-1.5977137724505823,-3.1370509306537073
-0.830728832875387,-2.4539392630206507,-1.4229653517352503,-0.7979095617877405,-1.5976899305926722,-3.1369789282428187
-0.8307765165912073,-2.4518306891070765,-1.4224970976458948,-0.8005355040179651,-1.5977137724505823,-3.137026850377218
-0.8307765165912073,-2.450752560292379,-1.422281567250387,-0.8017585913287562,-1.5977256933795374,-3.13688308397402
-0.8308365980731409,-2.4497225920306605,-1.4220650831805628,-0.8029573599444788,-1.5977018515216272,-3.136907164250509
-0.8308008352862757,-2.448752228413717,-1.4218376318561,-0.8043244520770472,-1.5977137724505823,-3.1369431654559534
-0.8308604399310511,-2.4467156569110315,-1.4213455359088343,-0.8067224661456507,-1.5977018515216272,-3.1368592421161097
-0.8308966795550745,-2.44572097459902,-1.4211896101581019,-0.807993237172262,-1.597666088734762,-3.1368115584002894
-0.8308723608600062,-2.444702927266256,-1.4209616819964808,-0.8091447989093226,-1.5977256933795374,-3.13673979440798
-0.8309205214129847,-2.4436963240252894,-1.4207451979266565,-0.8103316465960901,-1.5977256933795374,-3.136787716542379
-0.830968205128805,-2.441779915486471,-1.4202654997455042,-0.812789265309469,-1.5977018515216272,-3.1367157141314905
-0.8309443632708948,-2.440761391316549,-1.4200261274920862,-0.8139765898333948,-1.5977256933795374,-3.136679712926046
-0.830968205128805,-2.4397910276996058,-1.419821564351217,-0.8152239958392542,-1.5976899305926722,-3.1365957895862024
-0.8310039679156702,-2.438761059437887,-1.419605557118551,-0.8165543715106409,-1.5977018515216272,-3.136667791997091
-0.8310039679156702,-2.4367125670062464,-1.419138256703512,-0.8190243879901331,-1.5977500120746058,-3.136524025593893
-0.8310521284686487,-2.435657803212301,-1.4188254515277308,-0.820223633443014,-1.597678009663717,-3.1365719477282923
-0.8310640493976038,-2.4346516768084925,-1.4186580816852015,-0.821578327809469,-1.5977018515216272,-3.1364761034594935
-0.831087891255514,-2.4335973898517054,-1.4184301535235804,-0.8228614966021937,-1.5977256933795374,-3.136512104664938
-0.831087891255514,-2.4314773718463343,-1.4179380575763147,-0.8254154364215296,-1.5977256933795374,-3.1363206545459192
-0.8311117331134241,-2.4303630034076136,-1.4176142851458948,-0.8267467657672327,-1.5977137724505823,-3.13641602197756
-0.8311598936664026,-2.4292967955218714,-1.4174225966082972,-0.8281849066363733,-1.5977018515216272,-3.13629657426943
-0.8311961332904261,-2.428206745778219,-1.4171822706805628,-0.8293960730182093,-1.5977018515216272,-3.1363206545459192
-0.8312438170062464,-2.4259665648089808,-1.416666332875387,-0.8321059385882776,-1.5977018515216272,-3.1361408869372767
-0.8312438170062464,-2.4248526732074183,-1.416438404713766,-0.8334968725787562,-1.5977256933795374,-3.1362608114825647
-0.8312681357013147,-2.4237621466266077,-1.4161623159991663,-0.8348038832293909,-1.5977500120746058,-3.136081043873922
-0.8312681357013147,-2.422612015401022,-1.415910545979635,-0.8361709753619593,-1.5977256933795374,-3.136068884526388
-0.8313401381122034,-2.4204323927508753,-1.4153946081744593,-0.8389766852008265,-1.5977137724505823,-3.135961119328634
-0.8313158194171351,-2.4193294684039515,-1.4151909987079065,-0.8402236143695276,-1.5977137724505823,-3.1360209623919886
-0.8313520590411585,-2.418251339589254,-1.414914909993307,-0.8414347807513636,-1.5977380911456507,-3.135829273854391
-0.8313997427569788,-2.41716176668276,-1.414698902760641,-0.8427293936358851,-1.597773853932516,-3.135949198399679
-0.8314479033099573,-2.4150050322162073,-1.4142430464373987,-0.8453195730792444,-1.597785774861471,-3.1357932726489466
-0.8314116636859339,-2.413938824330465,-1.4139907995807093,-0.8466385046588343,-1.597785774861471,-3.135829273854391
-0.8314479033099573,-2.4129207769977015,-1.413750950490133,-0.8479092756854456,-1.5978215376483362,-3.135721747075216
-0.8314717451678675,-2.4118788878070276,-1.4134987036334437,-0.8492520491229456,-1.5978458563434046,-3.1358051935779017
-0.8314836660968226,-2.409829918538229,-1.4130433241473597,-0.8516982237445276,-1.5978096167193812,-3.135685745869772
-0.8315318266498011,-2.4087761084186,-1.4128387610064905,-0.8529575506793421,-1.5978339354144495,-3.135721747075216
-0.831519905720846,-2.407757584248678,-1.4125874678241175,-0.8543360869037073,-1.5978096167193812,-3.135602060948507
-0.8315556685077112,-2.4067514578448694,-1.412335220967428,-0.8555834929095667,-1.597773853932516,-3.135697905217306
-0.8315914312945765,-2.404726807271139,-1.4118550459491175,-0.8580892721759241,-1.597797695790426,-3.1355300585376185
-0.8315914312945765,-2.403684441243307,-1.4116032759295862,-0.8595040480243128,-1.5978096167193812,-3.1356259028064173
-0.8316157499896448,-2.4026663939105433,-1.4113872686969202,-0.8607156912433069,-1.5978696982013147,-3.135470215474264
-0.8316753546344202,-2.401612106953756,-1.4111593405352991,-0.8619144598590296,-1.5978339354144495,-3.1355419794665735
-0.8316872755633753,-2.3995874563800257,-1.4106553236590784,-0.8645637671100062,-1.5978096167193812,-3.135482136403219
-0.8317235151873987,-2.3985570112811487,-1.4104517141925257,-0.8658354918109339,-1.597785774861471,-3.1355181376086634
-0.8317235151873987,-2.397527519856588,-1.4101994673358362,-0.8670819441424769,-1.5978339354144495,-3.1353982130633753
-0.831759277974264,-2.3964489142047327,-1.409947697316305,-0.8683531920062464,-1.5978458563434046,-3.13538629213442
-0.8317831198321741,-2.3943288961993616,-1.4094913641559046,-0.8708470503436487,-1.5978215376483362,-3.1353262106524866
-0.8317831198321741,-2.3932984511004847,-1.4092395941363733,-0.8720582167254847,-1.5978339354144495,-3.13538629213442
-0.8318074385272425,-2.392184559498922,-1.4090235869037073,-0.8733771483050745,-1.5978458563434046,-3.135278288518087
-0.8318312803851526,-2.3911545912372034,-1.4087961355792444,-0.8745997587787073,-1.5978096167193812,-3.1353262106524866
-0.831878964100973,-2.389021698628561,-1.408339802418844,-0.8771064917193812,-1.5978339354144495,-3.1351829210864466
-0.8318670431720179,-2.3879316488849085,-1.4080756346331995,-0.8784611860858362,-1.5978339354144495,-3.135278288518087
-0.8319628874408167,-2.386925999318258,-1.4077995459186,-0.8796842733966272,-1.5978215376483362,-3.1351948420154017
-0.8319509665118616,-2.3858473936664026,-1.4076078573810022,-0.8809312025653284,-1.5978458563434046,-3.1351829210864466
-0.8319509665118616,-2.3837392965899866,-1.4071758429156702,-0.8835209051715296,-1.5978577772723597,-3.135098997746603
-0.83197528520693,-2.3826730887042444,-1.406935993825094,-0.884768311177389,-1.5978696982013147,-3.1350749174701136
-0.8320110479937952,-2.3816068808185022,-1.4066599051104944,-0.8860271612750452,-1.597893540059225,-3.1350629965411585
-0.8320110479937952,-2.380552593861715,-1.4064324537860315,-0.8873704115497034,-1.5978816191302698,-3.1349433104144495
-0.8319991270648401,-2.3784921805011194,-1.4059761206256312,-0.8899357954608362,-1.5978816191302698,-3.1349311510669153
-0.8320587317096155,-2.3774622122394007,-1.4057119528399866,-0.8912308851825159,-1.597893540059225,-3.1349671522723597
-0.8320587317096155,-2.3764317671405237,-1.4054363409625452,-0.892562214528219,-1.59790546098818,-3.1349311510669153
-0.832106892262594,-2.375377957020895,-1.4051840941058558,-0.8939288298236292,-1.5979417006122034,-3.1348593870746058
-0.8321550528155726,-2.373340908681051,-1.404752556477682,-0.8964350859271448,-1.5979536215411585,-3.1348353067981165
-0.8321908156024378,-2.372275177632467,-1.4044764677630823,-0.8979099432574671,-1.5979297796832483,-3.1348353067981165
-0.8321788946734827,-2.371256653462545,-1.404236141835348,-0.8991568724261683,-1.5979297796832483,-3.134883228932516
-0.8321788946734827,-2.3702147642718714,-1.4039724508868616,-0.9004157225238245,-1.5979297796832483,-3.1347394625293177
-0.832226578389303,-2.3681305090533655,-1.403492275868551,-0.9029939810382288,-1.5979655424701136,-3.1347275416003626
-0.832226578389303,-2.367112461720602,-1.4032767454730433,-0.9042528311358851,-1.5979417006122034,-3.134643856679098
-0.8322747389422815,-2.3660576979266565,-1.403060261403219,-0.9054520765887659,-1.59790546098818,-3.1347039381610315
-0.8322747389422815,-2.364967648183004,-1.402808968220846,-0.9066508452044886,-1.5979774633990687,-3.1345720926867884
-0.8322866598712366,-2.362823788319723,-1.4023168722735804,-0.9092767874347132,-1.5979536215411585,-3.134536091481344
-0.8322866598712366,-2.361781422291891,-1.4020407835589808,-0.9105237166034144,-1.5979655424701136,-3.1344762484179896
-0.8323467413531702,-2.3606913725482386,-1.4018009344684046,-0.911806885396139,-1.5979536215411585,-3.1345840136157435
-0.8324063459979456,-2.3596251646624964,-1.4016326109515589,-0.9129942099200647,-1.5979297796832483,-3.13442832628359
-0.8324182669269007,-2.3574212233172815,-1.4011409918414515,-0.9154637495623987,-1.5979297796832483,-3.1343682448016565
-0.8324182669269007,-2.356342617665426,-1.4008410612689417,-0.9167707602130335,-1.5979178587542933,-3.1343804041491907
-0.832430664693014,-2.3553131262408655,-1.4006488958941858,-0.9180539290057581,-1.5979655424701136,-3.1343682448016565
-0.8324664274798792,-2.3544142881976526,-1.4003728071795862,-0.9192889372455042,-1.5979655424701136,-3.1342724005328577
-0.8325384298907679,-2.352234665547506,-1.3998687903033655,-0.9219744841205042,-1.5979655424701136,-3.1342008749591272
-0.8325021902667444,-2.351204220448629,-1.3997014204608362,-0.9232576529132288,-1.5979774633990687,-3.134188954030172
-0.8325145880328577,-2.3501623312579554,-1.3994854132281702,-0.9244449774371546,-1.5979536215411585,-3.1342008749591272
-0.8325384298907679,-2.3491199652301233,-1.3991974035846155,-0.925812069569723,-1.5979655424701136,-3.1340814272509974
-0.8325861136065882,-2.347095314656393,-1.3987653891192835,-0.9284141699420374,-1.5979774633990687,-3.134045426045553
-0.8326218763934534,-2.3460891882525843,-1.398477856312887,-0.9296849409686487,-1.5979774633990687,-3.1340695063220423
-0.8326457182513636,-2.3450468222247522,-1.3982613722430628,-0.9309080282794397,-1.5980013052569788,-3.1340695063220423
-0.8326457182513636,-2.344065014516012,-1.3980096022235315,-0.9322989622699183,-1.5980375448810022,-3.1339855829821985
-0.8327057997332972,-2.341980282460348,-1.3975656668292444,-0.9347088972674769,-1.5980013052569788,-3.1339736620532435
-0.8327057997332972,-2.3409627119647425,-1.3972895781146448,-0.9360521475421351,-1.5980256239520472,-3.1338656584369105
-0.832681957875387,-2.3399561087237757,-1.397109333668844,-0.9373109976397913,-1.5980256239520472,-3.133937660847799
-0.8327177206622522,-2.3388894240008753,-1.396761719380514,-0.938509766255514,-1.5980375448810022,-3.1338418165790003
-0.8327534834491175,-2.3368056456195276,-1.396329704915182,-0.9411118666278284,-1.598013703023092,-3.1338897387133997
-0.832801644002096,-2.3357275168048304,-1.396125618611471,-0.9424188772784632,-1.5980494658099573,-3.133709971104757
-0.8328135649310511,-2.3346975485431116,-1.3958857695208948,-0.9436543623553675,-1.5980494658099573,-3.1337817350970667
-0.8328374067889612,-2.333595101033346,-1.3956459204303187,-0.9448650519000452,-1.5980494658099573,-3.133721892033712
-0.8328493277179163,-2.3314154783831995,-1.3951895872699183,-0.9474309126483362,-1.5980494658099573,-3.1337698141681116
-0.8328974882708948,-2.3303611914264124,-1.3949020544635218,-0.9487016836749476,-1.5980613867389124,-3.1336141268359583
-0.8328974882708948,-2.3293069044696253,-1.3946736494647425,-0.9500325361834925,-1.5980852285968226,-3.133578125630514
-0.8328974882708948,-2.328240696583883,-1.3944461981402796,-0.951303784047262,-1.5980613867389124,-3.1336141268359583
-0.8329814116107386,-2.3260491530047815,-1.3939784208880823,-0.9538582007037562,-1.5980733076678675,-3.1336141268359583
-0.8330052534686487,-2.3250067869769495,-1.3937137762652796,-0.9552128950702112,-1.5980613867389124,-3.1335185209857386
-0.8329933325396937,-2.3239286581622522,-1.393402401600973,-0.9565194288836878,-1.5980494658099573,-3.1334946791278284
-0.8330290953265589,-2.32286245027651,-1.393210236226217,-0.9578869978534144,-1.5980613867389124,-3.133566443120138
-0.8330534140216272,-2.320730511342184,-1.3927419821368616,-0.9604890982257288,-1.5980375448810022,-3.1334825197802942
-0.8330414930926722,-2.319688145314352,-1.3924782911883753,-0.9618313948260706,-1.5980733076678675,-3.133434597645895
-0.8330414930926722,-2.3186219374286097,-1.3922627607928675,-0.9631388823138636,-1.5980613867389124,-3.133350674306051
-0.833137337361471,-2.3176520506488245,-1.3920100370990198,-0.96442157426943,-1.5980733076678675,-3.1333988348590296
-0.8331254164325159,-2.3155439535724085,-1.3915184179889124,-0.9670355955706995,-1.5980494658099573,-3.1332789103137415
-0.8331850210772913,-2.314453903828756,-1.3912671248065394,-0.968306843434469,-1.5980375448810022,-3.1333866755114954
-0.8331850210772913,-2.3134353796588343,-1.3910263220416468,-0.9694698492633265,-1.5980852285968226,-3.133242909108297
-0.83325702348818,-2.3124054113971155,-1.3907750288592737,-0.9707892576800745,-1.5980494658099573,-3.1332669893847864
-0.8332212607013147,-2.3103092352496546,-1.3903425375567835,-0.9734867254840296,-1.5980852285968226,-3.133206907902853
-0.8332451025592249,-2.3092191855060022,-1.3901026884662073,-0.9747098127948206,-1.5980733076678675,-3.1332908312426966
-0.83325702348818,-2.308117214833395,-1.3898866812335413,-0.9759567419635218,-1.5980852285968226,-3.1331711451159876
-0.8332808653460901,-2.307074848805563,-1.3896473089801233,-0.9772518316852015,-1.5980852285968226,-3.1331589857684534
-0.8332927862750452,-2.3049548308001917,-1.3891552130328577,-0.9798539320575159,-1.598109547291891,-3.1330276171313685
-0.8333647886859339,-2.303912941609518,-1.3889148871051233,-0.9811127821551722,-1.5980852285968226,-3.133087460194723
-0.833376709614889,-2.302798573170797,-1.3886635939227503,-0.9825275580035608,-1.5980613867389124,-3.133003536854879
-0.8333647886859339,-2.301708523427145,-1.3884108702289026,-0.9837749640094202,-1.5980852285968226,-3.132991615925924
-0.8334248701678675,-2.299612347279684,-1.3879669348346155,-0.9862926642047327,-1.5980971495257776,-3.132871691380636
-0.8334010283099573,-2.2985103766070765,-1.3877394835101526,-0.9876239935504358,-1.598109547291891,-3.1329317728625696
-0.8334849516498011,-2.297516171132223,-1.3875229994403284,-0.9888947645770472,-1.5980613867389124,-3.1327880064593714
-0.8334487120257776,-2.2964380423175257,-1.3872712294207972,-0.9901421705829065,-1.5980971495257776,-3.132871691380636
-0.8335445562945765,-2.2943418661700647,-1.3867910544024866,-0.9925878683673304,-1.5980971495257776,-3.132763926182882
-0.8335207144366663,-2.2933476606952112,-1.3865750471698206,-0.9938228766070765,-1.5980971495257776,-3.132775847111837
-0.8335207144366663,-2.292389218007223,-1.3863471190081995,-0.995009724293844,-1.598133389149801,-3.132727924977438
-0.8335326353656214,-2.291419331227438,-1.3861196676837366,-0.9961732069598597,-1.598121468220846,-3.132752005253927
-0.833592716847555,-2.289466683064596,-1.3857114950763147,-0.9985716978656214,-1.598133389149801,-3.132644001637594
-0.8335683981524866,-2.2884848753558558,-1.3854716459857386,-0.9996746222125452,-1.5981691519366663,-3.132632080708639
-0.8336046377765101,-2.287586514149801,-1.3852675596820276,-1.0008133093463343,-1.5981453100787562,-3.13253623643984
-0.8336404005633753,-2.2866161505328577,-1.3850510756122034,-1.0019763151751917,-1.598109547291891,-3.132608238850729
-0.8336642424212855,-2.284783665333883,-1.3846076170550745,-1.0043986479388636,-1.5981691519366663,-3.132548157368795
-0.8336766401873987,-2.283825222645895,-1.3843916098224085,-1.005573574696676,-1.5982173124896448,-3.132500712071554
-0.8337004820453089,-2.2828672567950647,-1.3841875235186976,-1.0066888968097132,-1.5982173124896448,-3.1324527899371546
-0.8337362448321741,-2.2819207350360315,-1.3839834372149866,-1.0079000631915491,-1.598241154347555,-3.1324287096606653
-0.8337481657611292,-2.280099693928854,-1.3835037390338343,-1.0100944677936,-1.5982292334186,-3.1324406305896204
-0.8337848822223108,-2.279177490864889,-1.3833120504962366,-1.011329476033346,-1.5982053915606897,-3.1323447863208216
-0.833808724080221,-2.2782309691058558,-1.3831318060504358,-1.0124085585223597,-1.5982292334186,-3.1323447863208216
-0.8337968031512659,-2.277309242879049,-1.3829157988177698,-1.013571564351217,-1.5982292334186,-3.132368866597311
-0.8338564077960413,-2.2754643599139612,-1.382496182118551,-1.0158260504352015,-1.598241154347555,-3.1323328653918665
-0.8338926474200647,-2.2745540777789515,-1.382303539906637,-1.0170491377459925,-1.59825307527651,-3.1322129408465784
-0.8338688055621546,-2.273655716572897,-1.3820517698871058,-1.0182116667376917,-1.5982649962054651,-3.1322010199176233
-0.8339045683490198,-2.2727091948138636,-1.3818720022784632,-1.0192673842059534,-1.59825307527651,-3.1322251001941126
-0.8339522520648401,-2.2709487120257776,-1.3814757505999964,-1.0214970747577112,-1.598241154347555,-3.132177178059713
-0.8339045683490198,-2.270050350819723,-1.3812721411334437,-1.022564713154928,-1.598241154347555,-3.132141176854269
-0.8339522520648401,-2.269212071095602,-1.381080452595846,-1.0236075560199183,-1.5982053915606897,-3.1320932547198694
-0.8339884916888636,-2.2683618704425257,-1.3808882872210901,-1.0245793501483362,-1.5982173124896448,-3.1321292559253138
-0.8340242544757288,-2.2667201201068323,-1.3805277983294886,-1.0266297499286097,-1.5982053915606897,-3.1320810953723353
-0.8340242544757288,-2.26597768465151,-1.3803723494159144,-1.0275290648089808,-1.59825307527651,-3.1321051756488245
-0.8340123335467737,-2.2651756445514124,-1.3801921049701136,-1.028440300618307,-1.5982053915606897,-3.1319974104510706
-0.8340361754046839,-2.264456574116842,-1.3800366560565394,-1.0292075316058558,-1.5982292334186,-3.1320212523089808
-0.8340485731707972,-2.2631028334247034,-1.3797124067889612,-1.0308507124530237,-1.5982173124896448,-3.131889883671896
-0.8340604940997522,-2.26243240038027,-1.3795684019671839,-1.0315936247455042,-1.5982173124896448,-3.1320093313800257
-0.8340604940997522,-2.2618215719806116,-1.3794363180743616,-1.0323012510882776,-1.5982649962054651,-3.1318779627429407
-0.8340962568866175,-2.2612584272967737,-1.3793042341815394,-1.0330327192889612,-1.5982053915606897,-3.131949488316671
-0.8340724150287073,-2.260132137929098,-1.379052464162008,-1.0343878904925745,-1.5982292334186,-3.131805960332052
-0.8340962568866175,-2.2595699469195765,-1.378932301198141,-1.0350707213031214,-1.5982173124896448,-3.1318419615374964
-0.8341320196734827,-2.2590187231646937,-1.3788002173053187,-1.0357425848590296,-1.5982292334186,-3.131805960332052
-0.8341320196734827,-2.2585037390338343,-1.3787406126605433,-1.0363181273089808,-1.598241154347555,-3.1317699591266077
-0.8341563383685511,-2.257521454487936,-1.3784526030169886,-1.0375292936908167,-1.5982173124896448,-3.1317461172686976
-0.8341682592975062,-2.2570303122149866,-1.3783205191241663,-1.0380929152118128,-1.598241154347555,-3.131794039403097
-0.8341682592975062,-2.2565391699420374,-1.378260914479391,-1.0387519041644495,-1.5982292334186,-3.131794039403097
-0.8341682592975062,-2.2560961882220667,-1.3781169096576136,-1.0392797628985804,-1.5982053915606897,-3.131686035786764
-0.8341563383685511,-2.255162064229147,-1.377972427998678,-1.040466610585348,-1.598241154347555,-3.131698195134298
-0.8341563383685511,-2.2546704451190394,-1.377864185963766,-1.0410426298724573,-1.5982292334186,-3.1317101160632532
-0.8342040220843714,-2.2541917006122034,-1.377756420766012,-1.0416300932513636,-1.5982173124896448,-3.131817881261007
-0.8341921011554163,-2.2537363211261194,-1.377636734639303,-1.0422890822040003,-1.5982053915606897,-3.1316261927234095
-0.8342402617083948,-2.252754036580221,-1.3774083296405237,-1.043441120778219,-1.598241154347555,-3.1316381136523646
-0.8342402617083948,-2.2522509733783167,-1.3772409597979944,-1.044112507496969,-1.59825307527651,-3.1316381136523646
-0.8342283407794397,-2.2517364660846155,-1.3771327177630823,-1.044687573109762,-1.5982649962054651,-3.1317220369922083
-0.8342755476581019,-2.251221005116598,-1.3770487944232386,-1.0453828016864222,-1.5982173124896448,-3.131590191517965
-0.8342636267291468,-2.2502267996417444,-1.3768084684955042,-1.0466182867633265,-1.5982292334186,-3.1316500345813196
-0.8342636267291468,-2.2497361342059534,-1.376664940510885,-1.047241512929098,-1.59825307527651,-3.131566349660055
-0.8343117872821253,-2.249220673237936,-1.3765571753131312,-1.0478652159320276,-1.5982053915606897,-3.131662193928854
-0.8343475500689905,-2.2487176100360315,-1.3764126936541956,-1.0484526793109339,-1.598241154347555,-3.13160211244692
-0.8343356291400355,-2.247711960469381,-1.376232926045553,-1.0497358481036585,-1.5982292334186,-3.131566349660055
-0.8343237082110804,-2.247196976338522,-1.3761127630816858,-1.0503714720355433,-1.5982053915606897,-3.1314824263202112
-0.8343356291400355,-2.2466934362994593,-1.3759568373309534,-1.051018540059225,-1.5982173124896448,-3.1315184275256556
-0.8343356291400355,-2.246190373097555,-1.375908676777975,-1.051594082509176,-1.5982292334186,-3.1315184275256556
-0.8343237082110804,-2.2451604048358362,-1.3756569067584437,-1.0528772513019007,-1.5982173124896448,-3.1315184275256556
-0.8343356291400355,-2.244693104420797,-1.3755252997027796,-1.0534651915179651,-1.59825307527651,-3.131470505391256
-0.8344076315509241,-2.2442739645587366,-1.3753932158099573,-1.0540288130389612,-1.598241154347555,-3.131422821675436
-0.8343594709979456,-2.243854824696676,-1.3753212133990687,-1.054591480885641,-1.5982649962054651,-3.13145882288088
-0.8344195524798792,-2.2429803053485315,-1.3751171270953577,-1.055659596120016,-1.5982649962054651,-3.131350819264547
-0.8344314734088343,-2.2425134817706507,-1.375033203755514,-1.056258503590719,-1.5982649962054651,-3.1313868204699915
-0.8344076315509241,-2.242105786000387,-1.374960724507467,-1.0567382017718714,-1.5982649962054651,-3.1312671343432825
-0.8344553152667444,-2.2416513601886194,-1.374829117451803,-1.0571940580951136,-1.59825307527651,-3.1313629786120813
-0.8344553152667444,-2.2408960501300257,-1.3746493498431605,-1.0582016150103968,-1.5982649962054651,-3.1312671343432825
-0.8344433943377894,-2.24048883119692,-1.3745291868792933,-1.0585969130145472,-1.5982769171344202,-3.1314109007464808
-0.8344915548907679,-2.2401655356036585,-1.374505345021383,-1.059040371571676,-1.5982769171344202,-3.1313028971301478
-0.834503475819723,-2.239782158528463,-1.3743966261493128,-1.0595086256610315,-1.5983012358294886,-3.1313028971301478
-0.8344796339618128,-2.239147488270895,-1.3742650190936487,-1.0602753798114222,-1.5982649962054651,-3.131207052861349
-0.8344672361956995,-2.238824192677633,-1.37416917482485,-1.0606592337237757,-1.5982893149005335,-3.131231133137838
-0.8344553152667444,-2.2385366598712366,-1.3741334120379847,-1.061019245778219,-1.5982769171344202,-3.1312549749957483
-0.834503475819723,-2.238213364277975,-1.374061409627096,-1.0613668600665491,-1.5983012358294886,-3.1311591307269495
-0.8345273176776331,-2.2376864592181605,-1.3739407698260706,-1.0619548002826136,-1.5982893149005335,-3.1311832110034388
-0.8345392386065882,-2.237434689198629,-1.373857323323385,-1.0622900168048304,-1.5982769171344202,-3.1311352888690394
-0.8345273176776331,-2.2371352354632776,-1.37384540239443,-1.0626137892352503,-1.5982649962054651,-3.131207052861349
-0.8345630804644983,-2.236931625996725,-1.373857323323385,-1.0629733244525355,-1.5982649962054651,-3.131099287663595
-0.834515396748678,-2.236488167439596,-1.3737133185016077,-1.0634892622577112,-1.5982649962054651,-3.1311710516559046
-0.8345392386065882,-2.236236874257223,-1.3736775557147425,-1.0637291113482874,-1.5982769171344202,-3.1310513655291956
-0.8345273176776331,-2.235997502003805,-1.3736055533038538,-1.0639565626727503,-1.5982769171344202,-3.131123129521505
-0.834515396748678,-2.235781971608297,-1.3735573927508753,-1.0642207304583948,-1.5983012358294886,-3.131099287663595
-0.8345630804644983,-2.23542291322817,-1.3735335508929651,-1.0647366682635706,-1.5982769171344202,-3.1311352888690394
-0.8345630804644983,-2.235206905995504,-1.3734248320208948,-1.0649283568011683,-1.5982769171344202,-3.1310632864581507
-0.8345630804644983,-2.2350152174579065,-1.3734248320208948,-1.0651443640338343,-1.5983012358294886,-3.1310752073871058
-0.8345754782306116,-2.2348836104022425,-1.3733771483050745,-1.0652878920184534,-1.5982893149005335,-3.1311472097979944
-0.8345630804644983,-2.234572235737936,-1.373328987752096,-1.065695587788717,-1.5982649962054651,-3.131123129521505
-0.8345273176776331,-2.2344163099872034,-1.3732813040362757,-1.0658515135394495,-1.5983012358294886,-3.1310632864581507
-0.8345511595355433,-2.2342727820025843,-1.3732813040362757,-1.0660432020770472,-1.5982893149005335,-3.131003443394796
-0.8345630804644983,-2.234164539967672,-1.373221222554342,-1.0661872068988245,-1.59825307527651,-3.1311472097979944
-0.8346112410174769,-2.2339609305011194,-1.3731854597674769,-1.0664508978473108,-1.5982893149005335,-3.1310752073871058
-0.8345630804644983,-2.2338531653033655,-1.373197380696432,-1.0665229002581995,-1.5982649962054651,-3.1310632864581507
-0.8345873991595667,-2.233781639729635,-1.373209301625387,-1.0666545073138636,-1.5983012358294886,-3.130979363118307
-0.8345754782306116,-2.2337334791766565,-1.3731616179095667,-1.0666545073138636,-1.5982769171344202,-3.131099287663595
-0.8346112410174769,-2.233650032673971,-1.3731253782855433,-1.0667865912066858,-1.5982769171344202,-3.1310394446002405
-0.8345511595355433,-2.2335899511920374,-1.3731372992144983,-1.0666669050799769,-1.5982769171344202,-3.13108736673464
-0.8345873991595667,-2.2336137930499476,-1.3731134573565882,-1.0668585936175745,-1.5983012358294886,-3.13108736673464
-0.8345754782306116,-2.233673874531881,-1.3731134573565882,-1.0665586630450647,-1.5983250776873987,-3.1310394446002405
-0.834515396748678,-2.2336857954608362,-1.3731372992144983,-1.066582981740133,-1.5983131567584437,-3.1310752073871058
-0.8345873991595667,-2.233650032673971,-1.3731616179095667,-1.0665229002581995,-1.5982769171344202,-3.13108736673464
-0.8345873991595667,-2.2336857954608362,-1.3731134573565882,-1.0665705839740198,-1.5982893149005335,-3.1310394446002405
-0.8345993200885218,-2.233673874531881,-1.3731253782855433,-1.0665467421161097,-1.5982769171344202,-3.1310394446002405
-0.8346112410174769,-2.233661953602926,-1.3731616179095667,-1.0665586630450647,-1.5982769171344202,-3.131099287663595
-0.8345754782306116,-2.233661953602926,-1.3731372992144983,-1.0665586630450647,-1.5983131567584437,-3.1310272852527063
-0.8345993200885218,-2.2336376349078577,-1.3731134573565882,-1.0665467421161097,-1.5983131567584437,-3.1310513655291956
-0.8345873991595667,-2.233650032673971,-1.3731253782855433,-1.0665467421161097,-1.5983012358294886,-3.1310394446002405
-0.8345754782306116,-2.233661953602926,-1.3731372992144983,-1.0665705839740198,-1.5982769171344202,-3.1310394446002405
-0.8346112410174769,-2.233673874531881,-1.3731492201434534,-1.0665586630450647,-1.5983131567584437,-3.1310272852527063
-0.8345754782306116,-2.233650032673971,-1.3731730620013636,-1.0665705839740198,-1.59825307527651,-3.1310394446002405
-0.8345630804644983,-2.233673874531881,-1.3731372992144983,-1.0665705839740198,-1.5983131567584437,-3.1310394446002405
-0.8346112410174769,-2.2336857954608362,-1.3731492201434534,-1.066582981740133,-1.5982893149005335,-3.1310513655291956
-0.8345873991595667,-2.2336376349078577,-1.3731134573565882,-1.0665467421161097,-1.5983131567584437,-3.1310513655291956
-0.8345993200885218,-2.2336376349078577,-1.3731372992144983,-1.066582981740133,-1.5982893149005335,-3.1310394446002405
-0.8345754782306116,-2.233661953602926,-1.373077694569723,-1.0665586630450647,-1.5982649962054651,-3.13108736673464
-0.8345993200885218,-2.2336857954608362,-1.3731134573565882,-1.0666425863849085,-1.5982769171344202,-3.1310632864581507
-0.8345511595355433,-2.233673874531881,-1.3731253782855433,-1.0666545073138636,-1.5983012358294886,-3.1310513655291956
-0.8346112410174769,-2.233650032673971,-1.3731253782855433,-1.066702667866842,-1.5983012358294886,-3.1310513655291956
-0.8346112410174769,-2.233661953602926,-1.3731134573565882,-1.066690746937887,-1.5982769171344202,-3.1310513655291956
-0.8346112410174769,-2.233673874531881,-1.3731134573565882,-1.0667145887957972,-1.5983012358294886,-3.1310272852527063
-0.8345630804644983,-2.2336857954608362,-1.3731372992144983,-1.0667508284198206,-1.5982893149005335,-3.1310513655291956
-0.8345873991595667,-2.2336977163897913,-1.3731134573565882,-1.0667145887957972,-1.5983131567584437,-3.13108736673464
-0.8345993200885218,-2.233673874531881,-1.3730891386615198,-1.0667384306537073,-1.5982649962054651,-3.1310394446002405
-0.8345630804644983,-2.233661953602926,-1.3731134573565882,-1.0667622725116175,-1.5982769171344202,-3.1310394446002405
-0.8345630804644983,-2.233650032673971,-1.3730652968036097,-1.0667508284198206,-1.5982649962054651,-3.1310513655291956
-0.8345873991595667,-2.233673874531881,-1.3731372992144983,-1.0667746702777308,-1.5983012358294886,-3.1310394446002405
-0.8345993200885218,-2.233650032673971,-1.373077694569723,-1.0667865912066858,-1.5982893149005335,-3.1310394446002405
-0.8346231619464319,-2.233661953602926,-1.3730414549456995,-1.0667746702777308,-1.5983131567584437,-3.1310394446002405
-0.8346112410174769,-2.233661953602926,-1.3730533758746546,-1.0667746702777308,-1.5983012358294886,-3.1310513655291956
-0.8345993200885218,-2.2336977163897913,-1.3730652968036097,-1.066798512135641,-1.5983012358294886,-3.1310632864581507
-0.8345754782306116,-2.233650032673971,-1.3730414549456995,-1.0667746702777308,-1.5982769171344202,-3.1310513655291956
-0.8346112410174769,-2.2336376349078577,-1.3729937712298792,-1.0667746702777308,-1.5982769171344202,-3.13108736673464
-0.8345754782306116,-2.2336857954608362,-1.3730533758746546,-1.0667746702777308,-1.5983131567584437,-3.1310752073871058
-0.8345754782306116,-2.233673874531881,-1.3730295340167444,-1.0667622725116175,-1.5983250776873987,-3.1310513655291956
-0.834635082875387,-2.233650032673971,-1.3730176130877894,-1.0667508284198206,-1.5983012358294886,-3.1310752073871058
-0.8345993200885218,-2.2336857954608362,-1.3730533758746546,-1.0667384306537073,-1.5983012358294886,-3.1310752073871058
-0.8346112410174769,-2.2336977163897913,-1.3729937712298792,-1.0666669050799769,-1.5982769171344202,-3.1310752073871058
-0.8346112410174769,-2.2337334791766565,-1.3729937712298792,-1.066582981740133,-1.5983012358294886,-3.1310513655291956
-0.8346231619464319,-2.23376971880068,-1.3730533758746546,-1.0665467421161097,-1.5983131567584437,-3.1310272852527063
-0.8345873991595667,-2.233901325856344,-1.3730891386615198,-1.066355053578512,-1.5982893149005335,-3.1310752073871058
-0.8346470038043421,-2.2340686956988733,-1.3731134573565882,-1.066235367451803,-1.5983012358294886,-3.1310632864581507
-0.8346470038043421,-2.2341888586627405,-1.373077694569723,-1.066115681325094,-1.5982893149005335,-3.131099287663595
-0.8346470038043421,-2.2343443075763147,-1.3731134573565882,-1.0659592787372034,-1.5983131567584437,-3.1310632864581507
-0.8346594015704554,-2.2346795240985315,-1.373221222554342,-1.065479580556051,-1.5983012358294886,-3.1310153643237513
-0.8346112410174769,-2.2349193731891077,-1.3732331434832972,-1.065240208302633,-1.5983012358294886,-3.1310513655291956
-0.8346231619464319,-2.2351229826556605,-1.373317066823141,-1.0649283568011683,-1.5983131567584437,-3.1310513655291956
-0.834635082875387,-2.2353628317462366,-1.373437229787008,-1.064676586781637,-1.5982893149005335,-3.1310513655291956
-0.8345993200885218,-2.235865894948141,-1.37352162996401,-1.0639446417437952,-1.5982893149005335,-3.1310752073871058
-0.8346594015704554,-2.2361891905414026,-1.3736055533038538,-1.0635970274554651,-1.5983131567584437,-3.1310272852527063
-0.8345993200885218,-2.236500088368551,-1.373641316090719,-1.0632250944720667,-1.5983012358294886,-3.1310513655291956
-0.834635082875387,-2.236800018941061,-1.373749081288473,-1.06288987794985,-1.5982769171344202,-3.1310632864581507
-0.8345993200885218,-2.2374704519854944,-1.3739407698260706,-1.062122646962301,-1.5983012358294886,-3.13111120859255
-0.834635082875387,-2.2377942244159144,-1.3740251700030726,-1.0616429487811487,-1.5982769171344202,-3.1310752073871058
-0.8346231619464319,-2.2381537596331995,-1.3741334120379847,-1.0612471739398401,-1.5983250776873987,-3.1310632864581507
-0.8346231619464319,-2.2384770552264612,-1.3742173353778284,-1.060803238545553,-1.5983369986163538,-3.13108736673464
-0.8345993200885218,-2.2391355673419397,-1.3743847052203577,-1.0598920027362269,-1.5982893149005335,-3.1310752073871058
-0.8346112410174769,-2.2395547072040003,-1.3744571844684046,-1.0594123045550745,-1.5983131567584437,-3.1310153643237513
-0.8346231619464319,-2.2399142424212855,-1.3745291868792933,-1.0590046087848108,-1.5983131567584437,-3.1310513655291956
-0.8346470038043421,-2.240213219319479,-1.3746374289142054,-1.0585373083697718,-1.5983131567584437,-3.1310632864581507
-0.8346112410174769,-2.2409680525409144,-1.3748529593097132,-1.0575535933123987,-1.598360840474264,-3.13108736673464
-0.834635082875387,-2.241387669240133,-1.374948803578512,-1.0570381323443812,-1.5984447638141077,-3.1310272852527063
-0.8346470038043421,-2.241734806691305,-1.3750088850604456,-1.0565226713763636,-1.5984090010272425,-3.1310752073871058
-0.8346231619464319,-2.2421539465533655,-1.3751409689532679,-1.0560668150531214,-1.5984209219561976,-3.1310752073871058
-0.834635082875387,-2.242920223866598,-1.3753092924701136,-1.0550835768329065,-1.5984328428851526,-3.1310632864581507
-0.8346112410174769,-2.2433398405658167,-1.3754528204547327,-1.0545437971698206,-1.5984328428851526,-3.13108736673464
-0.8346231619464319,-2.243735138569967,-1.3755491415606897,-1.0540884176837366,-1.5984447638141077,-3.1310632864581507
-0.8345993200885218,-2.2441185156451624,-1.3756211439715784,-1.053572956715719,-1.5984447638141077,-3.1310513655291956
-0.834635082875387,-2.244909111653463,-1.3758490721331995,-1.0525296370135706,-1.5984447638141077,-3.1310632864581507
-0.834635082875387,-2.245352093373434,-1.3759444395648401,-1.052026096974508,-1.5984447638141077,-3.1310632864581507
-0.8346470038043421,-2.2458069960223597,-1.3760526815997522,-1.0514262358294886,-1.5984328428851526,-3.1310752073871058
-0.8346713224994105,-2.24620229402651,-1.3761733214007776,-1.0508750120746058,-1.5984566847430628,-3.1310752073871058
-0.834635082875387,-2.2470768133746546,-1.3764126936541956,-1.049784008656637,-1.598469082509176,-3.1310632864581507
-0.8346951643573206,-2.2475441137896937,-1.3765571753131312,-1.0491722265826624,-1.5984929243670862,-3.13108736673464
-0.8346713224994105,-2.2480109373675745,-1.3766291777240198,-1.0486567656146448,-1.598469082509176,-3.1310632864581507
-0.8346713224994105,-2.248514000569479,-1.3766887823687952,-1.0480931440936487,-1.598469082509176,-3.1310632864581507
-0.8346713224994105,-2.2495082060443323,-1.3769405523883265,-1.0468342939959925,-1.598469082509176,-3.13108736673464
-0.8347070852862757,-2.2499874273883265,-1.3771212736712855,-1.0462105909930628,-1.5985048452960413,-3.13108736673464
-0.8347070852862757,-2.250514809285299,-1.377192799245016,-1.0456112066852015,-1.5984929243670862,-3.1310632864581507
-0.8346832434283655,-2.251017395650045,-1.377312962208883,-1.0450118223773401,-1.5985048452960413,-3.1310153643237513
-0.8347070852862757,-2.2521193663226526,-1.377624813710348,-1.0436084906207483,-1.5985167662249964,-3.13108736673464
-0.8347309271441858,-2.2526586691485804,-1.377756420766012,-1.0429132620440882,-1.5985406080829065,-3.1310752073871058
-0.8347190062152308,-2.25322133699526,-1.3779004255877894,-1.0422290007220667,-1.5985286871539515,-3.1310394446002405
-0.8347190062152308,-2.253796402608053,-1.3779967466937464,-1.0416062513934534,-1.5985530058490198,-3.1310632864581507
-0.8346951643573206,-2.2549341360675257,-1.3783205191241663,-1.0402033964740198,-1.5986245314227503,-3.13108736673464
-0.8347070852862757,-2.2555211226092737,-1.3784402052508753,-1.0394957701312464,-1.598564926777975,-3.1310752073871058
-0.8347190062152308,-2.256144348775045,-1.3785603682147425,-1.0388363043414515,-1.5986126104937952,-3.1310632864581507
-0.8347428480731409,-2.2567670981036585,-1.378716293965475,-1.0381291548358362,-1.598588768635885,-3.13108736673464
-0.8347190062152308,-2.2579525152789515,-1.379028622304098,-1.036666218434469,-1.5986364523517054,-3.1310752073871058
-0.8347552458392542,-2.258587662373678,-1.3791845480548304,-1.0359099547015589,-1.5986126104937952,-3.1310513655291956
-0.8347309271441858,-2.259162251149313,-1.3792684713946741,-1.0351432005511683,-1.5986364523517054,-3.1310394446002405
-0.8347309271441858,-2.259761635457174,-1.3794363180743616,-1.0344355742083948,-1.5986126104937952,-3.1310632864581507
-0.8347671667682093,-2.2610071341144007,-1.3797243277179163,-1.0329363981830042,-1.5986245314227503,-3.1310513655291956
-0.8347428480731409,-2.261641804371969,-1.379892651234762,-1.0321453253375452,-1.5986488501178187,-3.13108736673464
-0.8347790876971644,-2.262312714253561,-1.3800604979144495,-1.0314138571368616,-1.5986607710467737,-3.1310394446002405
-0.8347428480731409,-2.2629593054400843,-1.3801563421832483,-1.0306466261493128,-1.5986726919757288,-3.1310632864581507
-0.8347309271441858,-2.264205280934469,-1.3804920355426233,-1.0291360060321253,-1.5987203756915491,-3.1310752073871058
-0.8347910086261194,-2.2648637930499476,-1.3806121985064905,-1.028344456349508,-1.5987327734576624,-3.1310513655291956
-0.8347552458392542,-2.265451256428854,-1.3808043638812464,-1.0276010672198694,-1.5987566153155726,-3.1310752073871058
-0.8347790876971644,-2.2661574522601526,-1.3809722105609339,-1.0267375151263636,-1.5987446943866175,-3.1310272852527063
-0.8347552458392542,-2.2674272696124476,-1.3812840620623987,-1.0250590483294886,-1.5987446943866175,-3.1310513655291956
-0.8347671667682093,-2.2680981794940394,-1.3814519087420862,-1.0242674986468714,-1.5987327734576624,-3.1310513655291956
-0.8347671667682093,-2.268780533467428,-1.381632153187887,-1.0233681837665003,-1.5987566153155726,-3.1310394446002405
-0.8347671667682093,-2.269463364277975,-1.3817999998675745,-1.0225165526019495,-1.5987685362445276,-3.131099287663595
-0.8347309271441858,-2.2708409468280237,-1.3821242491351526,-1.0207541624652308,-1.5987685362445276,-3.1310513655291956
-0.8347790876971644,-2.271571461354391,-1.382303539906637,-1.0197590033160608,-1.5987923781024378,-3.1310632864581507
-0.8347790876971644,-2.272266213093893,-1.3825085798846644,-1.0188000837909144,-1.5987923781024378,-3.1310632864581507
-0.8347790876971644,-2.2730210463153284,-1.382700268422262,-1.017780605946676,-1.5988166967975062,-3.1310513655291956
-0.8347552458392542,-2.274590317402975,-1.3830836454974573,-1.0157659689532679,-1.598912541066305,-3.131099287663595
-0.8348148504840296,-2.275344196950094,-1.3833001295672815,-1.0147107283221644,-1.5988529364215296,-3.1310632864581507
-0.8347552458392542,-2.276159111653463,-1.3835156599627894,-1.0137036482440394,-1.5988410154925745,-3.1310632864581507
-0.8347671667682093,-2.2770817915545862,-1.3837316671954554,-1.012552563344137,-1.5988529364215296,-3.1310513655291956
-0.8347671667682093,-2.278818432484762,-1.3841636816607874,-1.0102985540973108,-1.59890062013735,-3.1310513655291956
-0.8347790876971644,-2.279740635548727,-1.3844159285174769,-1.0091231505023401,-1.59892446199526,-3.13108736673464
-0.8347910086261194,-2.280698601399557,-1.384655777608053,-1.0079000631915491,-1.598912541066305,-3.1310394446002405
-0.8347428480731409,-2.2816689650165003,-1.3848713080035608,-1.0067132155047815,-1.5989964644061487,-3.1310513655291956
-0.8347671667682093,-2.2837770620929163,-1.3853514830218714,-1.004230801259176,-1.5989964644061487,-3.1310513655291956
-0.8347552458392542,-2.2848551909076136,-1.385627571736471,-1.0029237906085413,-1.5989964644061487,-3.1310272852527063
-0.8348267714129847,-2.285933796559469,-1.3859031836139124,-1.00165301958193,-1.5990446249591272,-3.1310394446002405
-0.8348148504840296,-2.28701097169985,-1.3861554304706019,-1.00031024614443,-1.5990446249591272,-3.1310632864581507
-0.8348148504840296,-2.289215389882223,-1.3866952101336878,-0.9976957480060022,-1.5990565458880823,-3.1310632864581507
-0.8348630110370081,-2.2903412024127405,-1.3869593779193323,-0.9963648954974573,-1.5990803877459925,-3.1310632864581507
-0.8348148504840296,-2.2914913336383265,-1.3872235457049769,-0.995009724293844,-1.5990803877459925,-3.1310153643237513
-0.834851090108053,-2.292605225239889,-1.3875349203692835,-0.9935949484454554,-1.5990684668170374,-3.130991284047262
-0.834851090108053,-2.294821564351217,-1.3880389372455042,-0.9909690062152308,-1.5991643110858362,-3.130979363118307
-0.8348630110370081,-2.2959111372577112,-1.3883269468890589,-0.989661995564596,-1.5991643110858362,-3.1310513655291956
-0.8347910086261194,-2.2969892660724085,-1.3885787169085901,-0.9883073011981409,-1.5991643110858362,-3.1310272852527063
-0.834851090108053,-2.298067871724264,-1.388879124318258,-0.9869878927813929,-1.5991643110858362,-3.1310394446002405
-0.8348630110370081,-2.3001511732684534,-1.389310661946432,-0.9845059553729456,-1.5991643110858362,-3.1310272852527063
-0.8348267714129847,-2.301145855580465,-1.3895991484271448,-0.9832709471331995,-1.599236313496725,-3.1310272852527063
-0.8348749319659632,-2.3021281401263636,-1.3897908369647425,-0.9820840994464319,-1.5992000738727015,-3.1310513655291956
-0.8348749319659632,-2.303098503743307,-1.3900426069842737,-0.9808366934405726,-1.5992124716388147,-3.1310513655291956
-0.8348749319659632,-2.3049429098712366,-1.3905108610736292,-0.9783428351031702,-1.59924823442568,-3.1310632864581507
-0.8348749319659632,-2.305901352559225,-1.390822712575094,-0.9771559874164026,-1.599236313496725,-3.1310752073871058
-0.8348749319659632,-2.306835476552145,-1.3910263220416468,-0.9759448210345667,-1.5992720762835901,-3.1310272852527063
-0.8348749319659632,-2.3077457586871546,-1.3912909666644495,-0.9747455755816858,-1.5993083159076136,-3.1310153643237513
-0.8349226156817835,-2.309554402028219,-1.3917344252215784,-0.9723237196551722,-1.5992963949786585,-3.1310272852527063
-0.8348630110370081,-2.310489002858297,-1.3920343557940882,-0.9710529486285608,-1.5993202368365687,-3.1310752073871058
-0.8348987738238733,-2.311507050191061,-1.3921907583819788,-0.9698174635516565,-1.5993440786944788,-3.1310272852527063
-0.834839169179098,-2.312477413808004,-1.3924544493304651,-0.9686663786517542,-1.5993440786944788,-3.1310752073871058
-0.8349106947528284,-2.3144176642047327,-1.3929584662066858,-0.9661367575274866,-1.5994280020343226,-3.1310153643237513
-0.8349226156817835,-2.3154481093036097,-1.3931501547442835,-0.9649012724505823,-1.5993922392474573,-3.1310153643237513
-0.8349226156817835,-2.3164780775653284,-1.3933785597430628,-0.9636185804950159,-1.599379841481344,-3.1310394446002405
-0.8349226156817835,-2.3175562063800257,-1.3937504927264612,-0.9622991720782679,-1.5994160811053675,-3.1310272852527063
-0.8349350134478968,-2.319688145314352,-1.3942177931415003,-0.9596975485431116,-1.5994637648211878,-3.1309195200549524
-0.8349588553058069,-2.3208263556109827,-1.3944461981402796,-0.9584024588214319,-1.5994637648211878,-3.1308839956866663
-0.8349226156817835,-2.3218682448016565,-1.394721810017721,-0.9570115248309534,-1.5995000044452112,-3.1308839956866663
-0.8349588553058069,-2.3229826132403772,-1.3949859778033655,-0.9556682745562952,-1.5994637648211878,-3.1309433619128626
-0.8349469343768519,-2.325270477925436,-1.3955257574664515,-0.9530308882342737,-1.5995357672320765,-3.130895439778463
-0.8349350134478968,-2.326420609151022,-1.395778004323141,-0.9516995588885706,-1.5995119253741663,-3.1309075991259974
-0.8349226156817835,-2.327498261128561,-1.3960898558246058,-0.9503687063800257,-1.5995119253741663,-3.1308839956866663
-0.8349469343768519,-2.3286364714251917,-1.3963053862201136,-0.9490378538714808,-1.5995720068561,-3.130895439778463
-0.8349350134478968,-2.330876175557272,-1.3968213240252894,-0.9464481512652796,-1.5995119253741663,-3.130895439778463
-0.8349226156817835,-2.3319786230670374,-1.3971336523639124,-0.9451406637774866,-1.5995596090899866,-3.130895439778463
-0.834970776234762,-2.3330681959735315,-1.3973858992206019,-0.943822209035055,-1.5996435324298304,-3.1308839956866663
-0.8349826971637171,-2.3340986410724085,-1.3976495901690882,-0.9425986448871058,-1.5996316115008753,-3.130859915410177
-0.8349469343768519,-2.336134735737936,-1.3981173674212855,-0.9399250189410608,-1.5996797720538538,-3.1308839956866663
-0.8349226156817835,-2.337093178425924,-1.39838153520693,-0.9385936895953577,-1.5996435324298304,-3.1308839956866663
-0.8349588553058069,-2.338123623524801,-1.3986213842975062,-0.9373586813556116,-1.5997636953936976,-3.130895439778463
-0.834970776234762,-2.3390935103045862,-1.3989093939410608,-0.9360521475421351,-1.5996916929828089,-3.130871836339132
-0.8349469343768519,-2.341034237538473,-1.399365250264303,-0.9334619680987757,-1.5996797720538538,-3.130871836339132
-0.8349588553058069,-2.3420284430133265,-1.3997014204608362,-0.9320829550372522,-1.5997517744647425,-3.1308839956866663
-0.834970776234762,-2.343010727559225,-1.3998931089984339,-0.9308121840106409,-1.5997517744647425,-3.130871836339132
-0.8350065390216272,-2.3440168539630335,-1.4001215139972132,-0.9294689337359827,-1.5996916929828089,-3.130859915410177
-0.834970776234762,-2.3460171858416956,-1.4006369749652308,-0.9270108381854456,-1.5998113791095179,-3.130895439778463
-0.8350065390216272,-2.346975628529684,-1.4008892218219202,-0.9256799856769007,-1.5997994581805628,-3.130871836339132
-0.8350184599505823,-2.348017994557516,-1.4011653105365198,-0.9243610540973108,-1.5999553839312952,-3.130859915410177
-0.8349826971637171,-2.349060360585348,-1.4013689200030726,-0.9231260458575647,-1.5997875372516077,-3.130871836339132
-0.8350065390216272,-2.3511560598956507,-1.401849095021383,-0.9206798712359827,-1.5999434630023401,-3.1308839956866663
-0.8350308577166956,-2.3521865049945276,-1.4021008650409144,-0.9193967024432581,-1.5998714605914515,-3.130871836339132
-0.8350184599505823,-2.3532641569720667,-1.4024127165423792,-0.9181979338275355,-1.6000154654132288,-3.1309075991259974
-0.8350065390216272,-2.3543666044818323,-1.4026411215411585,-0.9169629255877894,-1.5998476187335413,-3.1309075991259974
-0.8350184599505823,-2.356546703969137,-1.403132740651266,-0.9143846670733851,-1.6000154654132288,-3.1308839956866663
-0.8350785414325159,-2.3575766722308558,-1.403372589741842,-0.9132579008685511,-1.5998833815204065,-3.1309195200549524
-0.8350308577166956,-2.358619515095846,-1.4036129156695765,-0.9119866530047815,-1.600051228200094,-3.130871836339132
-0.8350785414325159,-2.359673325215475,-1.4038527647601526,-0.9106920401202601,-1.5999792257892054,-3.1309075991259974
-0.8350546995746058,-2.3618291060077112,-1.4043086210833948,-0.9081500212298792,-1.6001232306109827,-3.130895439778463
-0.8350546995746058,-2.362847630177633,-1.4046080748187464,-0.9069145361529749,-1.5999673048602503,-3.130895439778463
-0.8350427786456507,-2.363865677510397,-1.404872242604391,-0.90558368364443,-1.6000869909869593,-3.130895439778463
-0.8350785414325159,-2.36483604112734,-1.4051240126239222,-0.9043486754046839,-1.6000750700580042,-3.130871836339132
-0.8350785414325159,-2.3668606917010706,-1.4056161085711878,-0.9017584959613245,-1.6002071539508265,-3.1308839956866663
-0.8351147810565394,-2.3678906599627894,-1.4058564344989222,-0.9004877249347132,-1.6000273863421839,-3.1309075991259974
-0.8350666205035608,-2.3688491026507776,-1.406083885823385,-0.8991449514972132,-1.6001351515399378,-3.130836073552267
-0.835090462361471,-2.369807545338766,-1.406384293233053,-0.8978737036334437,-1.600182835255758,-3.1309314409839075
-0.835090462361471,-2.3717363516436976,-1.4068401495562952,-0.8951881567584437,-1.600182835255758,-3.130859915410177
-0.8351023832904261,-2.372730557118551,-1.4071162382708948,-0.893893067036764,-1.6001113096820276,-3.130859915410177
-0.8351023832904261,-2.373688522969381,-1.4073317686664026,-0.8925979773150843,-1.600170914326803,-3.1309075991259974
-0.8351023832904261,-2.3747428099261683,-1.4076555410968226,-0.8912671248065394,-1.600278679524557,-3.130859915410177
-0.8351147810565394,-2.3767555395709437,-1.408123795186178,-0.8887370268451136,-1.6003268400775355,-3.1308839956866663
-0.8351267019854944,-2.377833668385641,-1.4083760420428675,-0.8874781767474573,-1.6003029982196253,-3.130859915410177
-0.8351386229144495,-2.3788636366473597,-1.4086154142962855,-0.886123005543844,-1.6002548376666468,-3.130836073552267
-0.8351023832904261,-2.379953686391012,-1.4089039007769983,-0.8848760763751429,-1.6003988424884241,-3.1309075991259974
-0.835090462361471,-2.3820980230914515,-1.4093835989581507,-0.8823583761798304,-1.6003626028644007,-3.130859915410177
-0.8351023832904261,-2.3831761519061487,-1.4096596876727503,-0.8810632864581507,-1.6003268400775355,-3.130895439778463
-0.8350666205035608,-2.3843024412738245,-1.4099114576922815,-0.8798039595233362,-1.6003506819354456,-3.130836073552267
-0.8351147810565394,-2.3853443304644983,-1.4101632277118128,-0.8785808722125452,-1.600494686757223,-3.130895439778463
-0.8351505438434046,-2.387524429951803,-1.4106677214251917,-0.8759554068194788,-1.6004346052752894,-3.1308839956866663
-0.8351386229144495,-2.388590637837545,-1.4108832518206995,-0.8747080008136194,-1.6004584471331995,-3.130871836339132
-0.8351386229144495,-2.3896330038653772,-1.4111831823932093,-0.8734849135028284,-1.6003506819354456,-3.1308839956866663
-0.8351023832904261,-2.390686813985006,-1.4114230314837855,-0.8721540609942835,-1.600506607686178,-3.130871836339132
-0.8351505438434046,-2.392843548451559,-1.4119270483600062,-0.8695758024798792,-1.6004827658282679,-3.130859915410177
-0.8351386229144495,-2.3938377539264124,-1.4122274557696741,-0.8683293501483362,-1.6005304495440882,-3.130859915410177
-0.8351386229144495,-2.3949039618121546,-1.4124787489520472,-0.8669622580157679,-1.6004226843463343,-3.130847994481222
-0.8351624647723597,-2.395909611378805,-1.4127190748797815,-0.865631405507223,-1.6005542914019983,-3.130895439778463
-0.8351505438434046,-2.3978989760028284,-1.4132350126849573,-0.8631375471698206,-1.6005423704730433,-3.130895439778463
-0.8351863066302698,-2.3988569418536585,-1.4134867827044886,-0.8618662993060511,-1.6005423704730433,-3.130895439778463
-0.8351743857013147,-2.3998869101153772,-1.4136908690081995,-0.8605473677264612,-1.6004827658282679,-3.1309075991259974
-0.8351743857013147,-2.4007981459247034,-1.4139788786517542,-0.8593362013446253,-1.6006625334369105,-3.130895439778463
-0.8352106253253382,-2.402750317250387,-1.4144347349749964,-0.8567703405963343,-1.6006024519549769,-3.130895439778463
-0.8351863066302698,-2.403696362172262,-1.4146865049945276,-0.8554752508746546,-1.600626293812887,-3.1308839956866663
-0.8351982275592249,-2.404702965413229,-1.4149869124041956,-0.8542640844928187,-1.6005905310260218,-3.130871836339132
-0.8352106253253382,-2.4056852499591272,-1.4151909987079065,-0.8529575506793421,-1.6007102171527308,-3.130871836339132
-0.8351863066302698,-2.4077099005328577,-1.4157069365130823,-0.8503435293780726,-1.6007583777057093,-3.1308839956866663
-0.8351863066302698,-2.4087279478656214,-1.415910545979635,-0.849060360585348,-1.6007221380816858,-3.1308239142047327
-0.8352106253253382,-2.4097817579852503,-1.4162099997149866,-0.8478253523456019,-1.6006982962237757,-3.130859915410177
-0.8352344671832483,-2.4108603636371058,-1.4164145628558558,-0.8464949766742151,-1.6008899847613733,-3.130871836339132
-0.8352225462542933,-2.4128969351397913,-1.4169662634478968,-0.8439887205706995,-1.6008780638324183,-3.130871836339132
-0.8352463881122034,-2.414022747670309,-1.417218033467428,-0.84271747270693,-1.6007822195636194,-3.130859915410177
-0.8352702299701136,-2.415053192769186,-1.4174345175372522,-0.8414109388934534,-1.600830380116598,-3.130871836339132
-0.8352702299701136,-2.416131321583883,-1.4177458922015589,-0.8401754538165491,-1.600842301045553,-3.130859915410177
-0.8352583090411585,-2.4182875792132776,-1.4182379881488245,-0.8376215139972132,-1.600973908101217,-3.130871836339132
-0.8352702299701136,-2.41940147081484,-1.4184301535235804,-0.8362906614886683,-1.600830380116598,-3.130836073552267
-0.8352583090411585,-2.4204443136798304,-1.4187300840960901,-0.8349598089801233,-1.6009138266192835,-3.130847994481222
-0.8352945486651819,-2.421461884175436,-1.4190180937396448,-0.8337367216693323,-1.600961987172262,-3.130859915410177
-0.8352583090411585,-2.423619095479147,-1.419473950062887,-0.8310626188861292,-1.6010578314410608,-3.1308239142047327
-0.8352945486651819,-2.424720589314596,-1.4197734037982386,-0.8298280874835413,-1.6009138266192835,-3.1308839956866663
-0.8352344671832483,-2.425751034413473,-1.420013729725973,-0.8285210768329065,-1.6010339895831507,-3.130836073552267
-0.8352702299701136,-2.426816765462057,-1.4202898184405726,-0.8271778265582483,-1.6010459105121058,-3.1308839956866663
-0.835306469594137,-2.428793732319967,-1.42078143755068,-0.8246005217181605,-1.6011417547809046,-3.130836073552267
-0.8352945486651819,-2.4297879377948206,-1.4210575262652796,-0.8233173529254358,-1.6010339895831507,-3.130859915410177
-0.8353183905230921,-2.4307706991778772,-1.4212735334979456,-0.8220346609698694,-1.6011059919940394,-3.1308239142047327
-0.8352945486651819,-2.431800667439596,-1.4215615431415003,-0.8207152525531214,-1.6011179129229944,-3.130836073552267
-0.8352344671832483,-2.433777157460348,-1.4220412413226526,-0.8182814756976526,-1.6011775175677698,-3.1308239142047327
-0.8352702299701136,-2.434711758290426,-1.4223054091082972,-0.8169739882098597,-1.6011059919940394,-3.1308000723468226
-0.8352821508990687,-2.4357178846942347,-1.4225571791278284,-0.8156912962542933,-1.6011298338519495,-3.130836073552267
-0.8352821508990687,-2.4367364088641565,-1.422821346913473,-0.8143242041217249,-1.6012614409076136,-3.130895439778463
-0.8353303114520472,-2.438784901295797,-1.4234092871295374,-0.8117345015155237,-1.6012256781207483,-3.1307759920703333
-0.8352945486651819,-2.439815346394674,-1.423600975667135,-0.8104036490069788,-1.601189915333883,-3.1308000723468226
-0.8353303114520472,-2.4408448378192347,-1.4238651434527796,-0.8091447989093226,-1.6011655966388147,-3.1307640711413782
-0.8353541533099573,-2.4419596830951136,-1.4240925947772425,-0.8078015486346644,-1.6013215223895472,-3.1307640711413782
-0.8353422323810022,-2.44411546388735,-1.4246090094195765,-0.8050797621356409,-1.6012256781207483,-3.130739990864889
-0.8353779951678675,-2.445265595112936,-1.4248970190631312,-0.8037970701800745,-1.6012614409076136,-3.130752150212423
-0.8353422323810022,-2.446343723927633,-1.4251850287066858,-0.8025019804583948,-1.6011655966388147,-3.1306801478015345
-0.8353660742389124,-2.4474104086505335,-1.4254725615130823,-0.8011825720416468,-1.601297680531637,-3.1307042280780237
-0.8353779951678675,-2.449590508137838,-1.425964657460348,-0.7985690275775355,-1.6012375990497034,-3.1306920687304896
-0.8353779951678675,-2.450716797505514,-1.426192585621969,-0.7973583380328577,-1.6013572851764124,-3.1306920687304896
-0.835306469594137,-2.451783005391256,-1.4264686743365687,-0.7960870901690882,-1.6012018362628382,-3.1307042280780237
-0.8353303114520472,-2.452812973652975,-1.4267204443561,-0.7948039213763636,-1.6013334433185022,-3.130716149006979
-0.8353541533099573,-2.454909626637594,-1.4271767775165003,-0.7923582235919397,-1.6012256781207483,-3.1307042280780237
-0.8353903929339808,-2.455928150807516,-1.4274280706988733,-0.7911351362811487,-1.601417366658346,-3.130739990864889
-0.8353903929339808,-2.4568985144244593,-1.4276803175555628,-0.789924446736471,-1.6013453642474573,-3.1306682268725794
-0.8353903929339808,-2.4578807989703577,-1.427932087575094,-0.7887852827655237,-1.6013215223895472,-3.1307042280780237
-0.835426155720846,-2.459750000630514,-1.4283278624164026,-0.7863629500018519,-1.601405445729391,-3.1306920687304896
-0.8354023138629358,-2.4606478849994105,-1.4286406675921839,-0.7852118651019495,-1.601417366658346,-3.1306920687304896
-0.8353903929339808,-2.4615705649005335,-1.4288199583636683,-0.784036938344137,-1.6015012899981897,-3.130739990864889
-0.8353779951678675,-2.462421242390768,-1.4290478865252894,-0.7828257719623011,-1.6013215223895472,-3.130716149006979
-0.8353903929339808,-2.4642298857318323,-1.4294679800616663,-0.7804997603045862,-1.6015012899981897,-3.130716149006979
-0.8354142347918909,-2.46509296098818,-1.4296601454364222,-0.7793124357806605,-1.6013816038714808,-3.130716149006979
-0.8353779951678675,-2.4659789244281214,-1.4299357573138636,-0.778149429951803,-1.6015613714801233,-3.130716149006979
-0.835426155720846,-2.4668896834002894,-1.430199925099508,-0.7770584265338343,-1.601429287587301,-3.1307042280780237
-0.8354619185077112,-2.468722645436422,-1.4306195417987269,-0.7746484915362757,-1.6015494505511683,-3.1307042280780237
-0.8354380766498011,-2.4695852438556116,-1.4308837095843714,-0.7734611670123499,-1.6013453642474573,-3.1307042280780237
-0.8354619185077112,-2.4704960028277796,-1.4310997168170374,-0.7722504774676722,-1.6014893690692347,-3.1306801478015345
-0.8354743162738245,-2.471405808125631,-1.4313395659076136,-0.7710755507098597,-1.6015251318561,-3.130728069935934
-0.8354619185077112,-2.473347012196676,-1.4317830244647425,-0.7686775366412562,-1.6016090551959437,-3.1306920687304896
-0.8354862372027796,-2.4743054548846644,-1.4319880644427698,-0.7675383726703089,-1.601537052785055,-3.1307042280780237
-0.8354619185077112,-2.4752638975726526,-1.4321916739093226,-0.7664349714862269,-1.6014774481402796,-3.1307042280780237
-0.8354862372027796,-2.476258103047506,-1.4324677626239222,-0.7652238051043909,-1.6016572157489222,-3.1306682268725794
-0.8354743162738245,-2.478114906941549,-1.432911221181051,-0.7630060354815882,-1.6015613714801233,-3.130716149006979
-0.8354743162738245,-2.4790614287005823,-1.433103386555807,-0.7619388739215296,-1.6016691366778772,-3.1306920687304896
-0.8354380766498011,-2.479983631764547,-1.433331314717428,-0.7609074751483362,-1.601537052785055,-3.130739990864889
-0.8354743162738245,-2.48088246980776,-1.433547321950094,-0.7598164717303675,-1.6016929785357874,-3.130752150212423
-0.8355219999896448,-2.482607666646139,-1.4339550177203577,-0.7578619162188929,-1.6016209761248987,-3.1307042280780237
-0.8354743162738245,-2.4834702650653284,-1.4341471830951136,-0.7567828337298792,-1.601753060017721,-3.1307042280780237
-0.8354981581317347,-2.4842727820025843,-1.434315029774801,-0.7559436003314417,-1.6016328970538538,-3.130716149006979
-0.8355100790606897,-2.485039536152975,-1.4345067183123987,-0.75494891801943,-1.601764980946676,-3.1307042280780237
-0.8355339209185999,-2.486549202595846,-1.434854809437887,-0.7532456556903284,-1.6016929785357874,-3.130716149006979
-0.8355100790606897,-2.487232033406393,-1.4350226561175745,-0.7522752920733851,-1.6018732229815882,-3.130716149006979
-0.8355339209185999,-2.4879143873797815,-1.435155216847555,-0.7514355818377894,-1.6017287413226526,-3.1306801478015345
-0.8355100790606897,-2.488525692616598,-1.4353469053851526,-0.7506921927081507,-1.6017287413226526,-3.1307042280780237
-0.8355100790606897,-2.489687744771139,-1.4356349150287073,-0.749181095753805,-1.6016929785357874,-3.130728069935934
-0.8355100790606897,-2.490251366292135,-1.435718838368551,-0.7484496275531214,-1.6018732229815882,-3.130716149006979
-0.8354981581317347,-2.490753952656881,-1.435826603566305,-0.7478025595294397,-1.6018851439105433,-3.1306801478015345
-0.8354862372027796,-2.4912694136248987,-1.4360068480121058,-0.7471187750445765,-1.6017888228045862,-3.130728069935934
-0.8354981581317347,-2.4922636190997522,-1.4362471739398401,-0.7457764784442347,-1.6018732229815882,-3.1306801478015345
-0.8354981581317347,-2.4927309195147913,-1.4363907019244593,-0.7451046148883265,-1.6018732229815882,-3.130716149006979
-0.8355219999896448,-2.4932220617877405,-1.4365227858172815,-0.7445772329913538,-1.6019929091082972,-3.1307042280780237
-0.8354981581317347,-2.4936893622027796,-1.4366424719439905,-0.743929688130514,-1.6018126646624964,-3.130716149006979
-0.8354981581317347,-2.494575802479879,-1.43689471880068,-0.7426942030536097,-1.6019209066974085,-3.130739990864889
-0.8354981581317347,-2.4950793425189417,-1.4369905630694788,-0.7420952955829065,-1.6018732229815882,-3.130752150212423
-0.8354743162738245,-2.495486561452047,-1.4371464888202112,-0.7415197531329554,-1.602076832448141,-3.130739990864889
-0.8355339209185999,-2.495953385029928,-1.4372666517840784,-0.7409318129168909,-1.6018369833575647,-3.130752150212423
-0.835545841847555,-2.496852223073141,-1.4374707380877894,-0.7396734396563929,-1.6020167509662073,-3.1306920687304896
-0.8355219999896448,-2.4973557631122034,-1.4375904242144983,-0.7391336599933069,-1.6018851439105433,-3.130716149006979
-0.835545841847555,-2.4978464285479944,-1.4377463499652308,-0.7384861151324671,-1.6020167509662073,-3.130716149006979
-0.835545841847555,-2.498326126729147,-1.437878433858053,-0.7378867308246058,-1.601957146321432,-3.130739990864889
-0.8355339209185999,-2.49929649034609,-1.4381063620196741,-0.7366631666766565,-1.602076832448141,-3.1306920687304896
-0.8355339209185999,-2.499787155781881,-1.4382503668414515,-0.7360881010638636,-1.6019333044635218,-3.130739990864889
-0.835545841847555,-2.5002787748919886,-1.4383462111102503,-0.7354887167560022,-1.6020410696612757,-3.1306920687304896
-0.8355339209185999,-2.500805679951803,-1.4384544531451624,-0.7348535696612757,-1.6020167509662073,-3.1307042280780237
-0.8355577627765101,-2.5018118063556116,-1.4387419859515589,-0.7336304823504847,-1.602100674306051,-3.130752150212423
-0.8355820814715784,-2.5023630301104944,-1.438850227986471,-0.7329109350787562,-1.6019929091082972,-3.130716149006979
-0.8355339209185999,-2.502854649220602,-1.4389823118792933,-0.7322991530047815,-1.6020649115191858,-3.1306801478015345
-0.835545841847555,-2.5033815542804163,-1.4391024748431605,-0.7316878477679651,-1.6020649115191858,-3.1307042280780237
-0.8355820814715784,-2.5044358412372034,-1.4393299261676233,-0.7304890791522425,-1.6021726767169397,-3.130752150212423
-0.8355820814715784,-2.504975144063131,-1.4394376913653772,-0.7297809759723108,-1.6020410696612757,-3.1306920687304896
-0.8355577627765101,-2.5054782072650355,-1.4395583311664026,-0.729217831288473,-1.6021369139300745,-3.130716149006979
-0.8355820814715784,-2.5059455076800745,-1.4396780172931116,-0.7286542097674769,-1.6021488348590296,-3.130716149006979
-0.8355339209185999,-2.506915871297018,-1.4398940245257776,-0.7275031248675745,-1.6021726767169397,-3.130739990864889
-0.8355701605426233,-2.507418934498922,-1.4400256315814417,-0.7270115057574671,-1.6020649115191858,-3.130728069935934
-0.8355577627765101,-2.507838551198141,-1.4401100317584437,-0.7264364401446741,-1.6021369139300745,-3.1306920687304896
-0.8355577627765101,-2.5082696119891565,-1.4402297178851526,-0.72589618364443,-1.6021488348590296,-3.1307042280780237
-0.8355219999896448,-2.5090845266925257,-1.4404338041888636,-0.7248533407794397,-1.6021726767169397,-3.1307042280780237
-0.8356059233294886,-2.5095155874835413,-1.440505329762594,-0.7243498007403772,-1.601969067250387,-3.1306920687304896
-0.8355820814715784,-2.5098751227008265,-1.440589729939596,-0.7239058653460901,-1.6021845976458948,-3.1306920687304896
-0.8355820814715784,-2.510270420704977,-1.4407342115985315,-0.7234624067889612,-1.6021249930011194,-3.130716149006979
-0.8355701605426233,-2.511012856160299,-1.440913502370016,-0.7225869337665003,-1.6022327581988733,-3.130752150212423
-0.8355940024005335,-2.511360470448629,-1.4409497419940394,-0.7221916357623499,-1.602076832448141,-3.130728069935934
-0.8355820814715784,-2.511660401021139,-1.4410937468158167,-0.7217600981341761,-1.6022089163409632,-3.1306920687304896
-0.8356416861163538,-2.512019936238424,-1.441141430531637,-0.7213400045977991,-1.6021726767169397,-3.130728069935934
-0.8356297651873987,-2.5125821272479456,-1.441237751637594,-0.7205970923053187,-1.6022446791278284,-3.1306920687304896
-0.8356059233294886,-2.5129058996783655,-1.4413216749774378,-0.7202370802508753,-1.6021369139300745,-3.1306920687304896
-0.8355820814715784,-2.513193432484762,-1.441441837941305,-0.7199137846576136,-1.6022089163409632,-3.1306920687304896
-0.8356059233294886,-2.513421360646383,-1.4414656797992151,-0.7195418516742151,-1.6021726767169397,-3.1306682268725794
-0.8355577627765101,-2.5139363447772425,-1.4415858427630823,-0.7188943068133753,-1.6022804419146937,-3.1306920687304896
-0.8356059233294886,-2.5141523520099085,-1.4416096846209925,-0.7186186949359339,-1.602088753377096,-3.1306920687304896
-0.8356059233294886,-2.514416042958395,-1.4416335264789026,-0.7183306852923792,-1.6022327581988733,-3.1306801478015345
-0.8355940024005335,-2.5146315733539026,-1.4417055288897913,-0.7180188337909144,-1.6022446791278284,-3.1307042280780237
-0.8355940024005335,-2.5150144735919397,-1.4417899290667933,-0.7175033728228968,-1.6022566000567835,-3.1307042280780237
-0.8355820814715784,-2.5152061621295374,-1.4418614546405237,-0.7172635237323206,-1.6021130720721644,-3.1307042280780237
-0.8355940024005335,-2.515421692525045,-1.4418976942645472,-0.7170599142657679,-1.6022446791278284,-3.1306682268725794
-0.8356416861163538,-2.515613381062643,-1.4418976942645472,-0.7169039885150355,-1.6022327581988733,-3.1306920687304896
-0.8356178442584437,-2.5159133116351526,-1.4420293013202112,-0.7164362112628382,-1.6023286024676722,-3.1306682268725794
-0.8356540838824671,-2.5161169211017054,-1.4420293013202112,-0.716196362172262,-1.60219651857485,-3.1306801478015345
-0.8355701605426233,-2.5162485281573694,-1.442005459462301,-0.715956989918844,-1.6022804419146937,-3.1306920687304896
-0.8356297651873987,-2.516416374837057,-1.4420655409442347,-0.7158010641681116,-1.602292839680807,-3.1306682268725794
-0.8356416861163538,-2.5166800657855433,-1.4421494642840784,-0.7155612150775355,-1.602316681538717,-3.1306682268725794
-0.8356297651873987,-2.516787830983297,-1.4421733061419886,-0.715393368397848,-1.6021845976458948,-3.1306682268725794
-0.8355701605426233,-2.5168960730182093,-1.4421370665179651,-0.7153571287738245,-1.6022566000567835,-3.1306682268725794
-0.8356178442584437,-2.51699144044985,-1.4422333876239222,-0.7152612845050257,-1.6022804419146937,-3.1306801478015345
-0.8356416861163538,-2.5171473662005823,-1.4422457853900355,-0.7150815168963831,-1.602304760609762,-3.1306801478015345
-0.8355940024005335,-2.5171950499164026,-1.4422815481769007,-0.714853588734762,-1.6021726767169397,-3.1306920687304896
-0.8356416861163538,-2.517218891774313,-1.442293945943014,-0.7148898283587855,-1.6022446791278284,-3.1307042280780237
-0.8356059233294886,-2.517230812703268,-1.4423297087298792,-0.7148297468768519,-1.6022566000567835,-3.1306920687304896
-0.8356178442584437,-2.517218891774313,-1.4423177878009241,-0.7148655096637171,-1.6022208372699183,-3.1306682268725794
-0.8355940024005335,-2.5172069708453577,-1.4422815481769007,-0.7148416678058069,-1.6022089163409632,-3.1306801478015345
-0.8356540838824671,-2.517218891774313,-1.4423297087298792,-0.7148297468768519,-1.6021845976458948,-3.130728069935934
-0.8356297651873987,-2.517230812703268,-1.4423416296588343,-0.7148297468768519,-1.6021726767169397,-3.130716149006979
-0.8356178442584437,-2.5171950499164026,-1.4423416296588343,-0.7148297468768519,-1.60219651857485,-3.1306801478015345
-0.8356059233294886,-2.5172069708453577,-1.4423297087298792,-0.7148297468768519,-1.6021845976458948,-3.1306682268725794
-0.8356178442584437,-2.517243210469381,-1.4423177878009241,-0.7148655096637171,-1.6022208372699183,-3.1306682268725794
-0.8355940024005335,-2.517218891774313,-1.4423297087298792,-0.7148297468768519,-1.6021845976458948,-3.130716149006979
-0.8356059233294886,-2.5172069708453577,-1.4422815481769007,-0.7148178259478968,-1.6021845976458948,-3.1306801478015345
-0.8356059233294886,-2.517230812703268,-1.442305866871969,-0.7148297468768519,-1.6022089163409632,-3.130716149006979
-0.8356540838824671,-2.5172069708453577,-1.442293945943014,-0.714853588734762,-1.6021726767169397,-3.1307042280780237
-0.8356540838824671,-2.5171950499164026,-1.4423177878009241,-0.7147935072528284,-1.60219651857485,-3.1306801478015345
-0.8356297651873987,-2.517230812703268,-1.442305866871969,-0.714853588734762,-1.6022089163409632,-3.1306563059436243
-0.8356059233294886,-2.517218891774313,-1.4423535505877894,-0.7148178259478968,-1.60219651857485,-3.1306682268725794
-0.8356059233294886,-2.5172069708453577,-1.4423416296588343,-0.714853588734762,-1.6021845976458948,-3.1306920687304896
-0.8356297651873987,-2.517218891774313,-1.442305866871969,-0.7148178259478968,-1.6022208372699183,-3.1306801478015345
-0.8356178442584437,-2.517218891774313,-1.4423416296588343,-0.714853588734762,-1.6021726767169397,-3.1306801478015345
-0.8355820814715784,-2.517230812703268,-1.4423416296588343,-0.7147935072528284,-1.6021726767169397,-3.13064414659609
-0.8356059233294886,-2.5172069708453577,-1.4423778692828577,-0.7148178259478968,-1.6022089163409632,-3.1306801478015345
-0.8356059233294886,-2.517218891774313,-1.4423659483539026,-0.7148297468768519,-1.6022089163409632,-3.1306801478015345
-0.8356540838824671,-2.517218891774313,-1.442413632069723,-0.7147935072528284,-1.60219651857485,-3.1306801478015345
-0.8356297651873987,-2.5172069708453577,-1.4423897902118128,-0.7148178259478968,-1.60219651857485,-3.1306563059436243
-0.8356540838824671,-2.517230812703268,-1.4423778692828577,-0.7147935072528284,-1.6021607557879847,-3.1306801478015345
-0.8356297651873987,-2.517218891774313,-1.4424017111407679,-0.7147935072528284,-1.60219651857485,-3.1306801478015345
-0.8356178442584437,-2.517218891774313,-1.442425552998678,-0.7147935072528284,-1.60219651857485,-3.1306920687304896
-0.8355820814715784,-2.5171950499164026,-1.4423778692828577,-0.7147815863238733,-1.6021845976458948,-3.1306563059436243
-0.8356059233294886,-2.517218891774313,-1.4424017111407679,-0.7148059050189417,-1.6022089163409632,-3.1306563059436243
-0.8356416861163538,-2.5172551313983362,-1.4424017111407679,-0.7147935072528284,-1.6021845976458948,-3.1307042280780237
-0.8356059233294886,-2.5172069708453577,-1.4423897902118128,-0.7147696653949183,-1.6022089163409632,-3.1306920687304896
-0.8356297651873987,-2.5171950499164026,-1.4424017111407679,-0.7147815863238733,-1.6021845976458948,-3.1306682268725794
-0.8356059233294886,-2.517243210469381,-1.4423897902118128,-0.7147815863238733,-1.6021726767169397,-3.130716149006979
-0.8355940024005335,-2.517230812703268,-1.4423897902118128,-0.7147458235370081,-1.6022089163409632,-3.1306920687304896
-0.8356178442584437,-2.5172069708453577,-1.442413632069723,-0.7147577444659632,-1.6021845976458948,-3.1307042280780237
-0.8356297651873987,-2.517218891774313,-1.4424017111407679,-0.7147696653949183,-1.6021607557879847,-3.1306920687304896
-0.8356059233294886,-2.517230812703268,-1.4423897902118128,-0.7147577444659632,-1.6021845976458948,-3.1306682268725794
-0.8356297651873987,-2.517230812703268,-1.4423897902118128,-0.7148059050189417,-1.6021845976458948,-3.130716149006979
-0.8356178442584437,-2.5171592871295374,-1.4423659483539026,-0.7149975935565394,-1.6022089163409632,-3.1306682268725794
-0.8356178442584437,-2.517099205647604,-1.442425552998678,-0.714973274861471,-1.60219651857485,-3.1306920687304896
-0.8356059233294886,-2.517027203236715,-1.4423897902118128,-0.715189282094137,-1.6021845976458948,-3.1306563059436243
-0.8355940024005335,-2.5169556776629847,-1.4423297087298792,-0.715189282094137,-1.6021607557879847,-3.1306563059436243
-0.8356178442584437,-2.516740147267477,-1.4423535505877894,-0.7154410521136683,-1.6022208372699183,-3.1306682268725794
-0.8356416861163538,-2.5165723005877894,-1.4422572294818323,-0.7156327406512659,-1.60219651857485,-3.1306801478015345
-0.8356540838824671,-2.5164526144610804,-1.442197624837057,-0.7157653013812464,-1.60219651857485,-3.1306801478015345
-0.8356059233294886,-2.5162246862994593,-1.442197624837057,-0.7160289923297327,-1.60219651857485,-3.1306920687304896
-0.8356779257403772,-2.515817467366354,-1.441981617604391,-0.7165682951556605,-1.6021845976458948,-3.1307042280780237
-0.8356297651873987,-2.5155418554889124,-1.441993538533346,-0.7168915907489222,-1.6022089163409632,-3.1306801478015345
-0.8356178442584437,-2.515278164540426,-1.4418976942645472,-0.7172516028033655,-1.6022208372699183,-3.1307042280780237
-0.8355940024005335,-2.515026871358053,-1.4418018499957483,-0.7175877729998987,-1.6021845976458948,-3.1306920687304896
-0.8356297651873987,-2.514439884816305,-1.4416573683368128,-0.718294922505514,-1.6022208372699183,-3.1306920687304896
-0.8356059233294886,-2.51412803331484,-1.4415496031390589,-0.7187026182757776,-1.6021845976458948,-3.1306682268725794
-0.8356297651873987,-2.5137808958636683,-1.441441837941305,-0.7191217581378382,-1.6022089163409632,-3.1306920687304896
-0.8356178442584437,-2.5134571234332483,-1.441345516835348,-0.7195537726031702,-1.6021726767169397,-3.1306682268725794
-0.8355940024005335,-2.5127981344806116,-1.4411652723895472,-0.7205012480365198,-1.60219651857485,-3.1306920687304896
-0.8356178442584437,-2.5124266783343714,-1.4410937468158167,-0.7209447065936487,-1.60219651857485,-3.1306682268725794
-0.8356660048114222,-2.5120676199542444,-1.4409616629229944,-0.7214000860797327,-1.6021845976458948,-3.1307042280780237
-0.8356059233294886,-2.511768166218893,-1.4408538977252405,-0.7218921820269983,-1.60219651857485,-3.130739990864889
-0.8355820814715784,-2.5110371748553675,-1.440674130116598,-0.7228267828570765,-1.60219651857485,-3.130716149006979
-0.8356297651873987,-2.5106895605670374,-1.4405534903155726,-0.7232344786273401,-1.6021845976458948,-3.130752150212423
-0.8356059233294886,-2.510294262562887,-1.4404695669757288,-0.7237618605243128,-1.6021845976458948,-3.1306801478015345
-0.8356297651873987,-2.509946648274557,-1.440385643635885,-0.724314037953512,-1.6022208372699183,-3.130728069935934
-0.8356178442584437,-2.509132210408346,-1.4401701132403772,-0.72522479692568,-1.6021845976458948,-3.130716149006979
-0.8355940024005335,-2.5087488333331507,-1.4400618712054651,-0.7256806532489222,-1.6021845976458948,-3.130739990864889
-0.8356059233294886,-2.5083535353290003,-1.4399541060077112,-0.7262442747699183,-1.6021845976458948,-3.130716149006979
-0.8356059233294886,-2.5078862349139612,-1.4398701826678675,-0.7267478148089808,-1.60219651857485,-3.130728069935934
-0.8356178442584437,-2.5071194807635706,-1.439629856740133,-0.7278149763690394,-1.6022089163409632,-3.1308239142047327
-0.8355940024005335,-2.5066641012774866,-1.4395459334002894,-0.7283185164081019,-1.6021726767169397,-3.130836073552267
-0.8356297651873987,-2.5063169638263147,-1.439413849507467,-0.7288582960711878,-1.60219651857485,-3.1308839956866663
-0.8356178442584437,-2.505897823964254,-1.439270321522848,-0.7293975988971155,-1.6021845976458948,-3.1309314409839075
-0.8355940024005335,-2.5050585905658167,-1.4390423933612269,-0.7304766813861292,-1.6021845976458948,-3.130955521260397
-0.8356059233294886,-2.5046871344195765,-1.4388983885394495,-0.731124226246969,-1.6022446791278284,-3.130836073552267
-0.8355940024005335,-2.504279915486471,-1.438765827809469,-0.7316396872149866,-1.60219651857485,-3.1308839956866663
-0.8356297651873987,-2.503812615071432,-1.4386580626117151,-0.7322028318988245,-1.6022327581988733,-3.1309195200549524
-0.8355701605426233,-2.5029142538653772,-1.438430134450094,-0.7334263960467737,-1.6021845976458948,-3.130955521260397
-0.8355820814715784,-2.502435032521383,-1.4382742086993616,-0.7340496222125452,-1.6022089163409632,-3.130895439778463
-0.835545841847555,-2.5019434134112757,-1.4381426016436976,-0.7346971670733851,-1.60219651857485,-3.130895439778463
-0.8356059233294886,-2.5014408270465296,-1.4380105177508753,-0.7353327910052698,-1.6022566000567835,-3.1309433619128626
-0.8355219999896448,-2.5004704634295862,-1.4376862684832972,-0.736579720173971,-1.6022089163409632,-3.130979363118307
-0.8355820814715784,-2.4999550024615687,-1.4375422636615198,-0.7372153441058558,-1.6022446791278284,-3.130895439778463
-0.8355701605426233,-2.499500099812643,-1.4373987356769007,-0.7379463354693812,-1.60219651857485,-3.1309075991259974
-0.8354981581317347,-2.4990084807025355,-1.4372785727130335,-0.7385700384723108,-1.6021726767169397,-3.1310272852527063
-0.8355339209185999,-2.4979422728167933,-1.4369424025165003,-0.7399609724627894,-1.6022327581988733,-3.130979363118307
-0.8355100790606897,-2.497415367756979,-1.4367745558368128,-0.7406442801104944,-1.60219651857485,-3.1310272852527063
-0.8355219999896448,-2.496876064931051,-1.4365828672992151,-0.7414000670062464,-1.6022089163409632,-3.130979363118307
-0.8354862372027796,-2.4963367621051233,-1.4364388624774378,-0.7420833746539515,-1.6022327581988733,-3.1310752073871058
-0.8354862372027796,-2.4952109495746058,-1.4361746946917933,-0.7435219923602503,-1.6022327581988733,-3.1310153643237513
-0.8355100790606897,-2.494659725819723,-1.436030689870016,-0.7442057768451136,-1.6022327581988733,-3.1310752073871058
-0.8354862372027796,-2.494072739277975,-1.4358390013324183,-0.7449725309955042,-1.6022089163409632,-3.131003443394796
-0.8354862372027796,-2.493521515523092,-1.435706917439596,-0.7456682364093226,-1.6022089163409632,-3.1310752073871058
-0.8354499975787562,-2.4923837820636194,-1.4353950659381312,-0.7471306959735315,-1.6022089163409632,-3.1310153643237513
-0.8354499975787562,-2.491796318684713,-1.4352029005633753,-0.7478745619403284,-1.6022208372699183,-3.131123129521505
-0.8354743162738245,-2.491209332142965,-1.4350107351886194,-0.7486537138568323,-1.60219651857485,-3.1310394446002405
-0.8354380766498011,-2.490598503743307,-1.4348791281329554,-0.7493489424334925,-1.6022327581988733,-3.1310752073871058
-0.8353779951678675,-2.4893768469439905,-1.4345548788653772,-0.7509077231036585,-1.6022208372699183,-3.130979363118307
-0.8353779951678675,-2.488753620778219,-1.434422794972555,-0.7517588774310511,-1.6021845976458948,-3.1311352888690394
-0.8354023138629358,-2.4881065527545374,-1.4342311064349573,-0.752514664326803,-1.6022208372699183,-3.1310752073871058
-0.8354023138629358,-2.4875319639789026,-1.4340513388263147,-0.7532938162433069,-1.6022089163409632,-3.13108736673464
-0.8353660742389124,-2.4862616697894495,-1.4337032477008265,-0.7549245993243616,-1.6022208372699183,-3.13108736673464
-0.835426155720846,-2.485626522694723,-1.433535401021139,-0.7557161490069788,-1.6022327581988733,-3.13111120859255
-0.8353303114520472,-2.4850037733661097,-1.4333551565753382,-0.7564948240863245,-1.6022327581988733,-3.1311832110034388
-0.8353779951678675,-2.484356705342428,-1.4332111517535608,-0.7572749296771448,-1.6022089163409632,-3.131099287663595
-0.8353660742389124,-2.483051125203268,-1.4328749815570276,-0.7589533964740198,-1.6022089163409632,-3.131123129521505
-0.835306469594137,-2.482391659413473,-1.4327071348773401,-0.7597444693194788,-1.6022327581988733,-3.1310752073871058
-0.835306469594137,-2.4817450682269495,-1.4324796835528772,-0.7606199423419397,-1.6021845976458948,-3.1311591307269495
-0.8353422323810022,-2.4810383955584925,-1.432275120412008,-0.7614596525775355,-1.6022685209857386,-3.1311832110034388
-0.8352945486651819,-2.4796603361712855,-1.4319031874286097,-0.7632458845721644,-1.6022208372699183,-3.1312549749957483
-0.8352945486651819,-2.4789417425738733,-1.4316752592669886,-0.7642291227923792,-1.6022446791278284,-3.1312430540667933
-0.8352583090411585,-2.478234593068258,-1.4314358870135706,-0.7652118841754358,-1.6022208372699183,-3.131195131932394
-0.8352945486651819,-2.4774439970599573,-1.4313033262835901,-0.7661836783038538,-1.6022804419146937,-3.1313028971301478
-0.8352821508990687,-2.475875202809469,-1.430836025868551,-0.7682097593890589,-1.602304760609762,-3.131326977406637
-0.8352344671832483,-2.4751198927508753,-1.4306319395648401,-0.7693727652179163,-1.6022327581988733,-3.1313028971301478
-0.8352344671832483,-2.474281613026754,-1.4304159323321741,-0.7703917662249964,-1.6022446791278284,-3.1312430540667933
-0.8352463881122034,-2.47343093553652,-1.4301636854754847,-0.7715428511248987,-1.6022446791278284,-3.131350819264547
-0.8351863066302698,-2.471693817769186,-1.429671589528219,-0.7738330999957483,-1.602292839680807,-3.1312790552722376
-0.8351743857013147,-2.4708192984210413,-1.4293959776507776,-0.7750924269305628,-1.6022327581988733,-3.1313987413989466
-0.8351505438434046,-2.4698966185199183,-1.429131809865133,-0.7763031164752405,-1.6022685209857386,-3.131338898335592
-0.8351624647723597,-2.4689858595477503,-1.4288681189166468,-0.7775142828570765,-1.6022804419146937,-3.131350819264547
-0.8351505438434046,-2.467105213795797,-1.428340260182516,-0.7799480597125452,-1.6022327581988733,-3.131350819264547
-0.8351386229144495,-2.4661229292498987,-1.4280765692340296,-0.7811234633075159,-1.6022804419146937,-3.131422821675436
-0.8351743857013147,-2.465188805256979,-1.427788559590475,-0.7823579947101038,-1.6022685209857386,-3.131470505391256
-0.8351624647723597,-2.464170281087057,-1.4275243918048304,-0.7837250868426722,-1.6022685209857386,-3.1313748995410364
-0.8351147810565394,-2.4621217886554163,-1.4269369284259241,-0.7862914244281214,-1.6022566000567835,-3.13145882288088
-0.8350785414325159,-2.4611032644854944,-1.4266365210162562,-0.7875741163836878,-1.6022327581988733,-3.131446901951925
-0.8350785414325159,-2.4600728193866175,-1.4264081160174769,-0.7889049688922327,-1.6022804419146937,-3.13157827058901
-0.8350065390216272,-2.4590190092669886,-1.4260485808001917,-0.7902358214007776,-1.6022566000567835,-3.1315062681781214
-0.8350546995746058,-2.4569461981402796,-1.4255088011371058,-0.7928617636310022,-1.6022566000567835,-3.1315422693835657
-0.8350184599505823,-2.4558799902545374,-1.4252327124225062,-0.7942526976214808,-1.602316681538717,-3.1315062681781214
-0.8350308577166956,-2.454873863850729,-1.4249327818499964,-0.7955716292010706,-1.6022804419146937,-3.131590191517965
-0.834970776234762,-2.453843418751852,-1.4246566931353968,-0.7969983259784144,-1.6022685209857386,-3.1316142717944544
-0.8350065390216272,-2.4517467657672327,-1.4241049925433558,-0.7995885054217737,-1.6023286024676722,-3.131674114857809
-0.8350065390216272,-2.4507764021502894,-1.4238413015948694,-0.8009312788592737,-1.602304760609762,-3.13160211244692
-0.8350065390216272,-2.449794117604391,-1.4235532919513147,-0.8021543661700647,-1.602292839680807,-3.1316500345813196
-0.8349469343768519,-2.4487999121295374,-1.4232290426837366,-0.8034008185016077,-1.602304760609762,-3.1317220369922083
-0.8349226156817835,-2.4468711058246058,-1.4227975050555628,-0.8058951536761683,-1.602436367665426,-3.1317339579211634
-0.8348987738238733,-2.445960823689596,-1.42250901857485,-0.8071783224688929,-1.6023762861834925,-3.131686035786764
-0.8348987738238733,-2.4450023810016077,-1.4222691694842737,-0.8083055655108851,-1.6024726072894495,-3.131662193928854
-0.8349588553058069,-2.4440677801715296,-1.4219573179828089,-0.8095162550555628,-1.6023886839496058,-3.131805960332052
-0.8348630110370081,-2.442258659993307,-1.4214771429644983,-0.8118661085711878,-1.6024006048785608,-3.1317461172686976
-0.8348630110370081,-2.441336456929342,-1.4212372938739222,-0.813089672719137,-1.602412525807516,-3.1318419615374964
-0.8348749319659632,-2.4404142538653772,-1.4209616819964808,-0.81433612505068,-1.6023886839496058,-3.131794039403097
-0.834851090108053,-2.4395034948932093,-1.4207337538348597,-0.815523926411764,-1.6023762861834925,-3.131829802189962
-0.8348029295550745,-2.437587086354391,-1.4201577345477503,-0.8180654684649866,-1.6023886839496058,-3.131829802189962
-0.834839169179098,-2.4366405645953577,-1.4199054876910608,-0.8192523161517542,-1.6023886839496058,-3.13192588487734
-0.8348630110370081,-2.4356816450702112,-1.4196537176715296,-0.8204515616046351,-1.6023762861834925,-3.131901804600851
-0.8348267714129847,-2.4347356001483362,-1.4194014708148401,-0.8217461744891565,-1.6023643652545374,-3.1318658033954065
-0.8347552458392542,-2.432746712361471,-1.4188254515277308,-0.8243244330035608,-1.602412525807516,-3.131901804600851
-0.8347790876971644,-2.4317649046527308,-1.4185860792743128,-0.8255832831012171,-1.6023762861834925,-3.1319852511035364
-0.8347552458392542,-2.4307706991778772,-1.4182379881488245,-0.8268902937518519,-1.6024006048785608,-3.1320093313800257
-0.8347428480731409,-2.429739777241842,-1.4179981390582483,-0.8283289114581507,-1.6024006048785608,-3.131889883671896
-0.8347671667682093,-2.4277036825763147,-1.4173505941974085,-0.8308709303485315,-1.6023886839496058,-3.1319852511035364
-0.8347070852862757,-2.4266489187823694,-1.4171221891986292,-0.8322141806231897,-1.602412525807516,-3.1319614092456263
-0.8347428480731409,-2.4255951086627405,-1.4168584982501429,-0.8336284796344202,-1.6024006048785608,-3.1320810953723353
-0.8346951643573206,-2.4245408217059534,-1.416558567677633,-0.8349960486041468,-1.602436367665426,-3.131937805806295
-0.8346832434283655,-2.422432247792379,-1.4159343878375452,-0.8376572767840784,-1.6024006048785608,-3.1320810953723353
-0.8346594015704554,-2.4214022795306605,-1.415682617818014,-0.8390486876117151,-1.6023762861834925,-3.1320093313800257
-0.834635082875387,-2.420288387929098,-1.4153946081744593,-0.8403914610492151,-1.602412525807516,-3.1320810953723353
-0.8346713224994105,-2.419269863759176,-1.4151065985309046,-0.8416264692889612,-1.6023886839496058,-3.1319974104510706
-0.8346112410174769,-2.4172094503985804,-1.4145305792437952,-0.8441928068744105,-1.6024006048785608,-3.1322129408465784
-0.834635082875387,-2.416227165852682,-1.414278809224264,-0.8455351034747522,-1.602412525807516,-3.1321170965777796
-0.8345993200885218,-2.4152329603778284,-1.4140389601336878,-0.846842114125387,-1.6023886839496058,-3.1322489420520228
-0.8345754782306116,-2.4142025152789515,-1.413727108632223,-0.8481372038470667,-1.6023886839496058,-3.132284943257467
-0.8345993200885218,-2.412177864705221,-1.4131749312030237,-0.8506673018084925,-1.6023886839496058,-3.132368866597311
-0.8345630804644983,-2.411219898854391,-1.4129107634173792,-0.8519380728351038,-1.6024006048785608,-3.1322251001941126
-0.8345511595355433,-2.4102614561664026,-1.4126351515399378,-0.8532212416278284,-1.6023886839496058,-3.132284943257467
-0.834503475819723,-2.409279171620504,-1.4123833815204065,-0.8545401732074183,-1.6024006048785608,-3.1323328653918665
-0.834515396748678,-2.4073384443866175,-1.4118073622332972,-0.8571060339557093,-1.602412525807516,-3.1323090235339563
-0.834503475819723,-2.406380001698629,-1.411555592213766,-0.858413044606344,-1.6023886839496058,-3.132273022328512
-0.834515396748678,-2.405421559010641,-1.411267105733053,-0.8597319761859339,-1.6023643652545374,-3.1322370211230677
-0.8344796339618128,-2.404499355946676,-1.4110153357135218,-0.8610270659076136,-1.6023886839496058,-3.1323447863208216
-0.8344915548907679,-2.4025824705706995,-1.4104755560504358,-0.8634851614581507,-1.6023886839496058,-3.1323569456683558
-0.8344672361956995,-2.401600186024801,-1.4101393858539026,-0.8647797743426722,-1.6023643652545374,-3.132368866597311
-0.8344433943377894,-2.400630299245016,-1.4098637739764612,-0.8660748640643519,-1.6023886839496058,-3.132273022328512
-0.8344076315509241,-2.3996594587909144,-1.40961200395693,-0.8672860304461878,-1.6023886839496058,-3.1324406305896204
-0.8344195524798792,-2.397731129323141,-1.4091313521014612,-0.8699243704425257,-1.602424446736471,-3.132368866597311
-0.8344076315509241,-2.3967488447772425,-1.4088438192950647,-0.8710392157184046,-1.6024006048785608,-3.1324167887317103
-0.834395710621969,-2.3957422415362757,-1.4085677305804651,-0.8722623030291956,-1.6023762861834925,-3.1323569456683558
-0.8343833128558558,-2.394724194203512,-1.4082797209369105,-0.8735211531268519,-1.6023886839496058,-3.1324647108661097
-0.8343713919269007,-2.39277154604067,-1.4077513853656214,-0.8759434858905237,-1.6023762861834925,-3.132380787526266
-0.8343356291400355,-2.3917773405658167,-1.40747577348818,-0.8772261778460901,-1.6023886839496058,-3.132488791142599
-0.8343594709979456,-2.390782658253805,-1.4072001616107386,-0.8785808722125452,-1.6023886839496058,-3.132392708455221
-0.8343713919269007,-2.3897770086871546,-1.406935993825094,-0.8798998037921351,-1.602412525807516,-3.132488791142599
-0.8343475500689905,-2.387739960347311,-1.4063599745379847,-0.882334057484762,-1.6023643652545374,-3.1324647108661097
-0.8343237082110804,-2.3867581526385706,-1.4061082045184534,-0.8836410681353968,-1.6023762861834925,-3.132608238850729
-0.8343117872821253,-2.385751549397604,-1.4057844320880335,-0.8848641554461878,-1.6023524443255823,-3.1325722376452845
-0.8342874685870569,-2.3847935835467737,-1.405520264302389,-0.8861354033099573,-1.6023886839496058,-3.1325960795031946
-0.8342874685870569,-2.3827689329730433,-1.4049800078021448,-0.888796631489889,-1.6023886839496058,-3.132548157368795
-0.8342636267291468,-2.3817623297320765,-1.4046443144427698,-0.8900321165667933,-1.602424446736471,-3.1326561609851282
-0.8342159430133265,-2.380768601094381,-1.4044044653521937,-0.891339127217428,-1.6023886839496058,-3.1325841585742396
-0.8342283407794397,-2.3798216024981897,-1.404128376637594,-0.8926580587970179,-1.602424446736471,-3.1326561609851282
-0.8342402617083948,-2.377869431172506,-1.4036005179034632,-0.8952840010272425,-1.6024006048785608,-3.1326561609851282
-0.8341682592975062,-2.3768513838397425,-1.4033125082599085,-0.8965428511248987,-1.602412525807516,-3.1327999273883265
-0.8341563383685511,-2.3759282271014612,-1.4030364195453089,-0.8979218641864222,-1.602412525807516,-3.1327160040484827
-0.8341801802264612,-2.374946419392721,-1.4027608076678675,-0.8992646376239222,-1.602436367665426,-3.1327040831195276
-0.8341563383685511,-2.3730419317828577,-1.4022329489337366,-0.9018061796771448,-1.602412525807516,-3.132763926182882
-0.8341801802264612,-2.372035805379049,-1.4019330183612269,-0.9030779043780726,-1.602412525807516,-3.1328118483172815
-0.8341801802264612,-2.3710768858539026,-1.4016926924334925,-0.904360596333639,-1.602424446736471,-3.132835928593771
-0.8341801802264612,-2.3700712362872522,-1.4014647642718714,-0.9055359999286097,-1.602436367665426,-3.132775847111837
-0.8341320196734827,-2.3681185881244105,-1.4008649031268519,-0.9080780188189905,-1.602424446736471,-3.132847849522726
-0.8340724150287073,-2.367112461720602,-1.400553051625387,-0.9093845526324671,-1.602424446736471,-3.1328237692462366
-0.8340724150287073,-2.3661535421954554,-1.4003132025348108,-0.9106195608722132,-1.6024482885943812,-3.1329317728625696
-0.8340724150287073,-2.365147415791647,-1.4000375906573694,-0.9118550459491175,-1.6024726072894495,-3.13288385072817
-0.8340485731707972,-2.3631232420550745,-1.3994973341571253,-0.91437274614443,-1.602436367665426,-3.132967774068014
-0.8340361754046839,-2.362129036580221,-1.3991854826556605,-0.9156320730792444,-1.6024726072894495,-3.1329196135150355
-0.8340004126178187,-2.361098591481344,-1.3988969961749476,-0.916938606892721,-1.6024482885943812,-3.133003536854879
-0.8340604940997522,-2.3600686232196253,-1.3986571470843714,-0.9182098547564905,-1.6024726072894495,-3.13295561472048
-0.8340361754046839,-2.3580201307879847,-1.3981054464923304,-0.9207881132708948,-1.6024845282184046,-3.1330395380603235
-0.8340242544757288,-2.356990162526266,-1.397757355366842,-0.9221184889422815,-1.6025083700763147,-3.1329317728625696
-0.8340123335467737,-2.355983559285299,-1.3974817434894007,-0.9234617392169397,-1.6024964491473597,-3.1330156962024134
-0.8340123335467737,-2.3550613562213343,-1.3971932570086878,-0.9246967474566858,-1.6025202910052698,-3.1330156962024134
-0.8340242544757288,-2.353049103413717,-1.39665395418276,-0.9273107687579554,-1.6025684515582483,-3.1330395380603235
-0.8339884916888636,-2.3520668188678187,-1.3964017073260706,-0.9286416212665003,-1.6025083700763147,-3.132967774068014
-0.8339403311358851,-2.3510964552508753,-1.3961499373065394,-0.9299123922931116,-1.6024964491473597,-3.132979694996969
-0.8338926474200647,-2.350114170704977,-1.3958619276629847,-0.9312198797809046,-1.602532211934225,-3.1330156962024134
-0.8338926474200647,-2.3481972853290003,-1.3953455130206507,-0.9338095823871058,-1.6025202910052698,-3.133099142705099
-0.8338444868670862,-2.3472750822650355,-1.3951056639300745,-0.9350326696978968,-1.6025202910052698,-3.133063618336813
-0.8338325659381312,-2.346292797719137,-1.394830052052633,-0.9363277594195765,-1.602532211934225,-3.1330156962024134
-0.8338206450091761,-2.3452985922442835,-1.3944700399981897,-0.9375265280352991,-1.6025202910052698,-3.133206907902853
-0.8337968031512659,-2.343382183705465,-1.3939664999591272,-0.9400208632098597,-1.60254413286318,-3.1331830660449427
-0.8338564077960413,-2.342435661946432,-1.3937137762652796,-0.9413278738604944,-1.6025083700763147,-3.133219067250387
-0.8338444868670862,-2.3414414564715784,-1.3933904806720179,-0.9426587263690394,-1.602556053792135,-3.1331470648394983
-0.8338206450091761,-2.340447250996725,-1.3931744734393519,-0.943941895161764,-1.6025202910052698,-3.133242909108297
-0.8337968031512659,-2.3386505285846155,-1.392562214528219,-0.9463399092303675,-1.6024964491473597,-3.1331949869738978
-0.8338206450091761,-2.3375967184649866,-1.3923586050616663,-0.9477189222918909,-1.6024964491473597,-3.1333027521716517
-0.8337724844561976,-2.3365662733661097,-1.3920701185809534,-0.9490259329425257,-1.60254413286318,-3.1332669893847864
-0.8337362448321741,-2.3356197516070765,-1.391806427632467,-0.9502370993243616,-1.60254413286318,-3.133230988179342
-0.8337724844561976,-2.333595101033346,-1.3912184874164026,-0.952850643788473,-1.602532211934225,-3.1331711451159876
-0.8337362448321741,-2.3325651327716272,-1.390954319630758,-0.9541218916522425,-1.6025202910052698,-3.1332908312426966
-0.8337481657611292,-2.3315470854388636,-1.3906543890582483,-0.9554169813739222,-1.602532211934225,-3.1332908312426966
-0.833712402974264,-2.33055287996401,-1.390390698109762,-0.9566753546344202,-1.602556053792135,-3.133242909108297
-0.8337004820453089,-2.328528706227438,-1.389838997517721,-0.9593494574176233,-1.6025083700763147,-3.1332669893847864
-0.8336642424212855,-2.327534023915426,-1.3895991484271448,-0.9605730215655726,-1.602532211934225,-3.133314911519186
-0.833712402974264,-2.326468292866842,-1.3893349806415003,-0.9619153181659144,-1.60254413286318,-3.1333988348590296
-0.8336404005633753,-2.3254979292498987,-1.3890588919269007,-0.9632943312274378,-1.6025684515582483,-3.133338753377096
-0.8336284796344202,-2.323521439229147,-1.3884947935687464,-0.9657285849200647,-1.60254413286318,-3.1334946791278284
-0.8336284796344202,-2.3225391546832483,-1.388219181691305,-0.9670475164996546,-1.60254413286318,-3.1334107557879847
-0.8335807959185999,-2.321544949208395,-1.3879912535296839,-0.9683187643634241,-1.602556053792135,-3.133434597645895
-0.8336523214923304,-2.320526901875631,-1.3876913229571741,-0.9694936911212366,-1.6025684515582483,-3.1334946791278284
-0.8336165587054651,-2.318538014088766,-1.3871153036700647,-0.9721196333514612,-1.602556053792135,-3.1335185209857386
-0.8335683981524866,-2.3176162878619593,-1.3868635336505335,-0.9734509626971644,-1.602532211934225,-3.1335304419146937
-0.8335683981524866,-2.3166216055499476,-1.386503044758932,-0.9746740500079554,-1.60254413286318,-3.1334825197802942
-0.8335326353656214,-2.3156517187701624,-1.3862631956683558,-0.9759324232684534,-1.6025083700763147,-3.1336379686938685
-0.8335207144366663,-2.3136752287494105,-1.38574725786318,-0.978546444569723,-1.602532211934225,-3.133566443120138
-0.8335564772235315,-2.312716309224264,-1.3854354063617151,-0.9797938505755823,-1.602556053792135,-3.133685890828268
-0.8335207144366663,-2.3117106596576136,-1.3851597944842737,-0.9811485449420374,-1.6025684515582483,-3.1336379686938685
-0.8335445562945765,-2.3106921354876917,-1.384883228932516,-0.9825037161456507,-1.60254413286318,-3.1336501280414026
-0.8334849516498011,-2.308728043233053,-1.3843076864825647,-0.9851415793048304,-1.60254413286318,-3.1336141268359583
-0.8334968725787562,-2.307709519063131,-1.3840192000018519,-0.9864485899554651,-1.602532211934225,-3.1337578932391565
-0.8334606329547327,-2.306643788014547,-1.3837435881244105,-0.9878037611590784,-1.60254413286318,-3.1337817350970667
-0.8334487120257776,-2.305697266255514,-1.3834555784808558,-0.9891341368304651,-1.6025202910052698,-3.1337459723102015
