youngblood1998/my_ws/src/ur5_platform/ur5_platform_manipulation/wzq/test4_13_5.csv
j0,j1,j2,j3,j4,j5
-1.0042575041400355,-2.596210304890768,-1.266984764729635,-0.8035090605365198,-1.584961239491598,-2.957461420689718
-1.0049169699298304,-2.596426312123434,-1.2666485945331019,-0.8036530653582972,-1.585092846547262,-2.956886355076925
-1.0055277983294886,-2.5965941588031214,-1.266324822102682,-0.8037970701800745,-1.5850089232074183,-2.956299606953756
-1.00612718263735,-2.5967496077166956,-1.265989128743307,-0.8039291540728968,-1.5849011580096644,-2.9556527773486536
-1.0067022482501429,-2.596881691609518,-1.265700642262594,-0.8041327635394495,-1.5850570837603968,-2.9550424257861536
-1.00781757036318,-2.597132984791891,-1.2650769392596644,-0.8044083754168909,-1.5849493185626429,-2.953940455113546
-1.0083444754229944,-2.5973127524005335,-1.2647765318499964,-0.8044560591327112,-1.5849130789386194,-2.9534016291247767
-1.008859936391012,-2.5974682013141077,-1.26451284090151,-0.8046482245074671,-1.584745232258932,-2.952874724064962
-1.0093987623797815,-2.597539726887838,-1.2642129103290003,-0.8048279921161097,-1.5848892370807093,-2.9523122946368616
-1.0103462378131312,-2.597815815602438,-1.263648811970846,-0.8051160017596644,-1.5847695509540003,-2.9513421694384974
-1.0108016172992151,-2.597959343587057,-1.263420883809225,-0.8051756064044397,-1.5849493185626429,-2.9507914225207728
-1.0112689177142542,-2.598067108784811,-1.2631328741656702,-0.8053792158709925,-1.5847814718829554,-2.950360361729757
-1.011712376271383,-2.5981629530536097,-1.2629049460040491,-0.805427376423971,-1.5848172346698206,-2.9499529043780726
-1.0125635305987757,-2.5983908812152308,-1.2624972502337855,-0.8055713812457483,-1.5846856276141565,-2.94913894334902
-1.0128992239581507,-2.5984748045550745,-1.262245003377096,-0.8056553045855921,-1.5848172346698206,-2.9486480394946497
-1.013282601033346,-2.5985825697528284,-1.2620294729815882,-0.8058350721942347,-1.584649387990133,-2.948348347340719
-1.013665501271383,-2.5987141768084925,-1.2617886702166956,-0.8058951536761683,-1.5846975485431116,-2.9479413668261927
-1.0144684950457972,-2.59885818163027,-1.2614172140704554,-0.806063477193014,-1.5845535437213343,-2.947138849888937
-1.0148046652423304,-2.598977867756979,-1.2612136046039026,-0.8062070051776331,-1.5847094694720667,-2.946780029927389
-1.0151642004596155,-2.5990737120257776,-1.2610695997821253,-0.8063390890704554,-1.584625546132223,-2.9464688936816614
-1.0154994169818323,-2.5991700331317347,-1.260853115712301,-0.8063867727862757,-1.5845416227923792,-2.946181122456686
-1.0160868803607386,-2.5993016401873987,-1.2605050245868128,-0.8066385428058069,-1.584517780934469,-2.945498530064718
-1.0164344946490687,-2.5993855635272425,-1.2603371779071253,-0.8068302313434046,-1.5845897833453577,-2.9451871554004114
-1.0167339483844202,-2.5994213263141077,-1.2601454893695276,-0.8068183104144495,-1.584625546132223,-2.94488770166506
-1.0170334021197718,-2.5995052496539515,-1.2600134054767054,-0.8069022337542933,-1.5844939390765589,-2.9445763270007532
-1.0175970236407679,-2.59957725206484,-1.2597735563861292,-0.8070104757892054,-1.5845654646502894,-2.9440014998065394
-1.0178244749652308,-2.5996249357806605,-1.2595933119403284,-0.8071540037738245,-1.5844820181476038,-2.943702284489767
-1.0180524031268519,-2.599708859120504,-1.2594612280475062,-0.8071301619159144,-1.5846617857562464,-2.943486992512838
-1.0183280150042933,-2.5997207800494593,-1.2593291441546839,-0.8072622458087366,-1.5844939390765589,-2.9433191458331507
-1.0188191572772425,-2.5998643080340784,-1.2590773741351526,-0.8074420134173792,-1.5846017042743128,-2.942888085042135
-1.018975083027975,-2.5998767058001917,-1.2589691321002405,-0.8072503248797815,-1.5844457785235804,-2.9426243940936487
-1.0191667715655726,-2.599924389516012,-1.2588613669024866,-0.8074658552752894,-1.5846017042743128,-2.94240910211672
-1.0193584601031702,-2.5999844709979456,-1.2587650457965296,-0.8073342482196253,-1.5844576994525355,-2.9422293345080774
-1.0196946302997034,-2.600032154713766,-1.2585976759540003,-0.8075616995440882,-1.5845654646502894,-2.9418581167804163
-1.019886318837301,-2.6001279989825647,-1.2585251967059534,-0.807321850453512,-1.5844100157367151,-2.9416783491717737
-1.019994084035055,-2.6000803152667444,-1.2584055105792444,-0.8076098600970667,-1.584505860005514,-2.9415586630450647
-1.0201380888568323,-2.6001279989825647,-1.258357350026266,-0.8074777762042444,-1.5844576994525355,-2.9415226618396204
-1.0202935377704065,-2.6001880804644983,-1.2582734266864222,-0.8076813856707972,-1.5845416227923792,-2.9412832895862024
-1.0204137007342737,-2.600152317677633,-1.258237663899557,-0.8075135389911097,-1.5843499342547815,-2.9412713686572474
-1.0204375425921839,-2.6002000013934534,-1.258237663899557,-0.8077891508685511,-1.5844457785235804,-2.9411638418780726
-1.0205572287188929,-2.6001761595355433,-1.2582734266864222,-0.8075497786151331,-1.5844100157367151,-2.9411278406726282
-1.0205333868609827,-2.6001880804644983,-1.2582133452044886,-0.807657543812887,-1.5844219366656702,-2.9410560766803187
-1.0204976240741175,-2.6002119223224085,-1.258261505757467,-0.8077295462237757,-1.5843022505389612,-2.941211525593893
-1.0204733053790491,-2.6002119223224085,-1.2583096663104456,-0.8076098600970667,-1.5843737761126917,-2.9411638418780726
-1.0204375425921839,-2.6002238432513636,-1.2582734266864222,-0.8077176252948206,-1.5843499342547815,-2.9411519209491175
-1.0204733053790491,-2.6001761595355433,-1.258237663899557,-0.8077295462237757,-1.5843380133258265,-2.941187922154562
-1.0204733053790491,-2.6001880804644983,-1.258261505757467,-0.8077176252948206,-1.5843380133258265,-2.941199843083517
-1.0204375425921839,-2.6002119223224085,-1.2582257429706019,-0.8076937834369105,-1.5843141714679163,-2.941187922154562
-1.020461384450094,-2.6002119223224085,-1.258237663899557,-0.8077057043658655,-1.5843499342547815,-2.9411638418780726
-1.0204733053790491,-2.6002000013934534,-1.258261505757467,-0.8077176252948206,-1.5843141714679163,-2.941199843083517
-1.0204375425921839,-2.6002000013934534,-1.2582853476153772,-0.8077533880816858,-1.5843022505389612,-2.9411757628070276
-1.0204733053790491,-2.6002000013934534,-1.258237663899557,-0.807777229939596,-1.5843141714679163,-2.941187922154562
-1.0204852263080042,-2.6001880804644983,-1.258261505757467,-0.8077176252948206,-1.584289852772848,-2.941211525593893
-1.0204733053790491,-2.600236241017477,-1.2582853476153772,-0.807777229939596,-1.5843141714679163,-2.9411757628070276
-1.020449463521139,-2.6001880804644983,-1.258237663899557,-0.8077653090106409,-1.5843380133258265,-2.941187922154562
-1.0204852263080042,-2.6002000013934534,-1.2582853476153772,-0.8078253904925745,-1.5843380133258265,-2.9411757628070276
-1.0204852263080042,-2.6002119223224085,-1.258249584828512,-0.8078015486346644,-1.5843022505389612,-2.9411757628070276
-1.0204852263080042,-2.6002238432513636,-1.2582257429706019,-0.8078253904925745,-1.5843260923968714,-2.941187922154562
-1.0204852263080042,-2.600248161946432,-1.2582257429706019,-0.8078373114215296,-1.5843380133258265,-2.9411638418780726
-1.0204733053790491,-2.6002000013934534,-1.258261505757467,-0.8078253904925745,-1.5843499342547815,-2.941199843083517
-1.0204852263080042,-2.6002238432513636,-1.2582257429706019,-0.8078373114215296,-1.5843260923968714,-2.941187922154562
-1.0204733053790491,-2.6002119223224085,-1.258249584828512,-0.8077533880816858,-1.5843380133258265,-2.9411519209491175
-1.020449463521139,-2.6002119223224085,-1.2582734266864222,-0.8077295462237757,-1.5843380133258265,-2.941211525593893
-1.0204256216632288,-2.6002000013934534,-1.2582853476153772,-0.8077176252948206,-1.5843141714679163,-2.941223446522848
-1.0203893820392054,-2.600248161946432,-1.2583454290973108,-0.8077295462237757,-1.5843618551837366,-2.9412713686572474
-1.0203054586993616,-2.6002238432513636,-1.2583335081683558,-0.8077057043658655,-1.5843856970416468,-2.941319290791647
-1.0201857725726526,-2.6002119223224085,-1.2584055105792444,-0.8076337019549769,-1.5843380133258265,-2.9414387384997767
-1.020125691090719,-2.6002238432513636,-1.2584417502032679,-0.8075736204730433,-1.5843618551837366,-2.941462818776266
-1.0200660864459437,-2.6001880804644983,-1.258453671132223,-0.8075736204730433,-1.5843022505389612,-2.94157058397402
-1.0198143164264124,-2.6001279989825647,-1.2586572805987757,-0.8074057737933558,-1.5843260923968714,-2.9417384306537073
-1.0196827093707483,-2.6001041571246546,-1.2586692015277308,-0.8075855414019983,-1.5843260923968714,-2.941906277333395
-1.0195024649249476,-2.6000922361956995,-1.258813206349508,-0.8072741667376917,-1.5843260923968714,-2.9419778029071253
-1.0193465391742151,-2.600020233784811,-1.2588971296893519,-0.8074896971331995,-1.5843499342547815,-2.9422412554370325
-1.018975083027975,-2.5999844709979456,-1.2591374556170862,-0.8072379271136683,-1.5843499342547815,-2.942672316228048
-1.0186994711505335,-2.599924389516012,-1.2592814604388636,-0.8074057737933558,-1.5843380133258265,-2.9429479281054896
-1.0184715429889124,-2.5998523871051233,-1.2593653837787073,-0.807070557271139,-1.5843380133258265,-2.943223301564352
-1.0182202498065394,-2.599816624318258,-1.2595213095294397,-0.8072503248797815,-1.5843499342547815,-2.9434390703784388
-1.0176332632647913,-2.5996606985675257,-1.2599051634417933,-0.8070462385760706,-1.5843380133258265,-2.9440134207354944
-1.0172975699054163,-2.5995290915118616,-1.2600615660296839,-0.8071664015399378,-1.5843618551837366,-2.9443965593921106
-1.0169737974749964,-2.599445645009176,-1.2601693312274378,-0.8068421522723597,-1.5844100157367151,-2.944780174885885
-1.0166142622577112,-2.599325482045309,-1.2603853384601038,-0.8070223967181605,-1.584505860005514,-2.9451032320605677
-1.0158589521991175,-2.599109951649801,-1.2607930342303675,-0.8067582289325159,-1.5845297018634241,-2.945822064076559
-1.0154874960528772,-2.5990379492389124,-1.261057202016012,-0.8066743055926722,-1.5845416227923792,-2.9462531248675745
-1.0150683561908167,-2.5989063421832483,-1.2612012068377894,-0.8064468542682093,-1.5844696203814905,-2.9467321077929896
-1.0146363417254847,-2.5987981001483362,-1.2615130583392542,-0.8064587751971644,-1.584637467061178,-2.947066847478048
-1.0137375036822718,-2.598522488270895,-1.2619693914996546,-0.806195084248678,-1.5846017042743128,-2.947965208684103
-1.0133183638202112,-2.598402802144186,-1.262245003377096,-0.8060391584979456,-1.5846017042743128,-2.9484203497516077
-1.0128510634051722,-2.598283116017477,-1.2625091711627405,-0.8059194723712366,-1.5845778624164026,-2.9488633314715784
-1.0123594442950647,-2.5981391111956995,-1.2627728621112269,-0.8057749907123011,-1.5846617857562464,-2.9493663946734827
-1.011376682912008,-2.597863499318258,-1.2633374373065394,-0.8055713812457483,-1.584637467061178,-2.9502764383899134
-1.0109332243548792,-2.597731892262594,-1.2635648886310022,-0.8053434530841272,-1.5846617857562464,-2.9507554213153284
-1.0103939215289515,-2.5975759665118616,-1.2638409773456019,-0.8053672949420374,-1.5846017042743128,-2.9512344042407435
-1.0099499861346644,-2.5974562803851526,-1.26416522661318,-0.805091683064596,-1.5847695509540003,-2.9517973105060022
-1.0089200178729456,-2.597156826649801,-1.264705006276266,-0.8048642317401331,-1.5846737066852015,-2.952838722859518
-1.0083807150470179,-2.5969889799701136,-1.2650650183307093,-0.8049119154559534,-1.5848053137408655,-2.9534135500537317
-1.0078652540790003,-2.5968335310565394,-1.265364948903219,-0.8046119848834437,-1.5846737066852015,-2.953916613255636
-1.007385555897848,-2.596677605305807,-1.2656529585467737,-0.8045161406146448,-1.5847933928119105,-2.9544315973864954
-1.0062592665301722,-2.596354309712545,-1.2662652174579065,-0.8041804472552698,-1.584745232258932,-2.9555330912219446
-1.0057075659381312,-2.596210304890768,-1.2666123549090784,-0.8039172331439417,-1.5849011580096644,-2.9561198393451136
-1.0051806608783167,-2.5960305372821253,-1.2668889204608362,-0.8038089911090296,-1.584853474293844,-2.956754509602682
-1.0045574347125452,-2.5958989302264612,-1.2672489325152796,-0.8036168257342737,-1.584841553364889,-2.957233492528097
-1.003406826649801,-2.595527474080221,-1.2678845564471644,-0.8032930533038538,-1.5848291555987757,-2.9583354632007044
-1.0027955214129847,-2.5953715483294886,-1.2682326475726526,-0.8032329718219202,-1.5849970022784632,-2.9589818159686487
-1.0021961371051233,-2.595203701649801,-1.268604580556051,-0.8029816786395472,-1.5848892370807093,-2.959616486226217
-1.001596752797262,-2.5950477758990687,-1.2689650694476526,-0.8028977552997034,-1.5849493185626429,-2.9602273146258753
-1.0003388563739222,-2.594712559376852,-1.2696965376483362,-0.8024418989764612,-1.5849493185626429,-2.9614368120776575
-0.9997032324420374,-2.594508473073141,-1.2700923124896448,-0.80219012895693,-1.5851410071002405,-2.962059561406271
-0.999091927205221,-2.594376866017477,-1.2703803221331995,-0.8020461241351526,-1.5850690046893519,-2.9627183119403284
-0.9984687010394495,-2.5941856543170374,-1.270752255116598,-0.8018668333636683,-1.5851290861712855,-2.963388744984762
-0.9971745649920862,-2.5938261190997522,-1.27150804201235,-0.8015311400042933,-1.5851290861712855,-2.9646218458758753
-0.9965274969684046,-2.593682114277975,-1.271844212208883,-0.8014348188983362,-1.5853446165667933,-2.9653165976153772
-0.9958441893206995,-2.5935261885272425,-1.2722881476031702,-0.8011105696307581,-1.5852368513690394,-2.966011349354879
-0.9951728026019495,-2.593323055897848,-1.2726481596576136,-0.8009551207171839,-1.585320774708883,-2.9666340986834925
-0.9937952200519007,-2.592987362538473,-1.2734163443194788,-0.8005955854998987,-1.5853565374957483,-2.968034807835714
-0.9930642286883753,-2.5928075949298304,-1.2738006750689905,-0.8003676573382776,-1.5855124632464808,-2.968705479298727
-0.9923566023456019,-2.5926159063922327,-1.2742322126971644,-0.8002355734454554,-1.5854046980487269,-2.9694481531726282
-0.9916136900531214,-2.592424217854635,-1.274616543446676,-0.7999838034259241,-1.585536305104391,-2.9701181093799036
-0.9901874701129358,-2.592052761708395,-1.2754200140582483,-0.799636189137594,-1.585536305104391,-2.9716034571277063
-0.9894326368915003,-2.591836754475729,-1.2758639494525355,-0.7994807402240198,-1.5856803099261683,-2.9723456541644495
-0.9886892477618616,-2.591621224080221,-1.276259724293844,-0.7992046515094202,-1.585548226033346,-2.9731598536120813
-0.9878981749164026,-2.5914300123797815,-1.2766922155963343,-0.7990129629718226,-1.5856922308551233,-2.9738546053515833
-0.9864123503314417,-2.591022316609518,-1.2775080839740198,-0.7985809485064905,-1.5856922308551233,-2.9753873983966272
-0.9856575171100062,-2.590794865285055,-1.2779877821551722,-0.7983892599688929,-1.5858238379107874,-2.976177755986349
-0.9848898092852991,-2.590566937123434,-1.2783835569964808,-0.798197094594137,-1.5857399145709437,-2.9769559542285364
-0.98407489458193,-2.5903871695147913,-1.278816048298971,-0.7980411688434046,-1.585871998463766,-2.9777584711657923
-0.9825652281390589,-2.5899437109576624,-1.2797277609454554,-0.797622028981344,-1.5858238379107874,-2.9793508688556116
-0.9817741552935999,-2.5897162596331995,-1.2801716963397425,-0.7973583380328577,-1.5859559218036097,-2.9801769892321985
-0.9809110800372522,-2.5895121733294886,-1.2806156317340296,-0.7971304098712366,-1.585883919392721,-2.981039587651388
-0.9801324049579065,-2.589320484791891,-1.2810714880572718,-0.7968786398517054,-1.585991684590475,-2.9818297068225306
-0.9785144964801233,-2.588865582142965,-1.2820075193988245,-0.7965067068683069,-1.5860279242144983,-2.983506504689352
-0.9776871840106409,-2.5886743704425257,-1.28247577348818,-0.7963150183307093,-1.586207691823141,-2.984356466923849
-0.9769323507892054,-2.5884464422809046,-1.2829554716693323,-0.7960751692401331,-1.5861237684832972,-2.985159222279684
-0.9760935942279261,-2.588254753743307,-1.2833994070636194,-0.7958591620074671,-1.5861714521991175,-2.9859848658191126
-0.974367920552389,-2.587823216115133,-1.2843712011920374,-0.7953556219684046,-1.5861957708941858,-2.987685505543844
-0.9735410849200647,-2.5876196066485804,-1.284851376210348,-0.7951043287860315,-1.58635121980776,-2.9885476271258753
-0.9727256933795374,-2.5873921553241175,-1.2853077093707483,-0.7949360052691858,-1.5863035360919397,-2.989433828984396
-0.971778694783346,-2.5871403853045862,-1.2857392469989222,-0.7946842352496546,-1.5863035360919397,-2.990271870289938
-0.9700053373919886,-2.586648766194479,-1.2868431250201624,-0.7941563765155237,-1.5863874594317835,-2.9920323530780237
-0.9690826574908655,-2.5863612333880823,-1.2873590628253382,-0.7938807646380823,-1.5865190664874476,-2.9929781595813196
-0.9681595007525843,-2.5861337820636194,-1.287875000630514,-0.7936409155475062,-1.5864713827716272,-2.9939244429217737
-0.9671409765826624,-2.585846249257223,-1.2884271780597132,-0.7933653036700647,-1.5865190664874476,-2.9949544111834925
-0.965151611958639,-2.585306946431295,-1.289591137562887,-0.7928617636310022,-1.5865190664874476,-2.9969657103167933
-0.9640849272357386,-2.585007969533102,-1.2901666800128382,-0.7926219145404261,-1.5867112318622034,-2.9980080763446253
-0.9629939238177698,-2.5847323576556605,-1.2908147017108362,-0.7922981421100062,-1.5866511503802698,-2.9991210142718714
-0.9618561903582972,-2.5843966642962855,-1.2914627234088343,-0.7919743696795862,-1.5866993109332483,-3.000246826802389
-0.9595311323748987,-2.5837133566485804,-1.2928426901446741,-0.7913745085345667,-1.586771313344137,-3.0025938192950647
-0.9583442846881312,-2.583353821431295,-1.2935264746295374,-0.7910631338702601,-1.5869510809527796,-3.0038514772998255
-0.9571335951434534,-2.5830066839801233,-1.2942464987384241,-0.79071551958193,-1.586890999470846,-3.0051210562335413
-0.9559114615069788,-2.5826590696917933,-1.294978443776266,-0.7903917471515101,-1.5870350042926233,-3.006401840840475
-0.9532988707171839,-2.581939999257223,-1.2964299360858362,-0.789708439503805,-1.587118927632467,-3.008965078984396
-0.9519928137408655,-2.581604782735006,-1.2971742788897913,-0.7893841902362269,-1.5872023741351526,-3.010293785725729
-0.950698200856344,-2.5811737219439905,-1.2979424635516565,-0.7890127340899866,-1.5871666113482874,-3.0116592089282435
-0.9493439833270472,-2.5808737913714808,-1.2986739317523401,-0.7886770407306116,-1.5873821417437952,-3.0130119959460657
-0.9466236273394983,-2.5801075140582483,-1.3002460638629358,-0.7879579702960413,-1.5874903837787073,-3.015778366719381
-0.9452336470233362,-2.5797718206988733,-1.3009894529925745,-0.787597958241598,-1.5874903837787073,-3.0171194712268274
-0.943855110798971,-2.579412285481588,-1.301661793385641,-0.787177864705221,-1.5875380674945276,-3.0185685793506067
-0.942477051411764,-2.5790050665484827,-1.3025019804583948,-0.7867825667010706,-1.587682072316305,-3.0199340025531214
-0.9397447744952601,-2.5783217589007776,-1.3040860334979456,-0.7861469427691858,-1.5877659956561487,-3.022735897694723
-0.9383786360370081,-2.5779388586627405,-1.3048175016986292,-0.7857874075519007,-1.5877779165851038,-3.024065081273214
-0.9370840231524866,-2.57754356065859,-1.3055971304522913,-0.7854159514056605,-1.5877898375140589,-3.025370184575216
-0.9357178846942347,-2.57721978822817,-1.3063653151141565,-0.7850082556353968,-1.5879457632647913,-3.026663843785421
-0.9330695311175745,-2.5764530340777796,-1.3078654448138636,-0.7843006292926233,-1.5879576841937464,-3.0292862097369593
-0.9318469206439417,-2.5760696570025843,-1.308561150227682,-0.7839654127704065,-1.58801776567568,-3.030531708394186
-0.9305408636676233,-2.575710121785299,-1.3093169371234339,-0.7835934797870081,-1.5879457632647913,-3.0318484942065638
-0.9292944113360804,-2.5754101912127894,-1.3099892775165003,-0.783233944569723,-1.588149372731344,-3.033058230076925
-0.9268139044391077,-2.5747397581683558,-1.3113330046283167,-0.7826097647296351,-1.5881732145892542,-3.035525385533468
-0.9256394545184534,-2.5744760672198694,-1.3119929472552698,-0.7823222319232386,-1.5881970564471644,-3.0367582480060022
-0.9244406859027308,-2.5741289297686976,-1.312676731740133,-0.7820103804217737,-1.5881732145892542,-3.038003985081808
-0.9232423941241663,-2.573828999196188,-1.313324276600973,-0.7816508452044886,-1.5884011427508753,-3.03921348253359
-0.9208577314959925,-2.5731938521014612,-1.3146446386920374,-0.781015698109762,-1.5884249846087855,-3.041680399571554
-0.9196713606463831,-2.5728705565081995,-1.3153169790851038,-0.7806914488421839,-1.5884130636798304,-3.042877737675802
-0.9185088316546839,-2.572583023701803,-1.316012207661764,-0.780379597340719,-1.5885809103595179,-3.044063393269674
-0.9172862211810511,-2.5722716490374964,-1.316672150288717,-0.780031983052389,-1.588604752217428,-3.045344654713766
-0.9149735609637659,-2.5716126600848597,-1.3180039564715784,-0.7794087568866175,-1.5887964407550257,-3.047739569340841
-0.9137867132769983,-2.5712531248675745,-1.318700138722555,-0.7791569868670862,-1.5887005964862269,-3.0489488283740442
-0.9126365820514124,-2.5709531942950647,-1.319360081349508,-0.7788212935077112,-1.5888922850238245,-3.0501466433154505
-0.911438290272848,-2.570594135914938,-1.32009202638735,-0.7784612814532679,-1.5888326803790491,-3.051368300114767
-0.9089334646808069,-2.569923226033346,-1.3214958349811,-0.777801815663473,-1.5889881292926233,-3.0538347403155726
-0.9077113310443323,-2.569563690816061,-1.322143856679098,-0.7774904409991663,-1.5891321341144007,-3.0550323168383997
-0.9064767996417444,-2.5692041555987757,-1.3228400389300745,-0.7771785894977015,-1.589167896901266,-3.056242052708761
-0.9052184263812464,-2.568868939076559,-1.323547665272848,-0.7768428961383265,-1.589179817830221,-3.0574873129474085
-0.9026778380023401,-2.568185631428854,-1.3250234762774866,-0.7760875860797327,-1.5892999807940882,-3.060014073048727
-0.9013956228839319,-2.567849938069479,-1.3256953398333948,-0.7757752577411097,-1.5894797484027308,-3.0612955729113978
-0.9000652472125452,-2.5675390402423304,-1.3264392058001917,-0.7754400412188929,-1.5894678274737757,-3.0626004377948206
-0.898783032094137,-2.567179505025045,-1.3272069136248987,-0.7750685850726526,-1.5894797484027308,-3.0639658609973353
-0.8961222807513636,-2.5665205160724085,-1.3286588827716272,-0.7743490378009241,-1.5895636717425745,-3.0666006247149866
-0.8948167006122034,-2.566209141408102,-1.3294032255755823,-0.7739651838885706,-1.589731518422262,-3.067953650151388
-0.8934863249408167,-2.5658133665667933,-1.3301590124713343,-0.7736170927630823,-1.5896957556353968,-3.069270674382345
-0.8922160307513636,-2.5654781500445765,-1.3309748808490198,-0.7732456366168421,-1.5897915999041956,-3.0705881754504603
-0.889508072529928,-2.564759079610006,-1.3324626127826136,-0.7725499312030237,-1.5897558371173304,-3.073186699544088
-0.8882134596454065,-2.564375702534811,-1.3332188765155237,-0.7722147146808069,-1.589947525654928,-3.0745280424701136
-0.8868592421161097,-2.564040486012594,-1.3339741865741175,-0.7718785444842737,-1.5899232069598597,-3.0757976214038294
-0.8855651060687464,-2.563669029866354,-1.3347066084491175,-0.7714708487140101,-1.5898993651019495,-3.0771504084216517
-0.88300067583193,-2.562986199055807,-1.3361461798297327,-0.7707398573504847,-1.5899832884417933,-3.0797370115863245
-0.8816464583026331,-2.5626147429095667,-1.3368781248675745,-0.7704523245440882,-1.590186897908346,-3.0811026732074183
-0.8803880850421351,-2.5622428099261683,-1.3375981489764612,-0.7700560728656214,-1.590186897908346,-3.082383457814352
-0.8790462652789515,-2.561955277119772,-1.3382576147662562,-0.7697084585772913,-1.590186897908346,-3.083712879811422
-0.8764689604388636,-2.5612972418414515,-1.3397215048419397,-0.7690609137164515,-1.5903070608722132,-3.086275641118185
-0.8751872221576136,-2.5609496275531214,-1.3404176870929163,-0.7687371412860315,-1.5904386679278772,-3.0875332991229456
-0.8739288488971155,-2.5606258551227015,-1.341125790272848,-0.76843768755068,-1.5904625097857874,-3.088790480290548
-0.8726704756366175,-2.5602901617633265,-1.3418214956866663,-0.7680657545672815,-1.5905583540545862,-3.0901196638690394
-0.8702500502215784,-2.559643093739645,-1.3432734648333948,-0.7673705259906214,-1.5906184355365198,-3.092550818120138
-0.8689792791949671,-2.559319798146383,-1.3439810911761683,-0.7670825163470667,-1.590846363698141,-3.093760077153341
-0.8677213827716272,-2.558996025715963,-1.3446648756610315,-0.7667229811297815,-1.5907381216632288,-3.0949814955340784
-0.8665111700641077,-2.558613125477926,-1.3453848997699183,-0.7663396040545862,-1.5909541288958948,-3.096203152333395
-0.8640545050250452,-2.557930294667379,-1.3467887083636683,-0.765655819569723,-1.5910499731646937,-3.0986462275134485
-0.8628204504596155,-2.557558838521139,-1.347497288380758,-0.7654283682452601,-1.5911219755755823,-3.099891249333517
-0.8615978399859827,-2.557223145161764,-1.3482044378863733,-0.7650921980487269,-1.5910137335406702,-3.1011608282672327
-0.8603633085833948,-2.556875530873434,-1.3488286177264612,-0.7647808233844202,-1.5911815802203577,-3.102382485066549
-0.8579667250262659,-2.556204620991842,-1.3502686659442347,-0.7640374342547815,-1.5912178198443812,-3.1049330870257776
-0.8566725889789026,-2.5559051672564905,-1.350964371358053,-0.7637255827533167,-1.5912774244891565,-3.1061905066119593
-0.855438534413473,-2.5555694738971155,-1.3516362349139612,-0.7634137312518519,-1.591205898915426,-3.1074236075030726
-0.8541801611529749,-2.555246655141012,-1.3524044195758265,-0.7630537191974085,-1.5913975874530237,-3.108765188847677
-0.8517354170428675,-2.554551426564352,-1.35378343263735,-0.7623942534076136,-1.5913975874530237,-3.1112800280200403
-0.850525204335348,-2.554240051900045,-1.35453969637026,-0.7620709578143519,-1.5915291945086878,-3.112525288258688
-0.8492310682879847,-2.55390435854067,-1.3552477995501917,-0.761759106312887,-1.5914934317218226,-3.1137948671924036
-0.8479965368853968,-2.553544823323385,-1.3560035864459437,-0.7614358107196253,-1.5915411154376429,-3.1150522867785853
-0.8454564253436487,-2.5528977552997034,-1.3574555555926722,-0.7607396284686487,-1.5915892759906214,-3.1175432840930384
-0.8442338148700159,-2.552598301564352,-1.358199421559469,-0.760416332875387,-1.5917452017413538,-3.118788782750265
-0.8429635206805628,-2.5522034803973597,-1.3588951269732874,-0.760115925465719,-1.59166127840151,-3.120009724293844
-0.8417652289019983,-2.5518677870379847,-1.3595908323871058,-0.7597926298724573,-1.5917089621173304,-3.121315304433004
-0.8392365614520472,-2.5511725584613245,-1.3610671202289026,-0.7590850035296839,-1.591780964528219,-3.1238179842578333
-0.8379781881915491,-2.550789181386129,-1.3617985884295862,-0.7586777845965784,-1.5919368902789515,-3.1251235643969935
-0.8367083708392542,-2.5504539648639124,-1.3625310103045862,-0.758437458668844,-1.5919249693499964,-3.126524273549215
-0.8354023138629358,-2.5501063505755823,-1.3632386366473597,-0.7580660025226038,-1.5920208136187952,-3.127793852482931
-0.8328493277179163,-2.5494354406939905,-1.3646305243121546,-0.7573707739459437,-1.5921404997455042,-3.130380455647604
-0.8315795103656214,-2.54904014268984,-1.365350071583883,-0.7570350805865687,-1.592367951069967,-3.131686035786764
-0.8303330580340784,-2.5487526098834437,-1.366082493458883,-0.756758991871969,-1.592248264943258,-3.1330276171313685
-0.8290513197528284,-2.5483811537372034,-1.3667781988727015,-0.7564352194415491,-1.5924881140338343,-3.1342604796039026
-0.8265226523028772,-2.547734085713522,-1.36823016801943,-0.755739990864889,-1.5925477186786097,-3.1368711630450647
-0.8251803557025355,-2.54738694826235,-1.3689377943622034,-0.7553799788104456,-1.5926678816424769,-3.138092819844381
-0.8238986174212855,-2.54706317583193,-1.369645897542135,-0.7550447622882288,-1.5926197210894983,-3.1394222418414515
-0.822615925465719,-2.546704117451803,-1.3703778425799769,-0.754732910786764,-1.5928600470172327,-3.140691582356588
-0.8201354185687464,-2.545936886464254,-1.371793572102682,-0.7540252844439905,-1.5928719679461878,-3.1432064215289515
-0.8188775221454065,-2.5456016699420374,-1.3725011984454554,-0.753641430531637,-1.5929439703570765,-3.1444760004626673
-0.8176429907428187,-2.5451939741717737,-1.373221222554342,-0.7533538977252405,-1.5928838888751429,-3.1458171049701136
-0.8163850943194788,-2.5448229948626917,-1.3738811651812952,-0.7529581228839319,-1.5930874983416956,-3.1471105257617396
-0.8138206640826624,-2.5441520849811,-1.3752968947040003,-0.7522509733783167,-1.5930994192706507,-3.1495893637286585
-0.8125622908221644,-2.5437925497638147,-1.3760164419757288,-0.7519148031817835,-1.5931833426104944,-3.150835100804464
-0.8112800757037562,-2.543468777333395,-1.3767007032977503,-0.751627270375387,-1.5931113401996058,-3.1520803610431116
-0.8100460211383265,-2.5431092421161097,-1.3773368040667933,-0.7512796560870569,-1.5933154265033167,-3.15330154100527
-0.8075655142413538,-2.5424626509295862,-1.378824536000387,-0.7505839506732386,-1.593351189290182,-3.1558645407306116
-0.806307617818014,-2.542115036641256,-1.379484001790182,-0.7502124945269983,-1.5934951941119593,-3.1570499579059046
-0.8050130049334925,-2.5418155829059046,-1.3801921049701136,-0.7499130407916468,-1.593351189290182,-3.1583076159106653
-0.8037427107440394,-2.541492287312643,-1.3809483687030237,-0.7495887915240687,-1.5935309568988245,-3.159553114567892
-0.8012145201312464,-2.5407851378070276,-1.3823159376727503,-0.7489178816424769,-1.5936029593097132,-3.1621158758746546
-0.7999799887286585,-2.5405095259295862,-1.3830598036395472,-0.7485578695880335,-1.593686882649557,-3.163325611745016
-0.7987340132342737,-2.540126148854391,-1.3837435881244105,-0.748270336781637,-1.5936506430255335,-3.1646304766284388
-0.7974637190448206,-2.539790932332174,-1.3844755331622522,-0.7479465643512171,-1.593818489705221,-3.1659119764911097
-0.7949469725238245,-2.5391438643084925,-1.3858073393451136,-0.7472627798663538,-1.5938904921161097,-3.168438736592428
-0.7936771551715296,-2.538760487233297,-1.3865392843829554,-0.746962849293844,-1.5938904921161097,-3.169744316731588
-0.792455021535055,-2.5384371916400355,-1.3872712294207972,-0.7465913931476038,-1.5939744154559534,-3.1710618177997034
-0.7911966482745569,-2.5380776564227503,-1.388003174458639,-0.7462318579303187,-1.5940821806537073,-3.1722829977618616
-0.7887285391436976,-2.5374305883990687,-1.389418903981344,-0.7455003897296351,-1.5942381064044397,-3.1748698393451136
-0.7875059286700647,-2.5370829741107386,-1.3901384512530726,-0.7451642195331019,-1.5941780249225062,-3.176127258931295
-0.7862122694598597,-2.536747757588522,-1.3908346335040491,-0.7448647657977503,-1.5943577925311487,-3.177361075078146
-0.785013500844137,-2.5364602247821253,-1.3916142622577112,-0.7446249167071741,-1.5943458716021937,-3.1786063353167933
-0.7824371496783655,-2.5358131567584437,-1.3931024710284632,-0.7439053694354456,-1.5944655577289026,-3.181085173283712
-0.7811673323260706,-2.5354536215411585,-1.39384633699526,-0.7435219923602503,-1.5944178740130823,-3.182366673146383
-0.7799328009234827,-2.535154167805807,-1.3945420424090784,-0.7431743780719202,-1.5945857206927698,-3.1836357752429407
-0.778698746358053,-2.5347588698016565,-1.3953335920916956,-0.7428262869464319,-1.594477955495016,-3.184929434453146
-0.7761705557452601,-2.5340879599200647,-1.3967374006854456,-0.7421672979937952,-1.5946815649615687,-3.187540117894308
-0.7749002615558069,-2.5337284247027796,-1.3974459807025355,-0.7418316046344202,-1.594621483479635,-3.188845698033468
-0.7736542860614222,-2.533321205769674,-1.3981650511371058,-0.7414835135089319,-1.5948012510882776,-3.190138880406515
-0.7723601500140589,-2.532973591481344,-1.3988493124591272,-0.7411478201495569,-1.5946934858905237,-3.1913962999926966
-0.7698200384723108,-2.5322426001178187,-1.4002774397479456,-0.7404044310199183,-1.5948851744281214,-3.194042984639303
-0.7685611883746546,-2.531919304524557,-1.4009612242328089,-0.7400568167315882,-1.5948732534991663,-3.1953006426440638
-0.7673032919513147,-2.531571690236227,-1.4016807715045374,-0.7397092024432581,-1.5950291792498987,-3.1965697447406214
-0.7660449186908167,-2.531200710927145,-1.402400318776266,-0.7394455114947718,-1.5949090162860315,-3.197791401539938
-0.7634928862201136,-2.530541721974508,-1.4038165251361292,-0.7387259642230433,-1.595076862965719,-3.2003896872149866
-0.7621749083148401,-2.5302422682391565,-1.404548470173971,-0.7383902708636683,-1.5951607863055628,-3.201623503361837
-0.7608926931964319,-2.5299184958087366,-1.4052684942828577,-0.7380664984332483,-1.5952447096454065,-3.202893082295553
-0.7595985571490687,-2.529595200215475,-1.4059999624835413,-0.7377784887896937,-1.5952327887164515,-3.2041502634631556
-0.7570822874652308,-2.52893573442568,-1.4074042479144495,-0.7371071020709437,-1.5953286329852503,-3.206689421330587
-0.7557881514178675,-2.5285771528827112,-1.408111874257223,-0.7366755644427698,-1.595520321522848,-3.207982603703634
-0.7545421759234827,-2.5282414595233362,-1.4087961355792444,-0.736363712941305,-1.595520321522848,-3.2093120257007044
-0.7532356421100062,-2.5279181639300745,-1.409527603779928,-0.7360642592059534,-1.5955684820758265,-3.210545603428976
-0.7507551352130335,-2.5272348562823694,-1.4109070936786097,-0.7353928724872034,-1.5956881682025355,-3.213060442601339
-0.7494853178607386,-2.5268753210650843,-1.4116271177874964,-0.7350452581988733,-1.5959041754352015,-3.2143181006061
-0.7482388655291956,-2.526515785847799,-1.412347141896383,-0.73468524614443,-1.5958197752581995,-3.2155633608447474
-0.7469690481769007,-2.5261924902545374,-1.413006607686178,-0.7343614737140101,-1.5960243383990687,-3.2167850176440638
-0.744488541279928,-2.5255096594439905,-1.414398495350973,-0.7337020079242151,-1.596083943043844,-3.2192521731006067
-0.7432182470904749,-2.525186363850729,-1.4151786009417933,-0.7333300749408167,-1.5961321035968226,-3.2205093542682093
-0.7419722715960901,-2.5248387495623987,-1.4158623854266565,-0.7329466978656214,-1.5960958639727991,-3.221755091344015
-0.740701977406637,-2.524514977131979,-1.4166424910174769,-0.7326353232013147,-1.59629995027651,-3.223036591206686
-0.738173786793844,-2.523844544087545,-1.4180462996112269,-0.7319272200213831,-1.5963237921344202,-3.2255874315844935
-0.7369039694415491,-2.52346116701235,-1.4188140074359339,-0.7315438429461878,-1.5963595549212855,-3.2268453280078333
-0.7355855146991175,-2.523137871419088,-1.419581715260641,-0.7312081495868128,-1.5963476339923304,-3.2281625906573694
-0.734255615864889,-2.522802178059713,-1.4203255812274378,-0.7308843771563929,-1.596551243458883,-3.229503933583395
-0.7316916624652308,-2.522118870412008,-1.4218013922320765,-0.7302606741534632,-1.596551243458883,-3.2321985403644007
-0.7303736845599573,-2.5217717329608362,-1.4225333372699183,-0.7298768202411097,-1.596647087727682,-3.2335036436664026
-0.7291396299945276,-2.521412197743551,-1.4232772032367151,-0.7295172850238245,-1.5965994040118616,-3.2347732226001185
-0.7278574148761194,-2.5210288206683558,-1.4239609877215784,-0.7291939894305628,-1.5967910925494593,-3.2360904852496546
-0.7252572218524378,-2.5202983061419886,-1.425436798726217,-0.7285102049456995,-1.5968030134784144,-3.2386775652514856
-0.7240231672870081,-2.5199268499957483,-1.4261568228351038,-0.7281745115863245,-1.596875015889303,-3.2399588266955774
-0.7227290312396448,-2.519555393849508,-1.4268644491778772,-0.7278388182269495,-1.5968511740313929,-3.2412284056292933
-0.7214468161212366,-2.519172016774313,-1.4275725523578089,-0.727454964314596,-1.5970667044269007,-3.2425218264209192
-0.7189543882953089,-2.5185368696795862,-1.4289878050433558,-0.7268555800067347,-1.5971387068377894,-3.245000664387838
-0.7176726500140589,-2.518189255391256,-1.4296839872943323,-0.7265084425555628,-1.5970905462848108,-3.246258322392599
-0.7164619604693812,-2.5178540388690394,-1.4304640928851526,-0.7261002699481409,-1.5971744696246546,-3.2474799791919153
-0.7152403036700647,-2.5175188223468226,-1.4311240355121058,-0.7258246580706995,-1.597330395375387,-3.248749081288473
-0.7127955595599573,-2.5169079939471644,-1.4325035254107874,-0.7251890341388147,-1.597438160573141,-3.2512639204608362
-0.7115615049945276,-2.5165842215167444,-1.433223072682516,-0.7248175779925745,-1.5973785559283655,-3.2524736563311976
-0.7103398481952112,-2.516272846852438,-1.4339068571673792,-0.7244580427752894,-1.5975821653949183,-3.25368315378298
-0.7091530005084437,-2.5159252325641077,-1.4345667997943323,-0.7242301146136683,-1.5974863211261194,-3.2549052874194544
-0.706756893788473,-2.5152538458453577,-1.4358986059771937,-0.7236421743976038,-1.5976060072528284,-3.2574201265918177
-0.7055705229388636,-2.514918629323141,-1.4365704695331019,-0.7232945601092737,-1.5977256933795374,-3.2586057821856897
-0.7043727079974573,-2.514571491871969,-1.43724233308901,-0.7229469458209437,-1.5978096167193812,-3.259803358708517
-0.7031500975238245,-2.5142601172076624,-1.437878433858053,-0.7225750128375452,-1.597773853932516,-3.2610486189471644
-0.7007415930377405,-2.5135648886310022,-1.4392340818988245,-0.7220118681537073,-1.597893540059225,-3.263455931340353
-0.699508015309469,-2.5132291952716272,-1.4399297873126429,-0.7216399351703089,-1.5980256239520472,-3.26462966600527
-0.6983211676227015,-2.5128939787494105,-1.4406140486346644,-0.721316162739889,-1.598013703023092,-3.2658754030810755
-0.6970995108233851,-2.5125940481769007,-1.441345516835348,-0.7209208647357386,-1.5979893843280237,-3.2670965830432337
-0.6946428457843226,-2.5119479338275355,-1.4427254835711878,-0.7203448454486292,-1.5980494658099573,-3.2695518175708216
-0.6934564749347132,-2.511648480092184,-1.443385426198141,-0.7200453917132776,-1.5981810728656214,-3.2708571592914026
-0.6922586599933069,-2.511300865803854,-1.4440572897540491,-0.7196858564959925,-1.59825307527651,-3.272102657948629
-0.6910126844989222,-2.511000935231344,-1.444801155720846,-0.719302002583639,-1.5981453100787562,-3.2733362356769007
-0.6885564962970179,-2.5103300253497522,-1.4461925665484827,-0.7186902205096644,-1.5983250776873987,-3.275815550480978
-0.6872862021075647,-2.5099948088275355,-1.4469364325152796,-0.7183907667743128,-1.598360840474264,-3.276989285145895
-0.6860521475421351,-2.5096352736102503,-1.4475844542132776,-0.7179949919330042,-1.598469082509176,-3.2782228628741663
-0.6848896185504358,-2.5093238989459437,-1.448280159627096,-0.717623535786764,-1.5983970800982874,-3.2793846766101282
-0.6824458281146448,-2.508676830922262,-1.4496243635760706,-0.7170599142657679,-1.5985048452960413,-3.2818034330951136
-0.6812956968890589,-2.5082934538470667,-1.4503558317767542,-0.7167838255511683,-1.5985530058490198,-3.2828813234912317
-0.680157486592428,-2.5080063978778284,-1.4510157744037073,-0.7164600531207483,-1.5987327734576624,-3.2840431372271937
-0.679018799458639,-2.5076707045184534,-1.4516876379596155,-0.7161129156695765,-1.5986488501178187,-3.2851927916156214
-0.6767781416522425,-2.507035557423727,-1.4529593626605433,-0.715524975453512,-1.598804775868551,-3.287480179463522
-0.6756880919085901,-2.5067604223834437,-1.4535592238055628,-0.7152612845050257,-1.5988767782794397,-3.2885823885547083
-0.6746214071856897,-2.506472412739889,-1.4541352430926722,-0.714973274861471,-1.5990203062640589,-3.289588276539938
-0.6736152807818812,-2.5061968008624476,-1.4547589460956019,-0.7146976629840296,-1.598912541066305,-3.290678087865011
-0.6716139952289026,-2.505657974873678,-1.4558747450457972,-0.7141459623919886,-1.5990684668170374,-3.2927618662463587
-0.6706674734698694,-2.50544244447817,-1.4564626852618616,-0.7138703505145472,-1.5992000738727015,-3.293731991444723
-0.6697209517108362,-2.505214516316549,-1.4569547812091272,-0.7136309782611292,-1.5992243925677698,-3.294570509587423
-0.6688583532916468,-2.5050466696368616,-1.457470719014303,-0.7134512106524866,-1.599140469227926,-3.295516554509298
-0.6672051588641565,-2.5045793692218226,-1.4583223501788538,-0.7130311171161097,-1.599260155354635,-3.2972410360919397
-0.6664136091815394,-2.504387680684225,-1.4588139692889612,-0.7127793470965784,-1.599379841481344,-3.297995392476217
-0.6656711737262171,-2.5041478315936487,-1.459222141896383,-0.7124674955951136,-1.5994399229632776,-3.298797909413473
-0.6649764219867151,-2.5039804617511194,-1.4596298376666468,-0.7123478094684046,-1.599367920552389,-3.299505058919088
-0.6635740439044397,-2.5035856405841272,-1.4603856245623987,-0.711952034627096,-1.5994880835162562,-3.3009780089007776
-0.6628916899310511,-2.5033939520465296,-1.4607575575457972,-0.71173602739443,-1.5994637648211878,-3.301600758229391
-0.6622446219073694,-2.5031660238849085,-1.4611056486712855,-0.7115805784808558,-1.5996678511248987,-3.3023069540606897
-0.6615374724017542,-2.5030463377581995,-1.461489502583639,-0.7113764921771448,-1.5995476881610315,-3.302905861531393
-0.6602914969073694,-2.502650562916891,-1.4621976057635706,-0.7109687964068812,-1.599715534840719,-3.3042474428759974
-0.659668270741598,-2.5024707953082483,-1.4625814596759241,-0.710825268422262,-1.5996077696429651,-3.3048341909991663
-0.6589978376971644,-2.502315346394674,-1.4628813902484339,-0.7106569449054163,-1.5998113791095179,-3.30552846590151
-0.6576913038836878,-2.5019434134112757,-1.4635770956622522,-0.7103450934039515,-1.599703613911764,-3.3067620436297815
-0.6571043173419397,-2.5018237272845667,-1.4639247099505823,-0.710273567830221,-1.5998595396624964,-3.307408873234884
-0.6565173308001917,-2.5016325155841272,-1.4642851988421839,-0.7101176420794886,-1.5997756163226526,-3.3080316225634974
-0.6558225790606897,-2.5014527479754847,-1.464644734059469,-0.7099860350238245,-1.5998356978045862,-3.3086546103106897
-0.6552351156817835,-2.5012972990619105,-1.4649928251849573,-0.7098057905780237,-1.5999191443072718,-3.309301201497213
-0.6539056936847132,-2.5009616057025355,-1.4657605330096644,-0.709386173878805,-1.6000030676471155,-3.310546938573019
-0.6532586256610315,-2.500769917164938,-1.466121021901266,-0.7091706434832972,-1.5999673048602503,-3.3113015333758753
-0.6525872389422815,-2.5006139914142054,-1.466492001210348,-0.708954159413473,-1.5999911467181605,-3.311960283909933
-0.6519401709185999,-2.500458542500631,-1.4668524901019495,-0.7088225523578089,-1.6001351515399378,-3.312666718159811
-0.6505745092975062,-2.5000746885882776,-1.4676802794085901,-0.7084391752826136,-1.6000750700580042,-3.31409198442568
-0.6498916784869593,-2.49988300005068,-1.4680522123919886,-0.7082708517657679,-1.6001351515399378,-3.314822260533468
-0.6492684523211878,-2.499739472066061,-1.468412224446432,-0.7080910841571253,-1.6000154654132288,-3.3154929319964808
-0.6485379377948206,-2.499535862599508,-1.4688199202166956,-0.7079113165484827,-1.600158993397848,-3.316211764012472
-0.6471717993365687,-2.499188248311178,-1.4695399443255823,-0.7074921766864222,-1.6001470724688929,-3.317528788243429
-0.6465008894549769,-2.499044720326559,-1.469935719166891,-0.7073362509356897,-1.6002910772906702,-3.3181999365436
-0.6458419005023401,-2.4988887945758265,-1.4703314940081995,-0.7071202437030237,-1.6001470724688929,-3.318918768559591
-0.6451590696917933,-2.4986489454852503,-1.4706915060626429,-0.7070000807391565,-1.6002548376666468,-3.319589440022604
-0.6438644568072718,-2.4982898871051233,-1.47145921388735,-0.7066882292376917,-1.6002667585956019,-3.3208466211902063
-0.6432059446917933,-2.4980981985675257,-1.471795384083883,-0.7065685431109827,-1.6004827658282679,-3.321505371724264
-0.64258319536318,-2.4979422728167933,-1.4721673170672815,-0.7064126173602503,-1.6003626028644007,-3.322080198918478
-0.6419957319842737,-2.4977267424212855,-1.472527329121725,-0.7063048521624964,-1.6004584471331995,-3.3227630297290247
-0.6407859961139124,-2.497439209614889,-1.473199192677633,-0.7059810797320765,-1.6004465262042444,-3.323864761983053
-0.6402223745929163,-2.49731952348818,-1.4734748045550745,-0.7057412306415003,-1.6006024519549769,-3.3244755903827112
-0.6396239439593714,-2.4971159140216272,-1.4737866560565394,-0.7056334654437464,-1.6006506125079554,-3.32506233850588
-0.6390960852252405,-2.496983830128805,-1.4741104284869593,-0.7053936163531702,-1.6006024519549769,-3.325625244771139
-0.6380417982684534,-2.496720616017477,-1.4746869246112269,-0.7051180044757288,-1.600638214741842,-3.326691452656881
-0.6375387350665491,-2.4965766111956995,-1.4750226179706019,-0.7051299254046839,-1.6007221380816858,-3.327170435582296
-0.6370113531695765,-2.496396843587057,-1.475274387990133,-0.7048781553851526,-1.6007583777057093,-3.327601496373312
-0.6365321318255823,-2.496289078389303,-1.4755623976336878,-0.7048900763141077,-1.6006744543658655,-3.32818848291506
-0.6356218496905726,-2.496037308369772,-1.4760425726519983,-0.7046378294574183,-1.6007102171527308,-3.329026524220602
-0.6352503935443323,-2.4958937803851526,-1.4763062636004847,-0.7044938246356409,-1.6007702986346644,-3.3294697443591517
-0.6347950140582483,-2.4957860151873987,-1.4765103499041956,-0.7043622175799769,-1.600842301045553,-3.329973045979635
-0.6344359556781214,-2.4956663290606897,-1.4767745176898401,-0.7042425314532679,-1.6007583777057093,-3.3303561846362513
-0.6336329619037073,-2.4954989592181605,-1.4772418181048792,-0.7040265242206019,-1.6007822195636194,-3.331074301396505
-0.6332371870623987,-2.4953787962542933,-1.477433983479635,-0.7038586775409144,-1.6009262243853968,-3.3314579168902796
-0.6328781286822718,-2.4952591101275843,-1.477626148854391,-0.7038229147540491,-1.600961987172262,-3.3319008986102503
-0.6325066725360315,-2.4951751867877405,-1.4778178373919886,-0.7036193052874964,-1.6008661429034632,-3.332248036061422
-0.6318357626544397,-2.494983498250143,-1.4782374540912073,-0.7036431471454065,-1.6009019056903284,-3.332930866871969
-0.6314762274371546,-2.4949234167682093,-1.4784539381610315,-0.7034509817706507,-1.600950066243307,-3.3333023230182093
-0.6311410109149378,-2.4948275724994105,-1.4785617033587855,-0.7035711447345179,-1.601069752370016,-3.3336618582354944
-0.630841080342428,-2.4947436491595667,-1.4788253943072718,-0.7033909002887171,-1.6009381453143519,-3.333961073552267
-0.6302660147296351,-2.4946001211749476,-1.4791134039508265,-0.7033551375018519,-1.6009977499591272,-3.3344879786120813
-0.6300023237811487,-2.494540039693014,-1.479269806538717,-0.703247372304098,-1.601081673298971,-3.3347635904895228
-0.6297271887408655,-2.49445611635317,-1.4794495741473597,-0.7031753698932093,-1.6011179129229944,-3.335062805806295
-0.6294634977923792,-2.4943960348712366,-1.4796298185931605,-0.7031753698932093,-1.600973908101217,-3.3353264967547815
-0.62897235551943,-2.4942405859576624,-1.479929272328512,-0.7030676046954554,-1.6011298338519495,-3.3357816378222864
-0.6287086645709437,-2.4942286650287073,-1.480013672505514,-0.7028277556048792,-1.601093594227926,-3.3360093275653284
-0.6284692923175257,-2.4941685835467737,-1.4801815191852015,-0.7029598394977015,-1.6012256781207483,-3.336224619542257
-0.6282528082477015,-2.494120422993795,-1.4802892843829554,-0.7027319113360804,-1.6011059919940394,-3.336440388356344
-0.6278699080096644,-2.4940364996539515,-1.4805052916156214,-0.7025278250323694,-1.6012018362628382,-3.3368595282184046
-0.6276782194720667,-2.493988815938131,-1.4806135336505335,-0.7027080694781702,-1.6011298338519495,-3.3370748201953333
-0.6275222937213343,-2.4940007368670862,-1.4807212988482874,-0.7024319807635706,-1.6012375990497034,-3.3372305075274866
-0.6273425261126917,-2.4939287344561976,-1.4808052221881312,-0.7025159041034144,-1.601189915333883,-3.3373263517962855
-0.6270907560931605,-2.4938810507403772,-1.480985466633932,-0.7023599783526819,-1.601297680531637,-3.337626043950216
-0.6269834677325647,-2.493844811116354,-1.480997387562887,-0.7023361364947718,-1.6011655966388147,-3.337626043950216
-0.6269353071795862,-2.4938090483294886,-1.4810689131366175,-0.702155892048971,-1.6012614409076136,-3.3378053347217005
-0.6268037001239222,-2.4937971274005335,-1.481128994618551,-0.7023118177997034,-1.6012495199786585,-3.3378294149981897
-0.6266840139972132,-2.493748966847555,-1.4811409155475062,-0.7023242155658167,-1.6013453642474573,-3.337961260472433
-0.6266840139972132,-2.493725124989645,-1.4811528364764612,-0.7020600477801722,-1.6012614409076136,-3.337973181401388
-0.6266840139972132,-2.4937370459186,-1.481117073689596,-0.7022040526019495,-1.6012137571917933,-3.337961260472433
-0.6266959349261683,-2.4937132040606897,-1.481128994618551,-0.7020242849933069,-1.6012495199786585,-3.3379252592669886
-0.6267197767840784,-2.4937132040606897,-1.4811652342425745,-0.7021082083331507,-1.6012375990497034,-3.337877337132589
-0.6267197767840784,-2.4937132040606897,-1.481117073689596,-0.7021320501910608,-1.601189915333883,-3.3379252592669886
-0.6266959349261683,-2.493772808705465,-1.481105152760641,-0.7021320501910608,-1.6012375990497034,-3.337877337132589
-0.6267197767840784,-2.493725124989645,-1.481117073689596,-0.7021201292621058,-1.6012256781207483,-3.3378892580615442
-0.6266716162310999,-2.4937370459186,-1.4811528364764612,-0.7021201292621058,-1.6012018362628382,-3.337877337132589
-0.6267078558551233,-2.4937012831317347,-1.4810932318316858,-0.7021320501910608,-1.6012137571917933,-3.3379252592669886
-0.6267078558551233,-2.4937132040606897,-1.4810932318316858,-0.7021201292621058,-1.6012018362628382,-3.3379011789904993
-0.6266959349261683,-2.493725124989645,-1.481128994618551,-0.7020962874041956,-1.6012495199786585,-3.3379011789904993
-0.6267197767840784,-2.4937132040606897,-1.481128994618551,-0.7021201292621058,-1.6012018362628382,-3.337877337132589
-0.6267316977130335,-2.4937132040606897,-1.481105152760641,-0.7021320501910608,-1.6012256781207483,-3.3379011789904993
-0.6267197767840784,-2.4937132040606897,-1.4811409155475062,-0.702155892048971,-1.6012018362628382,-3.3379133383380335
-0.6267436186419886,-2.493725124989645,-1.4811528364764612,-0.7021201292621058,-1.6012495199786585,-3.337877337132589
-0.6266959349261683,-2.4937132040606897,-1.481105152760641,-0.7021201292621058,-1.6012137571917933,-3.3379133383380335
-0.6267316977130335,-2.4937012831317347,-1.481117073689596,-0.7021320501910608,-1.6012495199786585,-3.3378892580615442
-0.6266959349261683,-2.4937370459186,-1.481128994618551,-0.7020962874041956,-1.6012137571917933,-3.3379252592669886
-0.6267555395709437,-2.4936769644366663,-1.4810932318316858,-0.7021201292621058,-1.601189915333883,-3.3379133383380335
-0.6267078558551233,-2.4937132040606897,-1.481128994618551,-0.7021201292621058,-1.6012375990497034,-3.337949339543478
-0.6266959349261683,-2.4937132040606897,-1.4811528364764612,-0.7021439711200159,-1.6012018362628382,-3.337973181401388
-0.6267078558551233,-2.4936893622027796,-1.481117073689596,-0.7021201292621058,-1.6012256781207483,-3.337985102330343
-0.6267078558551233,-2.493725124989645,-1.4810932318316858,-0.7021320501910608,-1.6012375990497034,-3.337949339543478
-0.6267436186419886,-2.4937132040606897,-1.481105152760641,-0.7021439711200159,-1.6012137571917933,-3.3379371801959437
-0.626779858266012,-2.4936650435077112,-1.4810932318316858,-0.7021201292621058,-1.6012256781207483,-3.3379011789904993
-0.6267555395709437,-2.4937012831317347,-1.4810813109027308,-0.7021439711200159,-1.6012495199786585,-3.337877337132589
-0.6267917791949671,-2.4937012831317347,-1.4810450712787073,-0.7020962874041956,-1.6012495199786585,-3.337877337132589
-0.6269472281085413,-2.4937012831317347,-1.4810331503497522,-0.7021678129779261,-1.6012018362628382,-3.3377814928637903
-0.6269596258746546,-2.493748966847555,-1.4809611479388636,-0.7022040526019495,-1.6012495199786585,-3.3376975695239466
-0.6270549933062952,-2.493725124989645,-1.480889622365133,-0.7022998968707483,-1.6012375990497034,-3.3376734892474573
-0.627150837575094,-2.493748966847555,-1.4808533827411097,-0.7022879759417933,-1.6012018362628382,-3.3375301996814173
-0.6274264494525355,-2.49376088777651,-1.4807212988482874,-0.7023118177997034,-1.6012018362628382,-3.3373025099383753
-0.6275823752032679,-2.49376088777651,-1.4806135336505335,-0.7024081389056605,-1.6012018362628382,-3.33729058900942
-0.6277740637408655,-2.4938209692584437,-1.4805410544024866,-0.7024796644793909,-1.6011775175677698,-3.337039057408468
-0.6279771963702601,-2.4938328901873987,-1.4803975264178675,-0.7024677435504358,-1.6012018362628382,-3.337003294621603
-0.6283610502826136,-2.4938929716693323,-1.4801815191852015,-0.702587906514303,-1.601189915333883,-3.3364763895617884
-0.6286247412310999,-2.4939525763141077,-1.4800618330584925,-0.7026117483722132,-1.6011536757098597,-3.336236540471212
-0.628852669392721,-2.493988815938131,-1.479929272328512,-0.7027080694781702,-1.6011775175677698,-3.3359134832965296
-0.6290801207171839,-2.4940007368670862,-1.4798091093646448,-0.7028878370868128,-1.6011536757098597,-3.335625712071554
-0.6296671072589319,-2.494192425404684,-1.4795697371112269,-0.702923599873678,-1.601189915333883,-3.335062805806295
-0.6299784819232386,-2.4942763487445276,-1.479365650807516,-0.7030914465533655,-1.6011417547809046,-3.334679667149679
-0.6303499380694788,-2.494300190602438,-1.4791978041278284,-0.7030676046954554,-1.6011298338519495,-3.3343446890460413
-0.6306856314288538,-2.494420353566305,-1.4790175596820276,-0.7032712141620081,-1.601081673298971,-3.333972994481222
-0.6314042250262659,-2.4946001211749476,-1.4786937872516077,-0.7033312956439417,-1.6010578314410608,-3.333266321812765
-0.6318238417254847,-2.494671646748678,-1.4784420172320765,-0.7033312956439417,-1.601069752370016,-3.3328469435321253
-0.6322429815875452,-2.494767491017477,-1.478297535573141,-0.7033432165728968,-1.6010220686541956,-3.3324158827411097
-0.632674519215719,-2.4948275724994105,-1.478082005177633,-0.7035473028766077,-1.6010459105121058,-3.331984821950094
-0.6335127989398401,-2.4950793425189417,-1.4776623884784144,-0.7036069075213831,-1.600961987172262,-3.331074301396505
-0.633956257496969,-2.4951632658587855,-1.477433983479635,-0.7036312262164515,-1.6009138266192835,-3.330583397542135
-0.6344478766070765,-2.4952829519854944,-1.477217976246969,-0.7037628332721155,-1.6009138266192835,-3.3301523367511194
-0.6349266211139124,-2.495354954396383,-1.4769299666034144,-0.7039068380938929,-1.6009262243853968,-3.329757277165548
-0.6358850638019007,-2.495582882558004,-1.4764865080462855,-0.7040985266314905,-1.6009262243853968,-3.3287513891803187
-0.6363886038409632,-2.495678249989645,-1.4761984984027308,-0.7041342894183558,-1.6008780638324183,-3.3282724062549036
-0.6368916670428675,-2.495797936116354,-1.4759586493121546,-0.7043741385089319,-1.600854221974508,-3.3277214209186
-0.6373832861529749,-2.495917622243063,-1.4757302443133753,-0.7044222990619105,-1.600830380116598,-3.327146593724386
-0.6384013334857386,-2.4962051550494593,-1.4752267042743128,-0.7047222296344202,-1.6007464567767542,-3.326236073170797
-0.6389043966876429,-2.496312920247213,-1.4749262968646448,-0.7049859205829065,-1.600734059010641,-3.325625244771139
-0.639468018208639,-2.4964569250689905,-1.4746630827533167,-0.7050102392779749,-1.6007102171527308,-3.3251338640796106
-0.6400068441974085,-2.4965885321246546,-1.4743989149676722,-0.7053216139422815,-1.6006506125079554,-3.3246429602252405
-0.6410849730121058,-2.496876064931051,-1.473846737538473,-0.7055853048907679,-1.6007102171527308,-3.3234456221209925
-0.6416242758380335,-2.4969962278949183,-1.4735711256610315,-0.7056453863727015,-1.6006625334369105,-3.322954241429464
-0.6422117392169397,-2.497103993092672,-1.4732945601092737,-0.7059090773211878,-1.600614372883932,-3.3223794142352503
-0.6427629629718226,-2.4972599188434046,-1.4729951063739222,-0.7060053984271448,-1.600626293812887,-3.3217690626727503
-0.6439607779132288,-2.4975112120257776,-1.4723952452289026,-0.70636493364443,-1.600638214741842,-3.3205834070788782
-0.6444876829730433,-2.497678581868307,-1.472131077443258,-0.706616226826803,-1.6004827658282679,-3.3200085798846644
-0.6451228300677698,-2.4978225866900843,-1.4718197027789515,-0.7066405455218714,-1.6005905310260218,-3.3194695154773157
-0.6457222143756312,-2.4979541937457483,-1.471567455922262,-0.7068560759173792,-1.600506607686178,-3.3188348452197474
-0.6469557921039026,-2.4982298056231897,-1.4709075132953089,-0.7071078459369105,-1.6005423704730433,-3.3176007906543177
-0.6475675741778772,-2.4983976523028772,-1.4705951849566858,-0.7071684042560022,-1.6003745237933558,-3.316942278538839
-0.6482022444354456,-2.4985535780536097,-1.470259968434469,-0.7073481718646448,-1.6005304495440882,-3.3162835280047815
-0.6488855520831507,-2.498720947896139,-1.4699953238116663,-0.7074678579913538,-1.6003387610064905,-3.315624777470724
-0.6501429716693323,-2.4990204016314905,-1.4693120161639612,-0.707827393208639,-1.6004584471331995,-3.3143072764026087
-0.6508505980121058,-2.499188248311178,-1.468987766896383,-0.7080910841571253,-1.6002910772906702,-3.3136490027057093
-0.6515091101275843,-2.4993680159198206,-1.4686759153949183,-0.7082589308368128,-1.6003745237933558,-3.3129661718951624
-0.6522157827960413,-2.499523941670553,-1.468304459248678,-0.7085469404803675,-1.6003029982196253,-3.312307421361105
-0.6535938421832483,-2.4998233954059046,-1.4675481955157679,-0.7088945547686976,-1.6003387610064905,-3.3108466307269495
-0.6543248335467737,-2.4999311606036585,-1.4672005812274378,-0.7089784781085413,-1.6001470724688929,-3.310103956853048
-0.6549952665912073,-2.500122849141256,-1.4668524901019495,-0.7092302481280726,-1.6002071539508265,-3.309397284184591
-0.6557024160968226,-2.5002787748919886,-1.4665163199054163,-0.7093141714679163,-1.6002190748797815,-3.308666531239645
-0.6571643988238733,-2.500590149556295,-1.4657004515277308,-0.7097342650042933,-1.600158993397848,-3.3072171846972864
-0.657943073903219,-2.5007341543780726,-1.4653409163104456,-0.7100217978106897,-1.6000750700580042,-3.3064749876605433
-0.6587103048907679,-2.5008657614337366,-1.4649327437030237,-0.7102134863482874,-1.6000030676471155,-3.3057802359210413
-0.6594765822040003,-2.5010574499713343,-1.46452504793276,-0.7104051748858851,-1.600170914326803,-3.3050015608416956
-0.6609743277179163,-2.5014165083514612,-1.4638050238238733,-0.7107046286212366,-1.600051228200094,-3.3034208456622522
-0.6617773214923304,-2.5015485922442835,-1.4634211699115198,-0.7108729521380823,-1.5999911467181605,-3.3026426474200647
-0.6625078360186976,-2.501728359852926,-1.4630010763751429,-0.7110407988177698,-1.5998356978045862,-3.301947895680563
-0.6633227507220667,-2.5019195715533655,-1.4625933806048792,-0.7112329641925257,-1.6000273863421839,-3.301145378743307
-0.6648443380938929,-2.5022910276996058,-1.4618495146380823,-0.7117121855365198,-1.5997756163226526,-3.2995405832873743
-0.665659252797262,-2.502446953450338,-1.4614175001727503,-0.7119157950030726,-1.5998953024493616,-3.2987499872790735
-0.6664975325213831,-2.502650562916891,-1.4610098044024866,-0.712168041859762,-1.5997274557696741,-3.297971312199728
-0.6673248449908655,-2.5028303305255335,-1.4605897108661097,-0.7122996489154261,-1.5997994581805628,-3.2971811930285853
-0.6688821951495569,-2.5031898657428187,-1.4597380797015589,-0.7126715818988245,-1.5996077696429651,-3.2955403963672083
-0.6697447935687464,-2.5034058729754847,-1.4593780676471155,-0.7129228750811976,-1.599715534840719,-3.294785801564352
-0.6705358664142054,-2.5035374800311487,-1.4590180555926722,-0.7130668799029749,-1.599583927785055,-3.2939356009112757
-0.6713984648333948,-2.5037410894977015,-1.4585498015033167,-0.713391129170553,-1.5995357672320765,-3.293145004902975
-0.6730998198138636,-2.5041478315936487,-1.4577582518206995,-0.7138226667987269,-1.5993922392474573,-3.2914565245257776
-0.6739261786090296,-2.504303757344381,-1.4573381582843226,-0.7139905134784144,-1.5994637648211878,-3.2905944029437464
-0.674753491078512,-2.5045555273639124,-1.4568703810321253,-0.7141702810870569,-1.5994637648211878,-3.289732281361715
-0.6756280104266565,-2.504735294972555,-1.4564383665667933,-0.7143977324115198,-1.5992963949786585,-3.288809839879171
-0.6774614492999476,-2.505190674458639,-1.4554789702044886,-0.7148898283587855,-1.599260155354635,-3.287037197743551
-0.6783836523639124,-2.5053942839251917,-1.455010716115133,-0.7150815168963831,-1.5992124716388147,-3.2860549131976526
-0.6793778578387659,-2.505634133015768,-1.4545071760760706,-0.7153447310077112,-1.5992720762835901,-3.285037104283468
-0.6803606192218226,-2.5058377424823206,-1.4539788405047815,-0.7155731360064905,-1.5990684668170374,-3.284102980290548
-0.6823857466327112,-2.5062807242022913,-1.4529832045184534,-0.7160528341876429,-1.5990203062640589,-3.282079044972555
-0.6834643522845667,-2.5065205732928675,-1.4523957411395472,-0.7162445227252405,-1.5989964644061487,-3.281001392995016
-0.684554402028219,-2.5067361036883753,-1.4518559614764612,-0.7165201346026819,-1.5990083853351038,-3.2799235025988978
-0.6856091658221644,-2.5069993177997034,-1.451303784047262,-0.716867748891012,-1.5988410154925745,-3.2788575331317347
-0.6879213492022913,-2.507514778767721,-1.4500921408282679,-0.7174552122699183,-1.5987923781024378,-3.2766180674182337
-0.6891191641436976,-2.507826630269186,-1.4494441191302698,-0.7177193800555628,-1.5988166967975062,-3.275384489689962
-0.6903532187091272,-2.508066002522604,-1.4488919417010706,-0.7180307547198694,-1.5988166967975062,-3.27419883409609
-0.6916115919696253,-2.5083654562579554,-1.4482563177691858,-0.7183669249164026,-1.598696533833639,-3.272905174885885
-0.6941397825824183,-2.5089524427997034,-1.4469965139972132,-0.7190020720111292,-1.5986006895648401,-3.2703900972949427
-0.6954696814166468,-2.5092642943011683,-1.446324650441305,-0.7193501631366175,-1.5986245314227503,-3.269036833439962
-0.6967995802508753,-2.50958758989443,-1.445653263722555,-0.7196257750140589,-1.5986006895648401,-3.2676594893084925
-0.6981175581561487,-2.5098632017718714,-1.4450047651873987,-0.7200453917132776,-1.5984566847430628,-3.2663303057300013
-0.7008135954486292,-2.5104740301715296,-1.4436848799334925,-0.7207649389850062,-1.5984209219561976,-3.2636118570910853
-0.7021678129779261,-2.51084548631777,-1.4430373350726526,-0.7211125532733362,-1.5983851591693323,-3.2622223536120813
-0.7035453955279749,-2.5111330191241663,-1.442305866871969,-0.7214239279376429,-1.5984447638141077,-3.2608214060412806
-0.704935375844137,-2.511456314717428,-1.4416573683368128,-0.7218440214740198,-1.5982769171344202,-3.259372059498922
-0.7076194922076624,-2.5120556990252894,-1.440242115651266,-0.72253925005068,-1.5982769171344202,-3.2567015329944056
-0.7089856306659144,-2.5123794714557093,-1.4395940939532679,-0.7228267828570765,-1.5981810728656214,-3.2552765051471155
-0.7103398481952112,-2.5126779715167444,-1.4388859907733362,-0.7231267134295862,-1.5982649962054651,-3.253899399434225
-0.7116330305682581,-2.5129898230182093,-1.4382622877704065,-0.723426644002096,-1.5980613867389124,-3.2525575796710413
-0.7142813841449183,-2.513552967702047,-1.436906639729635,-0.724194351826803,-1.5980375448810022,-3.24989897409548
-0.7154915968524378,-2.5138524214373987,-1.4362471739398401,-0.7244218031512659,-1.5980256239520472,-3.24854547182192
-0.7167976538287562,-2.5141523520099085,-1.4356349150287073,-0.7247093359576624,-1.5980852285968226,-3.2472761313067835
-0.7179959456073206,-2.514439884816305,-1.4349749724017542,-0.7250569502459925,-1.5978816191302698,-3.2460065523730677
-0.7205002943622034,-2.5149548689471644,-1.433751408253805,-0.725656811391012,-1.5978816191302698,-3.243455950413839
-0.721722427998678,-2.515265766774313,-1.4331515471087855,-0.7260039488421839,-1.597797695790426,-3.242246214543478
-0.7229087988482874,-2.5155418554889124,-1.4325631300555628,-0.7262681166278284,-1.5977619330035608,-3.241000477467672
-0.7241547743426722,-2.5158050696002405,-1.4319518248187464,-0.7266042868243616,-1.5976060072528284,-3.239755455647604
-0.7265513578998011,-2.5163806120501917,-1.4307273069964808,-0.7272513548480433,-1.5974262396441858,-3.2373600641833704
-0.7277134100543421,-2.516644302998678,-1.430103603993551,-0.7275388876544397,-1.597558323537008,-3.236138407384054
-0.7288878599749964,-2.5169079939471644,-1.4295161406146448,-0.7278149763690394,-1.5973904768573206,-3.234965149556295
-0.730109993611471,-2.5171592871295374,-1.428903881703512,-0.7280905882464808,-1.5973661581622522,-3.233779255543844
-0.7324822584735315,-2.51771051088442,-1.4277046362506312,-0.7287018934832972,-1.5971148649798792,-3.2313841024981897
-0.7336686293231409,-2.5179618040667933,-1.4270685354815882,-0.7290142218219202,-1.5972583929644983,-3.230222288762228
-0.7348550001727503,-2.5182254950152796,-1.4264686743365687,-0.7292898336993616,-1.5970309416400355,-3.229072872792379
-0.7360056082354944,-2.518489185963766,-1.4258444944964808,-0.7296012083636683,-1.596994702016012,-3.227875296269552
-0.7384493986712855,-2.5190041700946253,-1.4246090094195765,-0.7301767508136194,-1.596875015889303,-3.225443665181295
-0.7396720091449183,-2.519231621419088,-1.4239490667926233,-0.7305010000811976,-1.5969708601581019,-3.2242098490344446
-0.7408936659442347,-2.5195191542254847,-1.4233492056476038,-0.730908219014303,-1.5968988577472132,-3.2229767481433313
-0.7421639601336878,-2.519806687031881,-1.4227011839496058,-0.7311838308917444,-1.596755329762594,-3.2217071692096155
-0.7446683088885706,-2.520334068928854,-1.421429459248678,-0.7317717711078089,-1.5966594854937952,-3.2192521731006067
-0.7458904425250452,-2.5206216017352503,-1.4208295981036585,-0.7320712248431605,-1.5967310110675257,-3.2180305163012903
-0.747232739125387,-2.5208972136126917,-1.4202535788165491,-0.7324193159686487,-1.5966833273517054,-3.216808859501974
-0.7485387961017054,-2.5212085882769983,-1.4195459524737757,-0.7327669302569788,-1.5965154806720179,-3.215539280568258
-0.7511270681964319,-2.5218313376056116,-1.4182379881488245,-0.7334383169757288,-1.5965035597430628,-3.2129526774035853
-0.7524688879596155,-2.522106949483053,-1.4175904432879847,-0.7337620894061487,-1.5965035597430628,-3.2116714159594935
-0.7537630240069788,-2.522430721913473,-1.4169066588031214,-0.7341817061053675,-1.5964673201190394,-3.2103539148913782
-0.7551291624652308,-2.522682491933004,-1.4162581602679651,-0.734481159840719,-1.5963118712054651,-3.209036413823263
-0.7578013578998011,-2.5232813994037073,-1.414914909993307,-0.7351291815387171,-1.5962041060077112,-3.206341807042257
-0.7591193358050745,-2.523592774068014,-1.4143746534930628,-0.7354286352740687,-1.5962279478656214,-3.205012623463766
-0.7604854742633265,-2.5239041487323206,-1.4136431852923792,-0.7357643286334437,-1.5962160269366663,-3.2036472002612513
-0.7617433706866663,-2.524167839680807,-1.412994686757223,-0.736124340687887,-1.5960601011859339,-3.2022700945483606
-0.7643793264972132,-2.52476674715151,-1.4116271177874964,-0.7367232481585901,-1.5960362593280237,-3.1996594111071985
-0.7656739393817347,-2.5250304380999964,-1.4109671751605433,-0.7370231787310999,-1.5960119406329554,-3.1983304659472864
-0.7669556776629847,-2.525329891835348,-1.4103792349444788,-0.737347427998678,-1.5960362593280237,-3.197096649800436
-0.7682502905475062,-2.525581661854879,-1.4097197691546839,-0.7377665678607386,-1.5958078543292444,-3.195791546498434
-0.7707904020892542,-2.5261686483966272,-1.4084237257586878,-0.7383664290057581,-1.5958321730243128,-3.1931689421283167
-0.772048298512594,-2.52639609972109,-1.40782338777651,-0.7386658827411097,-1.5957840124713343,-3.1918752829181116
-0.773294750844137,-2.526707474385397,-1.4072001616107386,-0.7389653364764612,-1.5957120100604456,-3.19061786333193
-0.7745645681964319,-2.5270069281207483,-1.4065879026996058,-0.7392533461200159,-1.5955684820758265,-3.1893485228167933
-0.7770331541644495,-2.527510468159811,-1.405292812977926,-0.7399490515338343,-1.5953767935382288,-3.186821762715475
-0.7782672087298792,-2.5277980009662073,-1.4046686331378382,-0.7402604261981409,-1.5954964796649378,-3.185528341923849
-0.7795012632953089,-2.5280616919146937,-1.4039962927447718,-0.7405360380755823,-1.5952447096454065,-3.1843066851245325
-0.7807238737689417,-2.528337303792135,-1.403372589741842,-0.7408841292010706,-1.5953167120562952,-3.1829894224749964
-0.7831328550921839,-2.5288999716388147,-1.4021371046649378,-0.7415674368487757,-1.5951488653766077,-3.180570189152853
-0.7844145933734339,-2.5292113463031214,-1.4014766852008265,-0.7418797651873987,-1.5952566305743616,-3.179324452077047
-0.7856491247760218,-2.5294750372516077,-1.400780979787008,-0.7421429792987269,-1.595064942036764,-3.1780553499804896
-0.7868588606463831,-2.529714886342184,-1.4001811186419886,-0.7424309889422815,-1.5951250235186976,-3.1768341700183313
-0.7893632094012659,-2.530289951954977,-1.3989813963519495,-0.7430785338031214,-1.5949090162860315,-3.174354855214254
-0.7906096617328089,-2.5305898825274866,-1.3982856909381312,-0.7434023062335413,-1.5950411001788538,-3.173133436833517
-0.7918079535113733,-2.5308411757098597,-1.3977096716510218,-0.7436779181109827,-1.5948131720172327,-3.1719239393817347
-0.7930901686297815,-2.5311291853534144,-1.3970735708819788,-0.7439773718463343,-1.5948732534991663,-3.1706302801715296
-0.7955945173846644,-2.5316794554339808,-1.3958380858050745,-0.7446849981891077,-1.5947173277484339,-3.1681514422046106
-0.7968404928790491,-2.531943146382467,-1.3952019850360315,-0.7449606100665491,-1.5948131720172327,-3.166881863270895
-0.7981589476214808,-2.5322306791888636,-1.3946378866778772,-0.7452719847308558,-1.5947054068194788,-3.1656606833087366
-0.7993572394000452,-2.53251821199526,-1.3939421812640589,-0.7455361525165003,-1.5946453253375452,-3.1643555800067347
-0.8019216696368616,-2.533081833516256,-1.3926942984210413,-0.7461236158954065,-1.5945137182818812,-3.161924187337057
-0.8031438032733362,-2.5333693663226526,-1.3920462767230433,-0.7464235464679163,-1.594597641621725,-3.160606924687521
-0.8044260183917444,-2.533644978200094,-1.3914106527911585,-0.7467711607562464,-1.594501797352926,-3.159337345753805
-0.8057077566729944,-2.5339320341693323,-1.3907626310931605,-0.7471068541156214,-1.5943697134601038,-3.1580923239337366
-0.8082240263568323,-2.5345547834979456,-1.3894670645343226,-0.7477310339557093,-1.5943101088153284,-3.15556508699526
-0.8094704786883753,-2.5348427931415003,-1.3887832800494593,-0.7480185667621058,-1.5943220297442835,-3.1543434301959437
-0.8107288519488733,-2.535142246876852,-1.3881829420672815,-0.7483661810504358,-1.5942981878863733,-3.1531341711627405
-0.812047306691305,-2.5354536215411585,-1.387583080922262,-0.7486537138568323,-1.5941184202777308,-3.151900831853048
-0.8145635763751429,-2.53607684770693,-1.3862517515765589,-0.749277416859762,-1.5940101782428187,-3.1493499914752405
-0.8158453146563929,-2.5364001433001917,-1.3856514135943812,-0.7496007124530237,-1.5940821806537073,-3.148092571889059
-0.8171399275409144,-2.5366995970355433,-1.3849909941302698,-0.7499368826495569,-1.594022576008932,-3.146822992955343
-0.818373982106344,-2.536987606679098,-1.3843677679644983,-0.7502248922931116,-1.5938785711871546,-3.1454578081714075
-0.8209622542010706,-2.5375502745257776,-1.3831799666034144,-0.7508719603167933,-1.593806568776266,-3.1429069677936
-0.8222325483905237,-2.5378978888141077,-1.3825200239764612,-0.7512076536761683,-1.593818489705221,-3.1415658632861536
-0.8234904448138636,-2.538149658833639,-1.3818839232074183,-0.7515671888934534,-1.593698803578512,-3.1402605215655726
-0.8248088995562952,-2.5384133497821253,-1.3812602202044886,-0.7518790403949183,-1.593579117451803,-3.1389551798449915
-0.8273256460772913,-2.5389884153949183,-1.380000416432516,-0.752514664326803,-1.5935309568988245,-3.136404101048605
-0.8285835425006312,-2.5392516295062464,-1.379376236592428,-0.7527902762042444,-1.5935547987567347,-3.1351588408099573
-0.8298895994769495,-2.5394914785968226,-1.37872821489443,-0.7531140486346644,-1.593470875416891,-3.133901659642355
-0.8311355749713343,-2.539779011403219,-1.3780329863177698,-0.7534740606891077,-1.5933392683612269,-3.1325960795031946
-0.8336885611163538,-2.540354077016012,-1.376772705708639,-0.7541092077838343,-1.5932672659503382,-3.130045477543966
-0.8349226156817835,-2.5406296888934534,-1.3761733214007776,-0.7544210592852991,-1.5932911078082483,-3.128763739262716
-0.8361929098712366,-2.54091722169985,-1.3755133787738245,-0.7547572294818323,-1.5932911078082483,-3.1275184790240687
-0.8374512831317347,-2.5412285963641565,-1.3748648802386683,-0.755080525075094,-1.593123737965719,-3.1262734572040003
-0.8399198690997522,-2.5418155829059046,-1.3735697905169886,-0.7556679884540003,-1.5930994192706507,-3.1236746946917933
-0.8411539236651819,-2.542091194783346,-1.3729575316058558,-0.7559798399554651,-1.5930874983416956,-3.1224170366870325
-0.8423884550677698,-2.5424025694476526,-1.3723333517657679,-0.7562792936908167,-1.5930636564837855,-3.1211236158954065
-0.8436463514911097,-2.542690102254049,-1.3717215696917933,-0.7565911451922815,-1.5928719679461878,-3.1198423544513147
-0.8461630980121058,-2.5432890097247522,-1.370498005543844,-0.7571671644793909,-1.5927999655352991,-3.117387358342306
-0.8473618666278284,-2.5435169378863733,-1.3698614279376429,-0.7574546972857874,-1.592788044606344,-3.116058413182394
-0.8486674467669886,-2.5438407103167933,-1.369213883076803,-0.757766071950094,-1.5927518049823206,-3.114812676106588
-0.8499019781695765,-2.5440800825702112,-1.3685901800738733,-0.7581618467914026,-1.592583958302633,-3.1135550181018274
-0.8524788061725062,-2.544643227254049,-1.3673060576068323,-0.758857552205221,-1.5924642721759241,-3.1110525766955774
-0.853736702595846,-2.5449188391314905,-1.3666465918170374,-0.7591093222247522,-1.5925357977496546,-3.109807078038351
-0.8549588362323206,-2.545217816029684,-1.3659866491900843,-0.7593849341021937,-1.5924881140338343,-3.108525816594259
-0.8562410513507288,-2.545469586049215,-1.3653143087970179,-0.7597444693194788,-1.5923321882831019,-3.1072922388659876
-0.8587454001056116,-2.546044651662008,-1.3640545050250452,-0.7603800932513636,-1.592224423085348,-3.104705874119894
-0.8600156942950647,-2.5463202635394495,-1.363382641469137,-0.7606437841998499,-1.5922845045672815,-3.1034122149096888
-0.8612383047686976,-2.5466321150409144,-1.362734619771139,-0.7609556357013147,-1.5921524206744593,-3.102130715047018
-0.8624485174762171,-2.5469558874713343,-1.3620870749102991,-0.7613394896136683,-1.5921285788165491,-3.100945059453146
-0.8649533430682581,-2.547518555318014,-1.360779110585348,-0.7620347181903284,-1.591912571583883,-3.098370615636007
-0.866211239491598,-2.547854248677389,-1.3601673285113733,-0.7623704115497034,-1.5920446554767054,-3.0971010367022913
-0.8674576918231409,-2.5481413046466272,-1.3594954649554651,-0.7626102606402796,-1.5918529669391077,-3.095867935811178
-0.8687756697284144,-2.548440758381979,-1.3589194456683558,-0.7629459539996546,-1.5918768087970179,-3.0946462790118616
-0.8712804953204554,-2.54899245897402,-1.3575995604144495,-0.7636054197894495,-1.5916970411883753,-3.0921197573291224
-0.8725507895099085,-2.549255673085348,-1.3570354620562952,-0.7639172712909144,-1.5918167273150843,-3.090898100529806
-0.8737729231463831,-2.549579445515768,-1.3564112822162073,-0.7642291227923792,-1.59166127840151,-3.0896526018725794
-0.8750193754779261,-2.5498908201800745,-1.3557761351214808,-0.7645648161517542,-1.5916131178485315,-3.0883711020099085
-0.8776081244098108,-2.550393883381979,-1.3544438521014612,-0.7652605215655726,-1.5914934317218226,-3.085916582738058
-0.8788421789752405,-2.550645176564352,-1.3538201490985315,-0.7655838171588343,-1.5915411154376429,-3.0846110025988978
-0.8801363150226038,-2.550896946583883,-1.3531721274005335,-0.765883747731344,-1.5914934317218226,-3.083329741154806
-0.8813827673541468,-2.5511844793902796,-1.3525360266314905,-0.7661717573748987,-1.5914095083819788,-3.0819881598102015
-0.8838751951800745,-2.5517476240741175,-1.3512523810016077,-0.7667587439166468,-1.5913375059710901,-3.0794499556170862
-0.8851578871356409,-2.552011315022604,-1.3505924383746546,-0.7670581976519983,-1.591301743184225,-3.078156296406881
-0.8864157835589808,-2.552286926900045,-1.3499682585345667,-0.7673943678485315,-1.591325585042135,-3.0769107977496546
-0.8876498381244105,-2.5525744597064417,-1.3493927160846155,-0.7677181402789515,-1.5911458174334925,-3.075617853795187
-0.8902266661273401,-2.5531137625323694,-1.3481205145465296,-0.7684138456927698,-1.5911219755755823,-3.0731387774096888
-0.8914969603167933,-2.5533655325519007,-1.3475211302386683,-0.7687614599810999,-1.5911338965045374,-3.071857515965597
-0.8927553335772913,-2.553664509450094,-1.3468249479876917,-0.7690609137164515,-1.5911458174334925,-3.0706122557269495
-0.893989388142721,-2.5539401213275355,-1.3462126890765589,-0.7693246046649378,-1.5909178892718714,-3.0692947546588343
-0.8964698950396937,-2.5545156637774866,-1.3450129667865198,-0.7699125448810022,-1.5909178892718714,-3.0668039957629603
-0.8977645079242151,-2.554791275654928,-1.3443892637835901,-0.7702363173114222,-1.590977970753805,-3.06545073190798
-0.8989866415606897,-2.5550549666034144,-1.3437650839435022,-0.7706320921527308,-1.5908821264850062,-3.0642171541797083
-0.9002931753741663,-2.5553305784808558,-1.3431533018695276,-0.7709077040301722,-1.5907381216632288,-3.062983814870016
-0.9027975241290491,-2.5559170881854456,-1.3418696562396448,-0.7715190092669886,-1.5905945936786097,-3.0603016058551233
-0.9040315786944788,-2.5561564604388636,-1.341222111378805,-0.7718427816974085,-1.5907381216632288,-3.0590081850634974
-0.9053385893451136,-2.556432072316305,-1.3405616919146937,-0.772226635609762,-1.590534512196676,-3.0576909224139612
-0.9065845648394983,-2.55674392381777,-1.3399017492877405,-0.7725499312030237,-1.5904987494098108,-3.056481663380758
-0.9091375509845179,-2.557330910359518,-1.3386181036578577,-0.7731497923480433,-1.5903070608722132,-3.0538228193866175
-0.9103358427630823,-2.557570759450094,-1.337910000477926,-0.7734373251544397,-1.5903666655169886,-3.052577797566549
-0.9116418997394007,-2.5578582922564905,-1.3372977415667933,-0.7737730185138147,-1.590198818837301,-3.051272217427389
-0.9129598776446741,-2.558169666920797,-1.3366382757769983,-0.7741330305682581,-1.5901630560504358,-3.049978796635763
-0.9155247847186487,-2.55872089067568,-1.3353660742389124,-0.774780575429098,-1.5900071302997034,-3.0474165121661585
-0.9168313185321253,-2.5590079466449183,-1.3347185293780726,-0.7750805060016077,-1.5900910536395472,-3.0461228529559534
-0.9180892149554651,-2.5592954794513147,-1.3340461889850062,-0.775463883076803,-1.589947525654928,-3.0448177496539515
-0.9194076696978968,-2.5595954100238245,-1.3334344069110315,-0.7757752577411097,-1.589959446583883,-3.043560568486349
-0.9219601790057581,-2.560242478047506,-1.3321626822101038,-0.7764228026019495,-1.5898035208331507,-3.0410216490374964
-0.9232662359820765,-2.560469929371969,-1.3314784208880823,-0.7767346541034144,-1.5899112860309046,-3.0397046248065394
-0.924560848866598,-2.5607455412494105,-1.3308427969561976,-0.777010742818014,-1.589731518422262,-3.0384109655963343
-0.9258311430560511,-2.56104547182192,-1.3301709334002894,-0.777346436177389,-1.589719597493307,-3.037189785634176
-0.9283478895770472,-2.5615957419024866,-1.328839127217428,-0.7779458204852503,-1.589503590260641,-3.034674946461813
-0.9295819441424769,-2.5618956724749964,-1.3282268683062952,-0.7782214323626917,-1.5896595160113733,-3.0334296862231653
-0.93085223833193,-2.562183205281393,-1.3276150862323206,-0.7784493605243128,-1.5894196669207972,-3.032208029423849
-0.9321468512164515,-2.5624707380877894,-1.3269432226764124,-0.7788093725787562,-1.5894678274737757,-3.0309508482562464
-0.9345796743976038,-2.563010040913717,-1.3256953398333948,-0.7794926802264612,-1.5892756620990198,-3.0285914579974573
-0.9357898871051233,-2.5633214155780237,-1.325083080922262,-0.7797563711749476,-1.589407745991842,-3.0274301210986536
-0.9370363394366663,-2.563597027455465,-1.3244951407061976,-0.780043903981344,-1.5892279783831995,-3.0261967817889612
-0.9382107893573206,-2.56388503709902,-1.3238356749164026,-0.7803195158587855,-1.5892637411700647,-3.024999205266134
-0.9406316916095179,-2.564387623463766,-1.3225873152362269,-0.7809436956988733,-1.5890958944903772,-3.022616211568014
-0.9418061415301722,-2.5646632353412073,-1.3220480124102991,-0.78125507036318,-1.589167896901266,-3.0213945547686976
-0.9430525938617151,-2.5649269262896937,-1.3214719931231897,-0.7815550009356897,-1.5889642874347132,-3.0202091375934046
-0.9442389647113245,-2.5651782194720667,-1.3208840529071253,-0.781806770955221,-1.5890000502215784,-3.018940035496847
-0.9466837088214319,-2.565741840993063,-1.319695774708883,-0.7825019995318812,-1.5887964407550257,-3.0164371172534388
-0.9478700796710413,-2.566017452870504,-1.319120232258932,-0.7828376928912562,-1.588928524647848,-3.0152514616595667
-0.9490564505206507,-2.5663169066058558,-1.3185322920428675,-0.7831257025348108,-1.588736359273092,-3.013994280491964
-0.9502790609942835,-2.5666044394122522,-1.3178842703448694,-0.7834132353412073,-1.5887725988971155,-3.012760941182272
-0.9527118841754358,-2.567155663167135,-1.316648308430807,-0.7840607802020472,-1.588616673146383,-3.010305706654684
-0.9539697805987757,-2.5674551169024866,-1.3161562124835413,-0.784372631703512,-1.5886529127704065,-3.009096924458639
-0.9551685492144983,-2.567730728779928,-1.315460507069723,-0.7846720854388636,-1.588473145161764,-3.0078991095172327
-0.9564030806170862,-2.5680058638202112,-1.3148368040667933,-0.7849600950824183,-1.5885089079486292,-3.0066655317889612
-0.9588120619403284,-2.568545166646139,-1.3135770002948206,-0.7855475584613245,-1.5882933775531214,-3.0042105356799524
-0.9600098768817347,-2.5688326994525355,-1.3129523436175745,-0.7858713308917444,-1.5884011427508753,-3.002941433583395
-0.9612448851214808,-2.569132630025045,-1.3123763243304651,-0.7862075010882776,-1.5881851355182093,-3.0016961733447474
-0.9625266234027308,-2.569432083760397,-1.3117411772357386,-0.7865307966815394,-1.5882213751422327,-3.000486437474386
-0.9649117628680628,-2.569947067891256,-1.3105047384845179,-0.7870462576495569,-1.5880892912494105,-2.9980080763446253
-0.9660862127887171,-2.5701869169818323,-1.3099291960345667,-0.7873461882220667,-1.5881851355182093,-2.9967504183398646
-0.9672969023333948,-2.5704501310931605,-1.3092930952655237,-0.7876580397235315,-1.5879815260516565,-2.9955173174487513
-0.9684951941119593,-2.5707858244525355,-1.3087289969073694,-0.7879698912249964,-1.588029686604635,-2.99430758157839
-0.9708207289325159,-2.57131272951235,-1.307589356099264,-0.7885215918170374,-1.5878379980670374,-2.991960589085714
-0.9719584623919886,-2.5716126600848597,-1.3070133368121546,-0.788832966481344,-1.5879696051227015,-2.9908347765551966
-0.9730971495257776,-2.571875874196188,-1.3064854780780237,-0.7891324202166956,-1.5878737608539026,-2.989708964024679
-0.9741762320147913,-2.572139565144674,-1.305897061024801,-0.7894685904132288,-1.5877540747271937,-2.98860747018923
-0.9763692061053675,-2.572606865559713,-1.304793659840719,-0.7899840513812464,-1.5876582304583948,-2.9865358511554163
-0.9774001280414026,-2.572834316884176,-1.3042658011065882,-0.7902000586139124,-1.5877540747271937,-2.985542122517721
-0.9783585707293909,-2.573050324116842,-1.303798023854391,-0.7904275099383753,-1.587682072316305,-2.984476391469137
-0.9793055693255823,-2.573301617299215,-1.3033421675311487,-0.7906916777240198,-1.5875619093524378,-2.9835899511920374
-0.9810789267169397,-2.5736611525165003,-1.3023698965655726,-0.7911589781390589,-1.5875142256366175,-2.981770102177755
-0.9819539229022425,-2.5738652388202112,-1.3019498030291956,-0.7913988272296351,-1.5875380674945276,-2.9809196631061
-0.9827569166766565,-2.574045006428854,-1.3015177885638636,-0.7915905157672327,-1.5875499884234827,-2.980093542729513
-0.9835360685931605,-2.5742366949664515,-1.3010981718646448,-0.7917464415179651,-1.5874303022967737,-2.9793267885791224
-0.9850338141070765,-2.5745719114886683,-1.300366226826803,-0.7921183745013636,-1.5874303022967737,-2.977722469960348
-0.985753361378805,-2.5747035185443323,-1.2999699751483362,-0.7922385374652308,-1.5874784628497522,-2.9770877997027796
-0.9864361921893519,-2.574883286152975,-1.2996342817889612,-0.7924421469317835,-1.5874064604388636,-2.9764049688922327
-0.9871194998370569,-2.575015370045797,-1.299286190663473,-0.7926457563983362,-1.587358299885885,-2.975698773060934
-0.9884379545794886,-2.5753024260150355,-1.2986262480365198,-0.7930415312396448,-1.587238613759176,-2.9743695894824427
-0.9890850226031702,-2.5754221121417444,-1.2983019987689417,-0.7932093779193323,-1.5872986952411097,-2.973734680806295
-0.9896963278399866,-2.5755541960345667,-1.2979663054095667,-0.7933052221881312,-1.5871904532061976,-2.973100010548727
-0.9903433958636683,-2.5756858030902308,-1.297678295766012,-0.7934492270099085,-1.5871904532061976,-2.9724414984332483
-0.9916136900531214,-2.5759738127337855,-1.2970665136920374,-0.7937129179583948,-1.5871065298663538,-2.9711723963366907
-0.9922726790057581,-2.5761411825763147,-1.2967541853534144,-0.7938206831561487,-1.5871904532061976,-2.9705496470080774
-0.9928720633136194,-2.576273266469137,-1.296394173298971,-0.7940605322467249,-1.58702260652651,-2.970022741948263
-0.9935076872455042,-2.576416794453756,-1.2960942427264612,-0.7941563765155237,-1.587118927632467,-2.9693403879748743
-0.9948013464557093,-2.5766924063311976,-1.2955063025103968,-0.7945283094989222,-1.5869987646686,-2.9681065718280237
-0.9954727331744593,-2.5768125692950647,-1.2951706091510218,-0.7947562376605433,-1.5869391600238245,-2.967412058507101
-0.9961441198932093,-2.576968495045797,-1.2948105970965784,-0.7948759237872522,-1.5868428389178675,-2.9667895475970667
-0.9968512693988245,-2.5771358648883265,-1.2944744269000452,-0.7951043287860315,-1.5869749228106897,-2.966095272694723
-0.9981454054461878,-2.5774715582477015,-1.293790642415182,-0.7954037825213831,-1.586902920399801,-2.9647777716266077
-0.9988763968097132,-2.5776036421405237,-1.293466869984762,-0.7954395453082483,-1.586759392415182,-2.9640470186816614
-0.9995716253863733,-2.577771011983053,-1.2931187788592737,-0.7957270781146448,-1.5867350737201136,-2.963412586842672
-1.0001948515521448,-2.5779150168048304,-1.2927826086627405,-0.7958110014544886,-1.586783234273092,-2.962682310734884
-1.0016205946551722,-2.5782139937030237,-1.2920268217669886,-0.7962430159198206,-1.5867469946490687,-2.9613288084613245
-1.0023277441607874,-2.5784176031695765,-1.2917149702655237,-0.7964709440814417,-1.5865791479693812,-2.9606104532824915
-1.0029633680926722,-2.578573528920309,-1.2913067976581019,-0.7966144720660608,-1.5866273085223597,-2.9599877039538782
-1.003634277974264,-2.5787413755999964,-1.290994946156637,-0.7968185583697718,-1.586663548146383,-2.959221426640646
-1.0049884955035608,-2.579016987477438,-1.290358845387594,-0.7971304098712366,-1.5866511503802698,-2.9578803221331995
-1.0056598822223108,-2.579160515462057,-1.2899749914752405,-0.7971785704242151,-1.5865071455584925,-2.9571741263019007
-1.0062831083880823,-2.5793164412127894,-1.289722744618551,-0.7974179426776331,-1.5865071455584925,-2.9565632979022425
-1.0069182554828089,-2.5794480482684534,-1.2893393675433558,-0.7974541823016565,-1.5865910688983362,-2.9558566252337855
-1.0081890265094202,-2.5797117392169397,-1.2887027899371546,-0.797729794179098,-1.5865429083453577,-2.954611364995138
-1.0088122526751917,-2.579843823109762,-1.2884271780597132,-0.7980292479144495,-1.5864470640765589,-2.95400053659548
-1.0093629995929163,-2.5799997488604944,-1.2881153265582483,-0.798077408467428,-1.5863874594317835,-2.953425709401266
-1.0099261442767542,-2.5801551977740687,-1.2878149191485804,-0.7983291784869593,-1.5864833037005823,-2.9528027216540735
-1.011017147694723,-2.5803592840777796,-1.2872870604144495,-0.7985809485064905,-1.5863993803607386,-2.951677385960714
-1.0115326086627405,-2.5805028120623987,-1.2869628111468714,-0.798617188130514,-1.5864232222186487,-2.9511025587665003
-1.0120356718646448,-2.5806224981891077,-1.2867711226092737,-0.7987726370440882,-1.586231533681051,-2.9505515734301966
-1.0125635305987757,-2.5807064215289515,-1.2865431944476526,-0.7987726370440882,-1.5863874594317835,-2.9500847498523157
-1.013521973286764,-2.580886189137594,-1.2860272566424769,-0.7990487257586878,-1.5862434546100062,-2.94913894334902
-1.013989273701803,-2.580993954335348,-1.2857874075519007,-0.7991326490985315,-1.5862916151629847,-2.948684040700094
-1.0144208113299769,-2.5810659567462366,-1.2855833212481897,-0.799384895955221,-1.586111847554342,-2.94825250307192
-1.0148642698871058,-2.5811856428729456,-1.2853196302997034,-0.7994325796710413,-1.5862672964679163,-2.94776159921755
-1.0157035032855433,-2.581365410481588,-1.2849233786212366,-0.7996962706195276,-1.5860636870013636,-2.946911398564474
-1.0161469618426722,-2.581425491963522,-1.2847312132464808,-0.799959961568014,-1.5861714521991175,-2.9465044180499476
-1.0165422598468226,-2.5815447012530726,-1.2845032850848597,-0.7999361197101038,-1.585991684590475,-2.9461451212512415
-1.0169618765460413,-2.5816167036639612,-1.2842991987811487,-0.8001039663897913,-1.5861356894122522,-2.9457741419421595
-1.0176928679095667,-2.581796471272604,-1.2839987913714808,-0.8001635710345667,-1.58600360551943,-2.9449835459338587
-1.0180280844317835,-2.5818803946124476,-1.2838433424579065,-0.8003676573382776,-1.5861595312701624,-2.944636408482687
-1.0183876196490687,-2.5819523970233362,-1.2836874167071741,-0.800307575856344,-1.58600360551943,-2.9442768732654017
-1.0187714735614222,-2.5820120016681116,-1.283471409474508,-0.8003914991961878,-1.5860875288592737,-2.9439061323748987
-1.0193823019610804,-2.582179848347799,-1.2831714789019983,-0.8004997412310999,-1.5859559218036097,-2.9432831446277063
-1.019670311604635,-2.582263771687643,-1.2830150763141077,-0.8006075064288538,-1.5860875288592737,-2.9430199305163782
-1.0199340025531214,-2.582287613545553,-1.2828477064715784,-0.8006795088397425,-1.5859440008746546,-2.942756239567892
-1.0202339331256312,-2.5823238531695765,-1.282691780720846,-0.8007634321795862,-1.5860160032855433,-2.9424331823932093
-1.0208209196673792,-2.582503620778219,-1.2824156920062464,-0.8008711973773401,-1.585883919392721,-2.941822353993551
-1.0210488478290003,-2.582515541707174,-1.2823436895953577,-0.800967041646139,-1.5860279242144983,-2.941594664250509
-1.0213001410113733,-2.5825632254229944,-1.2821515242206019,-0.8009069601642054,-1.585895840321676,-2.941367212926046
-1.0215280691729944,-2.582611385975973,-1.2820552031146448,-0.801086727772848,-1.5859320799456995,-2.9411278406726282
-1.0219948927508753,-2.582719151173727,-1.281827751790182,-0.8011105696307581,-1.585776154194967,-2.940613094960348
-1.0221870581256312,-2.582742993031637,-1.2816713492022913,-0.8012664953814905,-1.5859797636615198,-2.940385405217306
-1.0224149862872522,-2.5827673117267054,-1.2815879026996058,-0.8012307325946253,-1.5858119169818323,-2.940241877232687
-1.0225709120379847,-2.5828869978534144,-1.2814915815936487,-0.8012426535235804,-1.5857999960528772,-2.940014187489645
-1.0229304472552698,-2.5829108397113245,-1.2813480536090296,-0.8014705816852015,-1.5857160727130335,-2.9397745768176478
-1.0230620543109339,-2.582959000264303,-1.2812278906451624,-0.8013985792743128,-1.585895840321676,-2.9396548906909388
-1.0231817404376429,-2.5830066839801233,-1.2812154928790491,-0.8016026655780237,-1.585776154194967,-2.939547125493185
-1.0233376661883753,-2.5830066839801233,-1.2811554113971155,-0.8014109770404261,-1.585764233266012,-2.9393673578845423
-1.0234816710101526,-2.583066765462057,-1.2810233275042933,-0.8015311400042933,-1.585752312337057,-2.939188067113058
-1.0235775152789515,-2.583054844533102,-1.2810714880572718,-0.801734749470846,-1.5859196821795862,-2.939188067113058
-1.0236371199237269,-2.583090607319967,-1.2810118834124964,-0.8016508261310022,-1.5857279936419886,-2.9390440622912806
-1.0236972014056605,-2.583102528248922,-1.2810233275042933,-0.8017109076129358,-1.5858119169818323,-2.9390082995044153
-1.0236852804767054,-2.583102528248922,-1.280987564717428,-0.8016989866839808,-1.5858238379107874,-2.9390321413623255
-1.0236013571368616,-2.5831144491778772,-1.2810233275042933,-0.8017109076129358,-1.585764233266012,-2.9390321413623255
-1.0236251989947718,-2.5831144491778772,-1.2810357252704065,-0.801734749470846,-1.5857999960528772,-2.9390321413623255
-1.0236371199237269,-2.583078686391012,-1.280999485646383,-0.8016865889178675,-1.5857880751239222,-2.93906814256777
-1.0236251989947718,-2.583090607319967,-1.2810233275042933,-0.8016989866839808,-1.5858119169818323,-2.9390562216388147
-1.0236251989947718,-2.583078686391012,-1.2810233275042933,-0.8016865889178675,-1.5857880751239222,-2.93906814256777
-1.0236614386187952,-2.583102528248922,-1.2810476461993616,-0.8016989866839808,-1.5857880751239222,-2.93906814256777
-1.0236132780658167,-2.5831144491778772,-1.2810357252704065,-0.8016865889178675,-1.5857999960528772,-2.9390440622912806
-1.0236371199237269,-2.583090607319967,-1.2810357252704065,-0.8016865889178675,-1.585776154194967,-2.939080063496725
-1.023649040852682,-2.583102528248922,-1.2810118834124964,-0.8017109076129358,-1.5857880751239222,-2.9390321413623255
-1.0236013571368616,-2.5831144491778772,-1.2810233275042933,-0.8016989866839808,-1.5858119169818323,-2.9390202204333704
-1.023649040852682,-2.583102528248922,-1.2810595671283167,-0.801734749470846,-1.585764233266012,-2.9390202204333704
-1.0236251989947718,-2.5831268469439905,-1.2810476461993616,-0.8017228285418909,-1.585764233266012,-2.9390082995044153
-1.0236132780658167,-2.583102528248922,-1.2810476461993616,-0.8017109076129358,-1.5858119169818323,-2.938984219227926
-1.0236251989947718,-2.583090607319967,-1.2810118834124964,-0.8017585913287562,-1.585776154194967,-2.9390440622912806
-1.0236013571368616,-2.5831144491778772,-1.2810476461993616,-0.8016989866839808,-1.585764233266012,-2.9390440622912806
-1.0236371199237269,-2.583102528248922,-1.2810118834124964,-0.8017228285418909,-1.585764233266012,-2.9390440622912806
-1.0236371199237269,-2.5831268469439905,-1.280999485646383,-0.8017109076129358,-1.5857999960528772,-2.9390440622912806
-1.0236251989947718,-2.5831144491778772,-1.2810233275042933,-0.8017585913287562,-1.585764233266012,-2.93906814256777
-1.0236251989947718,-2.583102528248922,-1.2810118834124964,-0.801734749470846,-1.5858238379107874,-2.9390202204333704
-1.0236251989947718,-2.583090607319967,-1.280999485646383,-0.8017228285418909,-1.5857999960528772,-2.93906814256777
-1.0236251989947718,-2.583078686391012,-1.2810118834124964,-0.8016865889178675,-1.585776154194967,-2.939080063496725
-1.0236132780658167,-2.5831268469439905,-1.2810714880572718,-0.8017228285418909,-1.585776154194967,-2.939092222844259
-1.023553196583883,-2.583102528248922,-1.2810595671283167,-0.801734749470846,-1.585764233266012,-2.9391279856311243
-1.0234454313861292,-2.583102528248922,-1.2811434904681605,-0.8016389052020472,-1.585764233266012,-2.939199511204855
-1.0233615080462855,-2.583090607319967,-1.2811434904681605,-0.8016389052020472,-1.5857999960528772,-2.9392595926867884
-1.0233376661883753,-2.583090607319967,-1.2811434904681605,-0.8015549818622034,-1.585752312337057,-2.939307514821188
-1.0232179800616663,-2.5830310026751917,-1.2812874952899378,-0.8015788237201136,-1.585776154194967,-2.9395111242877405
-1.02295428911318,-2.5830310026751917,-1.2813599745379847,-0.8015192190753382,-1.5857880751239222,-2.939667050038473
-1.0228222052203577,-2.582982842122213,-1.2814319769488733,-0.8013866583453577,-1.5857880751239222,-2.9397624174701136
-1.0226543585406702,-2.582982842122213,-1.2815397421466272,-0.8014109770404261,-1.5858119169818323,-2.939942185078756
-1.022510830556051,-2.5829346815692347,-1.281623665486471,-0.8013747374164026,-1.5857999960528772,-2.9400621096240442
-1.0221269766436976,-2.5828750769244593,-1.2818158308612269,-0.8012908140765589,-1.5858362356769007,-2.940421168004171
-1.0218990484820765,-2.582838837300436,-1.2819355169879358,-0.8011825720416468,-1.585871998463766,-2.940720860158102
-1.0216596762286585,-2.5827673117267054,-1.282067600880758,-0.8010628859149378,-1.5859440008746546,-2.9410319964038294
-1.0213483015643519,-2.582707230244772,-1.2822116057025355,-0.801086727772848,-1.585883919392721,-2.9412713686572474
-1.020797077809469,-2.5825756231891077,-1.28247577348818,-0.8008711973773401,-1.5859196821795862,-2.9418702761279505
-1.0204733053790491,-2.5824673811541956,-1.282691780720846,-0.8008230368243616,-1.585895840321676,-2.9422174135791224
-1.0201380888568323,-2.582383457814352,-1.2827995459186,-0.8006675879107874,-1.585991684590475,-2.942552630101339
-1.0198023954974573,-2.582275692616598,-1.2829673925982874,-0.8006914297686976,-1.5859797636615198,-2.942983929310934
-1.0190590063678187,-2.58203632036318,-1.2833274046527308,-0.8004754225360315,-1.5860636870013636,-2.9436307589160364
-1.0186994711505335,-2.581939999257223,-1.2835677305804651,-0.8004391829120081,-1.5859077612506312,-2.944073502217428
-1.0182440916644495,-2.5818684736834925,-1.2837474981891077,-0.8002594153033655,-1.5860517660724085,-2.9445164839373987
-1.0178726355182093,-2.5817726294146937,-1.2839511076556605,-0.800307575856344,-1.5860875288592737,-2.9449356237994593
-1.0169256369220179,-2.5815566221820276,-1.284419361745016,-0.8000920454608362,-1.5861476103412073,-2.9457979838000696
-1.016482178364889,-2.581485096608297,-1.284635368977682,-0.8000558058368128,-1.585991684590475,-2.9463489691363733
-1.0160029570208948,-2.581341568623678,-1.284875218068258,-0.7998641172992151,-1.5860517660724085,-2.946780029927389
-1.0155237356769007,-2.5812695662127894,-1.285079304371969,-0.7998521963702601,-1.5861595312701624,-2.9472346941577356
-1.014576260243551,-2.5810778776751917,-1.2855714003192347,-0.7996123472796839,-1.5861595312701624,-2.948216501866476
-1.0140612761126917,-2.5809338728534144,-1.285847012196676,-0.7994564215289515,-1.5860994497882288,-2.9487319628344935
-1.0135815779315394,-2.5808141867267054,-1.2860868612872522,-0.7993009726153772,-1.5860756079303187,-2.9491990248309534
-1.0130427519427698,-2.5807183424579065,-1.2863152662860315,-0.7991445700274866,-1.586231533681051,-2.949749533330099
-1.0120356718646448,-2.5804908911334437,-1.286891285573141,-0.798748795186178,-1.5862672964679163,-2.950731341038839
-1.0115326086627405,-2.5803831259356897,-1.2871673742877405,-0.7986410299884241,-1.586207691823141,-2.9512224833117884
-1.0110052267657679,-2.5802391211139124,-1.2874310652362269,-0.7985213438617151,-1.5861595312701624,-2.9517973105060022
-1.0104659239398401,-2.5800955931292933,-1.2876713911639612,-0.7983892599688929,-1.58632737794985,-2.952360216771261
-1.0093987623797815,-2.579855744038717,-1.2882831732379358,-0.7981131712542933,-1.5862672964679163,-2.9534736315356653
-1.0088360945331019,-2.5797117392169397,-1.2885831038104456,-0.7981131712542933,-1.5863154570208948,-2.9540603796588343
-1.0082967917071741,-2.5795562903033655,-1.2888944784747522,-0.7978494803058069,-1.586219612752096,-2.954599444066183
-1.0077574888812464,-2.579400364552633,-1.289159123097555,-0.7977536360370081,-1.5864113012896937,-2.9551621119128626
-1.0065706411944788,-2.5791247526751917,-1.2897709051715296,-0.797394100819723,-1.5863631407367151,-2.956371609364645
-1.0059593359576624,-2.5789807478534144,-1.2900708357440394,-0.7971666494952601,-1.5864470640765589,-2.9569342772113245
-1.0053604284869593,-2.57882529893984,-1.2903950850116175,-0.7970102469073694,-1.58632737794985,-2.9575212637530726
-1.0047372023211878,-2.578717056904928,-1.2907307783709925,-0.7967703978167933,-1.5865071455584925,-2.9580956141101282
-1.0034907499896448,-2.5783818403827112,-1.2914026419269007,-0.7964347044574183,-1.5864113012896937,-2.9593773523913782
-1.0028794447528284,-2.578237835560934,-1.2917264143573206,-0.7963746229754847,-1.5866029898272913,-2.9600356260882776
-1.0022318998919886,-2.5780466238604944,-1.2920392195331019,-0.7961352507220667,-1.5864470640765589,-2.96068245569338
-1.0015729109393519,-2.5779150168048304,-1.292410675679342,-0.7959907690631312,-1.5866273085223597,-2.9613528887378138
-1.0002430121051233,-2.5775912443744105,-1.2930949370013636,-0.7955954710589808,-1.5865910688983362,-2.9626463095294397
-0.9996674696551722,-2.577423874531881,-1.293466869984762,-0.795379940663473,-1.5866873900042933,-2.9633405844317835
-0.9989603201495569,-2.5772679487811487,-1.2937787214862269,-0.7952120939837855,-1.5865190664874476,-2.964022938405172
-0.9982650915728968,-2.5771001021014612,-1.2942102591144007,-0.7949960867511194,-1.5866993109332483,-2.9646578470813196
-0.9969108740435999,-2.5767887274371546,-1.2949307600604456,-0.7946603933917444,-1.5866273085223597,-2.9660711924182337
-0.996228043233053,-2.5765965620623987,-1.2952545324908655,-0.7945283094989222,-1.5867951552020472,-2.9667535463916224
-0.995556656514303,-2.5764291922198694,-1.295710865651266,-0.7943003813373011,-1.5866273085223597,-2.967435900365011
-0.9948251883136194,-2.576249424611227,-1.296046559010641,-0.7941325346576136,-1.5867951552020472,-2.9681785742389124
