youngblood1998/my_ws/src/ur5_platform/ur5_platform_manipulation/wzq/test4_13_6.csv
j0,j1,j2,j3,j4,j5
-0.6642339865313929,-2.505430523549215,-1.4675000349627894,-0.6991227308856409,-1.598133389149801,-3.3056603113757532
-0.6650484243976038,-2.505634133015768,-1.4670560995685022,-0.6993983427630823,-1.598013703023092,-3.304786268864767
-0.66589862505068,-2.5058258215533655,-1.4666364828692835,-0.6996024290667933,-1.5979417006122034,-3.3039358297931116
-0.6667378584491175,-2.5060413519488733,-1.4662287870990198,-0.6998422781573694,-1.598013703023092,-3.303061548863546
-0.667612377797262,-2.506221119557516,-1.4657962957965296,-0.7000578085528772,-1.5978215376483362,-3.3022354284869593
-0.6693137327777308,-2.5066164175616663,-1.4648726622210901,-0.7004054228412073,-1.5978215376483362,-3.300450865422384
-0.6703084150897425,-2.506820027028219,-1.464416805897848,-0.7005975882159632,-1.5977619330035608,-3.2995765844928187
-0.6712186972247522,-2.507035557423727,-1.4639371077166956,-0.7008011976825159,-1.597785774861471,-3.298677984868185
-0.672213379536764,-2.5072510878192347,-1.4634574095355433,-0.7010410467730921,-1.5975702444659632,-3.2977080980883997
-0.6742261091815394,-2.5077183882342737,-1.4624975363360804,-0.7016046682940882,-1.5974262396441858,-3.2956963221179407
-0.6752684752093714,-2.507970158253805,-1.4619935194598597,-0.7018564383136194,-1.5974744001971644,-3.294785801564352
-0.6762750784503382,-2.508245293294088,-1.4613936583148401,-0.7021201292621058,-1.5973542372332972,-3.2936719099627894
-0.6773412863360804,-2.508449379597799,-1.4608538786517542,-0.702371899281637,-1.5972583929644983,-3.2926421801196497
-0.679605786000387,-2.508988682423727,-1.4597738424884241,-0.7029717604266565,-1.5971387068377894,-3.2904024759875696
-0.6808040777789515,-2.509252373372213,-1.4591620604144495,-0.7032950560199183,-1.5971863905536097,-3.2892053763019007
-0.6819780508624476,-2.5095279852496546,-1.458574120198385,-0.7035592238055628,-1.597006622944967,-3.2880316416369837
-0.6832125822650355,-2.509838883076803,-1.4579747358905237,-0.7038467566119593,-1.5970547834979456,-3.2868574301349085
-0.6857164541827601,-2.510425869618551,-1.4567387739764612,-0.7044099012957972,-1.596875015889303,-3.2843547503100794
-0.6869505087481897,-2.5107854048358362,-1.4560664335833948,-0.7046735922442835,-1.5969107786761683,-3.2830851713763636
-0.6881969610797327,-2.5110729376422327,-1.45543080965151,-0.7050460020648401,-1.5966833273517054,-3.2817795912372034
-0.6894667784320276,-2.5113847891436976,-1.454782787953512,-0.7053697744952601,-1.5967791716205042,-3.2804983297931116
-0.692150894795553,-2.5119717756854456,-1.4533913771258753,-0.7060530821429651,-1.5965755621539515,-3.277863327656881
-0.6934927145587366,-2.512259308491842,-1.4526713530169886,-0.7064126173602503,-1.5965874830829065,-3.2765820662127894
-0.6948345343219202,-2.5125940481769007,-1.4520352522479456,-0.7067602316485804,-1.5963838736163538,-3.275276486073629
-0.6961649099933069,-2.5129058996783655,-1.4513395468341272,-0.7070601622210901,-1.5964916388141077,-3.273958985005514
-0.6988971869098108,-2.5135648886310022,-1.4499600569354456,-0.7076595465289515,-1.5962160269366663,-3.2711926142321985
-0.7002862135516565,-2.5138405005084437,-1.4492524305926722,-0.7079833189593714,-1.5962756315814417,-3.2698031107531946
-0.7016528288470667,-2.51412803331484,-1.448592487965719,-0.7083547751056116,-1.5960481802569788,-3.268402163182394
-0.7029946486102503,-2.514416042958395,-1.4478843847857874,-0.7086785475360315,-1.5961440245257776,-3.2670846621142786
-0.7056787649737757,-2.515038792287008,-1.4466245810138147,-0.7092545668231409,-1.5959761778460901,-3.2643781344043177
-0.7069724241839808,-2.5153377691852015,-1.4460127989398401,-0.7096264998065394,-1.5959041754352015,-3.263108793889181
-0.7082784811602991,-2.515613381062643,-1.445352856312887,-0.7099979559527796,-1.5956762472735804,-3.2617314497577112
-0.7095368544207972,-2.515949074422018,-1.4447291533099573,-0.7103574911700647,-1.5958078543292444,-3.260498110448019
-0.7120884100543421,-2.516536537800924,-1.4435175100909632,-0.7108967939959925,-1.5956762472735804,-3.257922951375143
-0.7133591810809534,-2.516859833394186,-1.4428332487689417,-0.7111967245685022,-1.5955684820758265,-3.2566893736468714
-0.7145927588092249,-2.5171473662005823,-1.4423177878009241,-0.7114847342120569,-1.5954964796649378,-3.2554202715503138
-0.7157672087298792,-2.5174229780780237,-1.4416816870318812,-0.7117961088763636,-1.5954726378070276,-3.254150692616598
-0.7180798689471644,-2.517949883137838,-1.4404576460467737,-0.7124198118792933,-1.5952685515033167,-3.251779381428854
-0.719302002583639,-2.5182374159442347,-1.4399178663836878,-0.7126954237567347,-1.5952208677874964,-3.2505815664874476
-0.7205365339862269,-2.518501106892721,-1.4393060843097132,-0.712959114705221,-1.5951131025897425,-3.2493959108935755
-0.7216866652118128,-2.5187047163592737,-1.4387419859515589,-0.7132466475116175,-1.5951607863055628,-3.2481983343707483
-0.7240827719317835,-2.519231621419088,-1.437554661427633,-0.7138827482806605,-1.5950172583209437,-3.245779339467184
-0.7252572218524378,-2.5194833914386194,-1.4369304815875452,-0.7141340414630335,-1.5948494116412562,-3.2445815245257776
-0.7264674345599573,-2.519770924245016,-1.4363186995135706,-0.7144101301776331,-1.5948012510882776,-3.2434678713427942
-0.7276657263385218,-2.520022694264547,-1.435694996510641,-0.7146738211261194,-1.5948250929461878,-3.2422342936145228
-0.7300618330584925,-2.52057391801943,-1.434531037007467,-0.7152612845050257,-1.5947173277484339,-3.2398033777820032
-0.7312606016742151,-2.520849053059713,-1.4339550177203577,-0.7155612150775355,-1.594597641621725,-3.238593641911642
-0.7324822584735315,-2.521148983632223,-1.433343235646383,-0.7158010641681116,-1.5945494810687464,-3.2373479048358362
-0.7337406317340296,-2.521388355885641,-1.4327190558062952,-0.716064755116598,-1.594597641621725,-3.236138407384054
-0.7362092177020472,-2.522011105214254,-1.4314597288714808,-0.7166879812823694,-1.594477955495016,-3.2336116472827356
-0.7374551931964319,-2.5222986380206507,-1.4308598677264612,-0.7170360724078577,-1.5943339506732386,-3.2323899904834192
-0.73871356645693,-2.5225866476642054,-1.430199925099508,-0.7173593680011194,-1.5942981878863733,-3.231156651173727
-0.7400434652911585,-2.522921864186422,-1.4295762220965784,-0.7175996939288538,-1.5942500273333948,-3.229887072240011
-0.7425954977618616,-2.52348500887026,-1.4282920996295374,-0.7181990782367151,-1.594142262135641,-3.227300469075338
-0.7439020315753382,-2.5237486998187464,-1.4276202360736292,-0.7185705343829554,-1.5939143339740198,-3.226018492375509
-0.7451956907855433,-2.524083916340963,-1.4269369284259241,-0.7189181486712855,-1.5939386526690882,-3.224700991307394
-0.7464903036700647,-2.5243714491473597,-1.4262526671039026,-0.7192538420306605,-1.5937469641314905,-3.2234438101397913
-0.7491496245013636,-2.5249584356891077,-1.4249690214740198,-0.7198656241046351,-1.593698803578512,-3.220797125493185
-0.750467602406637,-2.5252702871905726,-1.4242971579181116,-0.7202251593219202,-1.5934351126300257,-3.219527546559469
-0.7518218199359339,-2.5255096594439905,-1.4236367384540003,-0.7205851713763636,-1.5935428778277796,-3.2182939688311976
-0.7531397978412073,-2.5258334318744105,-1.423049275075094,-0.7209084669696253,-1.5934351126300257,-3.2170007864581507
-0.7557881514178675,-2.52639609972109,-1.421741787587301,-0.7215316931353968,-1.593351189290182,-3.214425865803854
-0.7570822874652308,-2.5266597906695765,-1.421081844960348,-0.7218440214740198,-1.5931356588946741,-3.213144365941183
-0.7584121862994593,-2.526923481618063,-1.420445744191305,-0.7221677939044397,-1.593231503163473,-3.2119107882129114
-0.7597182432757776,-2.5272348562823694,-1.419797722493307,-0.7224791685687464,-1.5930398146258753,-3.210569683705465
-0.7622469107257288,-2.527881924306051,-1.4185498396502894,-0.7231028715716761,-1.5929678122149866,-3.207994524632589
-0.7635405699359339,-2.5281336943255823,-1.4179380575763147,-0.7233904043780726,-1.592788044606344,-3.206653420125143
-0.7648590246783655,-2.528433148060934,-1.4173019568072718,-0.7237380186664026,-1.5928357283221644,-3.2053359190570276
-0.7661169211017054,-2.528756920491354,-1.416666332875387,-0.7240741888629358,-1.5927642027484339,-3.204054657612936
-0.7685731093036097,-2.529295269642965,-1.4153946081744593,-0.7245896498309534,-1.5926678816424769,-3.2015515009509485
-0.7698677221881312,-2.5295589605914515,-1.4148066679583948,-0.7249134222613733,-1.5924399534808558,-3.2002344767199915
-0.7710540930377405,-2.529822651539938,-1.41417104402651,-0.7252128759967249,-1.592572037373678,-3.1989648977862757
-0.7723000685321253,-2.530086342488424,-1.4135826269732874,-0.7254889647113245,-1.5922964254962366,-3.1977794806109827
-0.774792496358053,-2.5306738058673304,-1.412335220967428,-0.7261365095721644,-1.592224423085348,-3.1952765623675745
-0.7759907881366175,-2.530961338673727,-1.41168719926943,-0.7264364401446741,-1.5920804182635706,-3.194019142781393
-0.7772606054889124,-2.5312727133380335,-1.4110634962665003,-0.7267358938800257,-1.5921643416034144,-3.192737881337301
-0.7784350554095667,-2.5315478483783167,-1.4104636351214808,-0.727119270955221,-1.591888729725973,-3.191444222127096
-0.7809036413775843,-2.5321109930621546,-1.4092634359942835,-0.7277310530291956,-1.5918048063861292,-3.1890130678759974
-0.7821615378009241,-2.5324223677264612,-1.4086034933673304,-0.7279947439776819,-1.5917089621173304,-3.18776780763735
-0.7833841482745569,-2.5326502958880823,-1.4080517927752894,-0.7282946745501917,-1.591780964528219,-3.1865702311145228
-0.7846301237689417,-2.532961670552389,-1.4074519316302698,-0.7286303679095667,-1.5916250387774866,-3.185216728840963
-0.7871344725238245,-2.5335729757892054,-1.4062164465533655,-0.7291939894305628,-1.59166127840151,-3.1827736536609095
-0.7883928457843226,-2.533884350453512,-1.4055922667132776,-0.7295296827899378,-1.591445271168844,-3.1815641562091272
-0.7896269003497522,-2.534219566975729,-1.4049442450152796,-0.7298052946673792,-1.591553036366598,-3.1802948156939905
-0.7908971945392054,-2.5345309416400355,-1.4042962233172815,-0.7300809065448206,-1.591445271168844,-3.179049317036764
-0.7934377829181116,-2.5350821653949183,-1.4030364195453089,-0.7307527701007288,-1.5914095083819788,-3.1765103975879114
-0.7947433630572718,-2.535394016896383,-1.4023645559894007,-0.7310879866229456,-1.5912297407733362,-3.175265137349264
-0.795990292225973,-2.5357053915606897,-1.401752773915426,-0.7313163916217249,-1.5912178198443812,-3.1740196386920374
-0.797272030507223,-2.5360048452960413,-1.4010689894305628,-0.7316158453570765,-1.5912655035602015,-3.172666136418478
-0.7998960653888147,-2.5365799109088343,-1.39978534380068,-0.732250992451803,-1.591205898915426,-3.170187298451559
-0.8011668364154261,-2.536879364644186,-1.3992093245135706,-0.7326234022723597,-1.59098989168276,-3.1689656416522425
-0.802436653767721,-2.5371788183795374,-1.3985493818866175,-0.7329109350787562,-1.5908940474139612,-3.1676843802081507
-0.8037427107440394,-2.5375145117389124,-1.3979013601886194,-0.7332103888141077,-1.5909178892718714,-3.1664748827563685
-0.8062475363360804,-2.53805381456484,-1.3966658751117151,-0.7338579336749476,-1.5907862822162073,-3.16390043893923
-0.8075416723834437,-2.5383413473712366,-1.3960297743426722,-0.7342293898211878,-1.5907262007342737,-3.1626907030688685
-0.8087757269488733,-2.538628880177633,-1.3954179922686976,-0.7345288435565394,-1.5905826727496546,-3.1614092032061976
-0.809997860585348,-2.5389164129840296,-1.3947823683368128,-0.7347934881793421,-1.5904868284808558,-3.16014010110964
-0.8124540487872522,-2.5394914785968226,-1.3934863249408167,-0.7354167143451136,-1.5904505888568323,-3.1576128641711634
-0.8137491385089319,-2.539790932332174,-1.3929222265826624,-0.735692326222555,-1.5902469793902796,-3.156391207371847
-0.8149951140033167,-2.5400660673724573,-1.3922508398639124,-0.7360523382769983,-1.590295139943258,-3.1551459471331995
-0.8163130919085901,-2.5404017607318323,-1.3916266600238245,-0.7363517920123499,-1.590174976979391,-3.1538882891284388
-0.8188412825213831,-2.54094106355776,-1.3903668562518519,-0.736915413533346,-1.5901153723346155,-3.151409927998678
-0.8200872580157679,-2.5412405172931116,-1.3897069136248987,-0.7371795813189905,-1.589935604725973,-3.1501763502704065
-0.8213580290423792,-2.5415638128863733,-1.3890827337848108,-0.7375271956073206,-1.5899952093707483,-3.148966614400045
-0.822604004536764,-2.5418155829059046,-1.3884947935687464,-0.7378743330584925,-1.5898516813861292,-3.147649351750509
-0.8251565138446253,-2.5424025694476526,-1.3872111479388636,-0.738474194203512,-1.5897677580462855,-3.145146195088522
-0.8264268080340784,-2.542702023183004,-1.3865512053119105,-0.7387378851519983,-1.5896475950824183,-3.1438172499286097
-0.827648941670553,-2.543025795613424,-1.3859389464007776,-0.7390616575824183,-1.589635197316305,-3.142571989689962
-0.8289073149310511,-2.5433014074908655,-1.3853395620929163,-0.7393735090838831,-1.5895512739764612,-3.1413024107562464
-0.8314116636859339,-2.5438883940326136,-1.3841155211078089,-0.7399728933917444,-1.5894315878497522,-3.1387515703784388
-0.8326695601092737,-2.544164005910055,-1.3835037390338343,-0.7402604261981409,-1.5892398993121546,-3.137481991444723
-0.8339646498309534,-2.544427220021383,-1.3829038778888147,-0.7406085173236292,-1.5892637411700647,-3.1362367312060755
-0.8352106253253382,-2.5447147528277796,-1.3823517004596155,-0.7409442106830042,-1.5891440550433558,-3.135003153477804
-0.8377268950091761,-2.5453017393695276,-1.3811042944537562,-0.741591755543844,-1.5889881292926233,-3.132500712071554
-0.8389495054828089,-2.545589272175924,-1.380467716847555,-0.7418435255633753,-1.5888803640948694,-3.131207052861349
-0.8402312437640589,-2.545913044606344,-1.3798325697528284,-0.7421672979937952,-1.5888326803790491,-3.129925552998678
-0.8414180914508265,-2.5461648146258753,-1.3791726271258753,-0.7424185911761683,-1.5888083616839808,-3.1286683718310755
-0.8439586798297327,-2.5467518011676233,-1.3779361883746546,-0.7430661360370081,-1.5886648336993616,-3.1261654535876673
-0.8451927343951624,-2.547075096760885,-1.3772886435138147,-0.7433784643756312,-1.588485066090719,-3.1248958746539515
-0.8464511076556605,-2.54738694826235,-1.3766887823687952,-0.7436659971820276,-1.5885089079486292,-3.1235907713519495
-0.8477090040790003,-2.5476744810687464,-1.3760164419757288,-0.7439177672015589,-1.5884488264666956,-3.122369114552633
-0.8502734343158167,-2.5482609907733362,-1.3747933546649378,-0.7446249167071741,-1.5883291403399866,-3.1197825113879603
-0.8515556494342249,-2.548572842274801,-1.3741090933429163,-0.744948689137594,-1.5882094542132776,-3.1186330954181116
-0.852825943623678,-2.5488603750811976,-1.37352162996401,-0.7452123800860804,-1.5882332960711878,-3.1173394362079065
-0.8540962378131312,-2.549159828816549,-1.3728492895709437,-0.7454760710345667,-1.58801776567568,-3.116094175969259
-0.8565529028521937,-2.5497592131244105,-1.371577564870016,-0.7460396925555628,-1.5879696051227015,-3.1135311762439173
-0.8577993551837366,-2.5500105063067835,-1.3709777037249964,-0.7463753859149378,-1.5878737608539026,-3.11228591600527
-0.8590934912310999,-2.55029803911318,-1.3703654448138636,-0.7466753164874476,-1.5879576841937464,-3.1110406557666224
-0.8603156248675745,-2.5505617300616663,-1.3696816603290003,-0.7469990889178675,-1.5877540747271937,-3.1097710768329065
-0.8615978399859827,-2.5508368651019495,-1.3691061178790491,-0.7472627798663538,-1.5878256003009241,-3.108537737523214
-0.8641145865069788,-2.5513880888568323,-1.3678458372699183,-0.7479465643512171,-1.5876100699054163,-3.1059985796557825
-0.8653243223773401,-2.551688019429342,-1.367162052785055,-0.7482579390155237,-1.58769399324526,-3.1047893206225794
-0.8666194120990198,-2.5519755522357386,-1.3665383497821253,-0.7485216299640101,-1.5874903837787073,-3.1034961382495325
-0.869171444569723,-2.552514378224508,-1.3652785460101526,-0.7491334120379847,-1.5874183813678187,-3.100992981587545
-0.8704178969012659,-2.552742306386129,-1.364582363759176,-0.7494567076312464,-1.5874422232257288,-3.0997117201434534
-0.8716281096087855,-2.5530417601214808,-1.3639705816852015,-0.7497447172748011,-1.5872743765460413,-3.09847861925234
-0.8729222456561487,-2.5533531347857874,-1.3633225599872034,-0.7500689665423792,-1.5873106161700647,-3.0972209612475794
-0.8754389921771448,-2.553892437611715,-1.3621113936053675,-0.7506440321551722,-1.5870826880084437,-3.09479004541506
-0.8766492048846644,-2.5541918913470667,-1.3614628950702112,-0.750955883656637,-1.5869987646686,-3.0935445467578333
-0.8779557386981409,-2.554455582295553,-1.3608391920672815,-0.751291577016012,-1.5869148413287562,-3.0923591295825403
-0.879214111958639,-2.5547431151019495,-1.3601916472064417,-0.7516630331622522,-1.5868552366839808,-3.0910776297198694
-0.8817060629474085,-2.5553062597857874,-1.3589790503131312,-0.7522271315204065,-1.5866754690753382,-3.0885866324054163
-0.8829763571368616,-2.555581871663229,-1.3583558241473597,-0.752514664326803,-1.586567227040426,-3.0874014536487024
-0.8842108885394495,-2.5558932463275355,-1.3577073256122034,-0.752850357686178,-1.5865309874164026,-3.086155716572897
-0.8854692617999476,-2.5561326185809534,-1.3570950667010706,-0.7531378904925745,-1.5864713827716272,-3.084886614476339
-0.8880217711078089,-2.5567320028888147,-1.3558600584613245,-0.7537973562823694,-1.5863631407367151,-3.0823233763324183
-0.8893044630633753,-2.557007614766256,-1.3552716414081019,-0.7540729681598108,-1.5862792173968714,-3.081078592930929
-0.8905261198626917,-2.557211224232809,-1.3545997778521937,-0.7543852964984339,-1.5861595312701624,-3.079809013997213
-0.8918083349810999,-2.5575345198260706,-1.3539641539203089,-0.754732910786764,-1.5861595312701624,-3.0784438292132776
-0.8942773977862757,-2.558133904133932,-1.3526800314532679,-0.7553561369525355,-1.58600360551943,-3.0759649912463587
-0.8956196943866175,-2.5583975950824183,-1.3520682493792933,-0.7556436697589319,-1.5860160032855433,-3.0746596495257776
-0.8968537489520472,-2.558708969746725,-1.351396385823385,-0.7559197584735315,-1.585895840321676,-3.073390309010641
-0.8981359640704554,-2.558984104787008,-1.3508079687701624,-0.7562435309039515,-1.5858238379107874,-3.07213265100588
-0.9007366339312952,-2.5595954100238245,-1.349548641835348,-0.7568553129779261,-1.5855963865863245,-3.0695703665362757
-0.9020069281207483,-2.559894863759176,-1.3488886992083948,-0.7571190039264124,-1.5856683889972132,-3.068288866673605
-0.9032653013812464,-2.5602062384234827,-1.348264519368307,-0.757430378590719,-1.5854767004596155,-3.0669952074633997
-0.9045355955706995,-2.5604823271380823,-1.347605053578512,-0.7577183882342737,-1.5855005423175257,-3.065702501927511
-0.9070761839496058,-2.5610812346087855,-1.3463566938983362,-0.7584617773639124,-1.5853326956378382,-3.0631516615497034
-0.9083460013019007,-2.5613930861102503,-1.3457453886615198,-0.7587497870074671,-1.585296932850973,-3.0618346373187464
-0.9096525351153772,-2.5616796652423304,-1.345240894948141,-0.7590730826007288,-1.5851171652423304,-3.060504976903097
-0.9109109083758753,-2.561991516743795,-1.3445571104632776,-0.7593372503863733,-1.5851648489581507,-3.05921179453005
-0.9134991804706019,-2.562650505696432,-1.343297306691305,-0.7600081602679651,-1.584961239491598,-3.0566850344287317
-0.9148057142840784,-2.562890354787008,-1.3426249662982386,-0.7603681723224085,-1.584961239491598,-3.0553558508502405
-0.9160397688495081,-2.5632017294513147,-1.341989819203512,-0.7606080214129847,-1.584841553364889,-3.0540743509875696
-0.9173463026629847,-2.5634892622577112,-1.341353718434469,-0.7609193960772913,-1.5847695509540003,-3.0527928511248987
-0.9198749701129358,-2.5640528837787073,-1.340069595967428,-0.7616151014911097,-1.5846737066852015,-3.05019456544985
-0.9211214224444788,-2.5643160978900355,-1.3394339720355433,-0.7619150320636194,-1.5846975485431116,-3.0489488283740442
-0.9223673979388636,-2.5646031538592737,-1.338785473500387,-0.762214485798971,-1.5845897833453577,-3.0476921240436
-0.9236376921283167,-2.5649026075946253,-1.3381980101214808,-0.7625139395343226,-1.584517780934469,-3.0464463869677942
-0.9262021223651331,-2.5655139128314417,-1.336926285420553,-0.7631138006793421,-1.5843499342547815,-3.043943707142965
-0.9274128119098108,-2.565801445637838,-1.3363378683673304,-0.7634256521808069,-1.5844338575946253,-3.0426862875567835
-0.9286235014544886,-2.5660770575152796,-1.3356903235064905,-0.7637375036822718,-1.5842302481280726,-3.0415127913104456
-0.9298575560199183,-2.5664008299456995,-1.335090462361471,-0.763989273701803,-1.5843141714679163,-3.0403268972979944
-0.9322784582721155,-2.566916290913717,-1.3339384237872522,-0.7646124998675745,-1.584182087575094,-3.03788406053652
-0.9334529081927698,-2.5672152678119105,-1.3333266417132776,-0.7649362722979944,-1.584038559590475,-3.0366507212268274
-0.9346755186664026,-2.567502800618307,-1.3327625433551233,-0.7652962843524378,-1.584038559590475,-3.035513464604513
-0.935861889516012,-2.5677903334247034,-1.3321026007281702,-0.7656081358539026,-1.5838468710528772,-3.0342798868762415
-0.9382227102862757,-2.5683534781085413,-1.3309748808490198,-0.7660635153399866,-1.5837386290179651,-3.031968418751852
-0.9394453207599085,-2.5686171690570276,-1.3303149382220667,-0.7664111296283167,-1.5837028662311,-3.030771080647604
-0.940643612538473,-2.568904701863424,-1.329726521168844,-0.766674820576803,-1.5836189428912562,-3.0295735041247767
-0.9418781439410608,-2.5691445509540003,-1.3291028181659144,-0.7669504324542444,-1.583498779927389,-3.0284836927997034
-0.9443467299090784,-2.569719139729635,-1.3278430143939417,-0.7675984541522425,-1.5833547751056116,-3.026029173527853
-0.9455812613116663,-2.5699947516070765,-1.3272669951068323,-0.767885986958639,-1.5832708517657679,-3.0249152819262903
-0.9467914740191858,-2.570282761250631,-1.3266432921039026,-0.7681978384601038,-1.5832112471209925,-3.023681942616598
-0.9480498472796839,-2.570606056843893,-1.3260191122638147,-0.7685216108905237,-1.5831392447101038,-3.0224724451648157
-0.9505303541766565,-2.571181122456686,-1.3247717062579554,-0.7691329161273401,-1.5830071608172815,-3.0199220816241663
-0.9517167250262659,-2.5714924971209925,-1.324183766041891,-0.7693846861468714,-1.5829475561725062,-3.018712345753805
-0.9529393354998987,-2.571780029927389,-1.3235591093646448,-0.7697084585772913,-1.5829475561725062,-3.017430845891134
-0.9542215506183069,-2.5720799604998987,-1.3229239622699183,-0.7699845472918909,-1.5828874746905726,-3.0161739031421106
-0.9567025343524378,-2.5726307074176233,-1.3217714468585413,-0.7705839315997522,-1.5827797094928187,-3.0137067476855677
-0.9578889052020472,-2.572942558919088,-1.3211358229266565,-0.7709077040301722,-1.582719628010885,-3.0124853293048304
-0.9590757528888147,-2.57326585451235,-1.3205722014056605,-0.7711952368365687,-1.5826237837420862,-3.0113120714770716
-0.9602978865252894,-2.5735533873187464,-1.319996182118551,-0.7714350859271448,-1.5826476255999964,-3.0100184122668665
-0.9626343886004847,-2.574045006428854,-1.3188441435443323,-0.772095028554098,-1.5824678579913538,-3.0076475779162806
-0.9638093153582972,-2.5743563810931605,-1.3182924429522913,-0.7724064032184046,-1.5824678579913538,-3.006509844456808
-0.9649480024920862,-2.5746315161334437,-1.3177045027362269,-0.7726939360248011,-1.5822880903827112,-3.005348507558004
-0.9660504500018519,-2.5748475233661097,-1.3171280066119593,-0.7729099432574671,-1.5822880903827112,-3.004246536885397
-0.9682191053973597,-2.575350586568014,-1.316024128590719,-0.773353401814596,-1.5821922461139124,-3.002019468938009
-0.9692500273333948,-2.575589958821432,-1.3154967466937464,-0.7736409346209925,-1.5820005575763147,-3.000929657612936
-0.9703167120562952,-2.5757816473590296,-1.3149922529803675,-0.7738812605487269,-1.5820124785052698,-2.9999356905566614
-0.9713118712054651,-2.5759976545916956,-1.3145125547992151,-0.7741931120501917,-1.5818927923785608,-2.9988818804370325
-0.9732535521136683,-2.5764649550067347,-1.313504997883932,-0.7746604124652308,-1.5818207899676722,-2.9970017115222376
-0.9742119948016565,-2.5766566435443323,-1.3131087462054651,-0.7748644987689417,-1.581689182912008,-2.996079746876852
-0.9750865141498011,-2.57682449022402,-1.312676731740133,-0.7750805060016077,-1.581808869038717,-2.9951821009265345
-0.9759495894061487,-2.5770280996905726,-1.312232796345846,-0.7753317991839808,-1.581473175679342,-2.9943674246417444
-0.977579418812887,-2.577411476765768,-1.3114288488971155,-0.7757633368121546,-1.5815094153033655,-2.9927268663989466
-0.9782865683185022,-2.5776036421405237,-1.3110211531268519,-0.7759311834918421,-1.5815094153033655,-2.991936508809225
-0.9791014830218714,-2.577747170125143,-1.310601059590475,-0.776038948689596,-1.581473175679342,-2.991242233906881
-0.9797490278827112,-2.5779030958758753,-1.3103130499469202,-0.7762430349933069,-1.5813773314105433,-2.9904757181750696
-0.9811032454120081,-2.5782139937030237,-1.3096407095538538,-0.7765310446368616,-1.5813177267657679,-2.989134136830465
-0.981786076222555,-2.5784056822406214,-1.3093050161944788,-0.776686970387594,-1.581341568623678,-2.9884281794177454
-0.9824093023883265,-2.578573528920309,-1.3089693228351038,-0.7768309752093714,-1.5812814871417444,-2.9878533522235315
-0.9831169287310999,-2.578728977833883,-1.3086689154254358,-0.7770345846759241,-1.5811737219439905,-2.987182680760519
-0.9843867460833948,-2.579028908406393,-1.308009449635641,-0.7773225943194788,-1.581113640462057,-2.985936943684713
-0.9849980513202112,-2.579136673604147,-1.3077572027789515,-0.7773821989642542,-1.5811498800860804,-2.9852307478534144
-0.9856093565570276,-2.579280678425924,-1.3074091116534632,-0.7776578108416956,-1.5811498800860804,-2.984596316014425
-0.9862564245807093,-2.5794604460345667,-1.3070977369891565,-0.7776578108416956,-1.5809701124774378,-2.984009329472677
-0.9875505606280726,-2.5796878973590296,-1.3064611593829554,-0.7779219786273401,-1.581017796193258,-2.9827516714679163
-0.9881742636310022,-2.5799034277545374,-1.3061135450946253,-0.7781613508807581,-1.5809219519244593,-2.982093397771017
-0.9888213316546839,-2.5800235907184046,-1.3058255354510706,-0.778149429951803,-1.5810421148883265,-2.9814465681659144
-0.9894564787494105,-2.5801671187030237,-1.3054655233966272,-0.7784135977374476,-1.580874268208639,-2.980799738560812
-0.9907506147967737,-2.5804789702044886,-1.3047574202166956,-0.7786772886859339,-1.580886189137594,-2.97949463525881
-0.9914339224444788,-2.5806105772601526,-1.3044455687152308,-0.7788332144366663,-1.5807421843158167,-2.9788602034198206
-0.9920929113971155,-2.580766026173727,-1.3041217962848108,-0.7791088263141077,-1.5808623472796839,-2.9781296888934534
-0.9927762190448206,-2.5809338728534144,-1.303725544606344,-0.7792885939227503,-1.5807302633868616,-2.977506701146261
-0.9941547552691858,-2.5811737219439905,-1.3030536810504358,-0.7796247641192835,-1.5807302633868616,-2.9761176745044153
-0.9948371092425745,-2.581353489552633,-1.3026459852801722,-0.7798283735858362,-1.5806344191180628,-2.975459400807516
-0.9955328146563929,-2.5814970175372522,-1.302321736012594,-0.7798641363727015,-1.5807064215289515,-2.974776569996969
-0.9962037245379847,-2.5816405455218714,-1.301986042653219,-0.7800682226764124,-1.5805743376361292,-2.9741418997394007
-0.9975460211383265,-2.5819523970233362,-1.3013141790973108,-0.780367676411764,-1.5805986563311976,-2.972741190587179
-0.9982293287860315,-2.5821078459369105,-1.301037613545553,-0.7804997603045862,-1.5804784933673304,-2.9721184412585657
-0.9989002386676233,-2.582263771687643,-1.3006184736834925,-0.7807515303241175,-1.5805867354022425,-2.9713638464557093
-0.9995954672442835,-2.582395855580465,-1.3003180662738245,-0.7808712164508265,-1.5804064909564417,-2.970740858708517
-1.0008423964129847,-2.5826833883868616,-1.2996581236468714,-0.7812073866473597,-1.5803826490985315,-2.969532076512472
-1.0014413038836878,-2.5828149954425257,-1.29938251176943,-0.7815068403827112,-1.580346409474508,-2.968957249318258
-1.002064053212301,-2.5829947630511683,-1.2990458647357386,-0.7814591566668909,-1.580346409474508,-2.9682984987842005
-1.0026639143573206,-2.5831387678729456,-1.2987578550921839,-0.7816751638995569,-1.580214802418844,-2.967675511037008
-1.003838364277975,-2.583413902913229,-1.2981460730182093,-0.7819388548480433,-1.5801308790790003,-2.966574255620138
-1.004449192677633,-2.583533589039938,-1.2979305426227015,-0.7820943037616175,-1.5802624861346644,-2.9660473505603235
-1.0050132910357874,-2.5837376753436487,-1.2976306120501917,-0.782262150441305,-1.5800707975970667,-2.96549636522402
-1.005575958882467,-2.5838454405414026,-1.297377888356344,-0.7824061552630823,-1.5801666418658655,-2.964933458958761
-1.006594483052389,-2.5840848127948206,-1.2968981901751917,-0.7826817671405237,-1.579998795186178,-2.9638920466052454
-1.0070861021624964,-2.5841811339007776,-1.2966588179217737,-0.7827418486224573,-1.5800231138812464,-2.963376585637228
-1.0075658003436487,-2.5842769781695765,-1.296406094227926,-0.7829697767840784,-1.5798552672015589,-2.9628737608539026
-1.008068863545553,-2.5843847433673304,-1.2962263266192835,-0.7829096953021448,-1.579986874257223,-2.962430540715353
-1.0089438597308558,-2.584576431904928,-1.295722786580221,-0.7831013838397425,-1.5799148718463343,-2.961484734212057
-1.0093510786639612,-2.584672276173727,-1.295542065297262,-0.783365551625387,-1.5797951857196253,-2.9610779921161097
-1.0098183790790003,-2.584803883229391,-1.2953622976886194,-0.7832697073565882,-1.5798071066485804,-2.960658375416891
-1.0101903120623987,-2.5848639647113245,-1.2951343695269983,-0.7834256331073206,-1.5797951857196253,-2.9602633158313196
-1.011017147694723,-2.5850794951068323,-1.2947385946856897,-0.7835333983050745,-1.5798071066485804,-2.9594247976886194
-1.011352841054098,-2.5851157347308558,-1.294570271168844,-0.7837250868426722,-1.5796635786639612,-2.959113661442892
-1.0116522947894495,-2.5852234999286097,-1.2944143454181116,-0.7837250868426722,-1.5797832647906702,-2.9587186018573206
-1.0120719114886683,-2.5853188673602503,-1.2941744963275355,-0.783917252217428,-1.5797112623797815,-2.9583235422717493
-1.0126951376544397,-2.5854628721820276,-1.2938268820392054,-0.7840250174151819,-1.57975942293276,-2.957593027745382
-1.0130308310138147,-2.585498634968893,-1.2937305609332483,-0.7841928640948694,-1.5795553366290491,-2.9572816530810755
-1.0133546034442347,-2.5855944792376917,-1.2935383955584925,-0.7841690222369593,-1.57975942293276,-2.9570422808276575
-1.013653580342428,-2.58564263979067,-1.2933467070208948,-0.7843964735614222,-1.5796154181109827,-2.9568026701556605
-1.0142529646502894,-2.5857985655414026,-1.2930586973773401,-0.7844446341144007,-1.579651180897848,-2.9561918417560022
-1.0145404974566858,-2.5857742468463343,-1.2929390112506312,-0.7845166365252894,-1.5795076529132288,-2.9558804670916956
-1.0148046652423304,-2.585858170186178,-1.2928426901446741,-0.7845166365252894,-1.5796392599688929,-2.95556885400881
-1.0150440374957483,-2.585942093526022,-1.292626682912008,-0.7846601645099085,-1.5795796553241175,-2.9552937189685267
-1.015559498463766,-2.5860255400287073,-1.2923863569842737,-0.784708325062887,-1.5796273390399378,-2.954827133809225
-1.015799347554342,-2.5860379377948206,-1.2922428289996546,-0.7847679297076624,-1.5794356505023401,-2.9545634428607386
-1.016026798878805,-2.586073700581686,-1.292182747517721,-0.784828011189596,-1.5796154181109827,-2.9543595949756067
-1.0162184874164026,-2.586109463368551,-1.2920869032489222,-0.7848637739764612,-1.5794957319842737,-2.9541202227221888
-1.0166023413287562,-2.5862534681903284,-1.2918947378741663,-0.784947697316305,-1.5795553366290491,-2.953784767781393
-1.0168059507953089,-2.5862415472613733,-1.2918108145343226,-0.7851279417621058,-1.5793755690204065,-2.953677241002218
-1.0169256369220179,-2.5863011519061487,-1.2917388121234339,-0.7849600950824183,-1.579531494771139,-2.9535096327411097
-1.0171173254596155,-2.586325470601217,-1.2916424910174769,-0.7851880232440394,-1.5794714132892054,-2.9534016291247767
-1.01735765138735,-2.5863493124591272,-1.2916067282306116,-0.7851160208331507,-1.5794957319842737,-2.9531503359424036
-1.0174534956561487,-2.586433235798971,-1.2915223280536097,-0.7851761023150843,-1.5793879667865198,-2.95306641260256
-1.0175612608539026,-2.586409393941061,-1.2914984861956995,-0.7850678602801722,-1.5794475714312952,-2.9528866449939173
-1.0176451841937464,-2.5863850752459925,-1.2914746443377894,-0.7852719465838831,-1.57941180864443,-2.952874724064962
-1.0177648703204554,-2.586445156727926,-1.2914627234088343,-0.7853077093707483,-1.5794475714312952,-2.952695433293478
-1.0176809469806116,-2.586457077656881,-1.2914865652667444,-0.7850921789752405,-1.579292122517721,-2.952719036732809
-1.0176566282855433,-2.586445156727926,-1.2914627234088343,-0.7853558699237269,-1.5794475714312952,-2.9527068773852747
-1.0176451841937464,-2.586457077656881,-1.2915104071246546,-0.7852476278888147,-1.5793879667865198,-2.9527788797961634
-1.0176094214068812,-2.5864809195147913,-1.2914984861956995,-0.7853196302997034,-1.579399887715475,-2.952730957661764
-1.0175970236407679,-2.586445156727926,-1.291534725819723,-0.7852719465838831,-1.579399887715475,-2.952730957661764
-1.0176685492144983,-2.586457077656881,-1.2914984861956995,-0.7853077093707483,-1.579399887715475,-2.952754799519674
-1.0176451841937464,-2.586433235798971,-1.2914984861956995,-0.7853196302997034,-1.579399887715475,-2.952742878590719
-1.0176685492144983,-2.5864809195147913,-1.2915223280536097,-0.7852957884417933,-1.5793879667865198,-2.952742878590719
-1.0176332632647913,-2.586457077656881,-1.2914627234088343,-0.7852838675128382,-1.579423729573385,-2.9527669588672083
-1.0176332632647913,-2.5864689985858362,-1.2915223280536097,-0.7852957884417933,-1.57941180864443,-2.952754799519674
-1.0176566282855433,-2.586445156727926,-1.2914984861956995,-0.7852719465838831,-1.57941180864443,-2.9527669588672083
-1.0176566282855433,-2.586445156727926,-1.2914984861956995,-0.7852957884417933,-1.5793755690204065,-2.952754799519674
-1.0176451841937464,-2.586433235798971,-1.2914865652667444,-0.7852838675128382,-1.579423729573385,-2.9527068773852747
-1.0176685492144983,-2.586433235798971,-1.2914984861956995,-0.7852957884417933,-1.57941180864443,-2.952730957661764
-1.0176685492144983,-2.586445156727926,-1.2915104071246546,-0.7853077093707483,-1.579399887715475,-2.952695433293478
-1.0176332632647913,-2.5864933172809046,-1.2915223280536097,-0.7853196302997034,-1.579399887715475,-2.952754799519674
-1.0176451841937464,-2.586457077656881,-1.2915104071246546,-0.7853315512286585,-1.5793879667865198,-2.952742878590719
-1.0176213423358362,-2.5864809195147913,-1.2914746443377894,-0.7853558699237269,-1.57941180864443,-2.952730957661764
-1.0176451841937464,-2.5865052382098597,-1.2914627234088343,-0.7852957884417933,-1.57941180864443,-2.952754799519674
-1.0176213423358362,-2.586433235798971,-1.2915104071246546,-0.7853558699237269,-1.57941180864443,-2.952742878590719
-1.0176451841937464,-2.586445156727926,-1.291534725819723,-0.7853315512286585,-1.579399887715475,-2.9527669588672083
-1.0176566282855433,-2.5864809195147913,-1.291534725819723,-0.7853196302997034,-1.579399887715475,-2.952742878590719
-1.0175970236407679,-2.5864809195147913,-1.291546646748678,-0.7853196302997034,-1.5793879667865198,-2.9528027216540735
-1.0175612608539026,-2.5864933172809046,-1.291558567677633,-0.7853315512286585,-1.5793755690204065,-2.9528148810016077
-1.0175135771380823,-2.586433235798971,-1.291546646748678,-0.7852957884417933,-1.579399887715475,-2.952958647404806
-1.0174172560321253,-2.586457077656881,-1.29163104692568,-0.7852357069598597,-1.579423729573385,-2.9530184904681605
-1.01735765138735,-2.586445156727926,-1.2916906515704554,-0.7851999441729944,-1.57941180864443,-2.9530304113971155
-1.0170934836017054,-2.586445156727926,-1.291750733052389,-0.7851999441729944,-1.579423729573385,-2.9532342592822474
-1.0170095602618616,-2.586433235798971,-1.2918227354632776,-0.7851761023150843,-1.57941180864443,-2.953425709401266
-1.0168417135821741,-2.5863850752459925,-1.2918947378741663,-0.7850559393512171,-1.57941180864443,-2.9535096327411097
-1.0167339483844202,-2.5863731543170374,-1.2920029799090784,-0.7850559393512171,-1.57941180864443,-2.9537013212787073
-1.0163386503802698,-2.586337391530172,-1.292182747517721,-0.7849600950824183,-1.5794957319842737,-2.95400053659548
-1.0160988012896937,-2.586337391530172,-1.2923625151263636,-0.7849238554583948,-1.5795076529132288,-2.9541922251330774
-1.0158589521991175,-2.5862653891192835,-1.2924345175372522,-0.7849000136004847,-1.5795195738421839,-2.9544554392444056
-1.0156195799456995,-2.5861695448504847,-1.2925546805011194,-0.7848041693316858,-1.5795677343951624,-2.9546831289874476
-1.0150921980487269,-2.5860617796527308,-1.2928426901446741,-0.7847202459918421,-1.579531494771139,-2.9552817980395716
-1.014780346547262,-2.58596641222109,-1.2929986158954065,-0.7846244017230433,-1.5795677343951624,-2.955592934285299
-1.0144804159747522,-2.5859301725970667,-1.2931426207171839,-0.7846959272967737,-1.579543415700094,-2.9558923880206507
-1.014120880757467,-2.585846249257223,-1.29335862794985,-0.7845166365252894,-1.579543415700094,-2.956287686024801
-1.0134380499469202,-2.5856545607196253,-1.2937186400042933,-0.7843845526324671,-1.5795796553241175,-2.9570182005511683
-1.01306659380068,-2.585510555897848,-1.2939227263080042,-0.7843607107745569,-1.5796754995929163,-2.95734149614443
-1.0126832167254847,-2.5854390303241175,-1.2941144148456019,-0.7842286268817347,-1.5796993414508265,-2.9576411882983606
-1.0122516790973108,-2.5853307882892054,-1.2943065802203577,-0.7840607802020472,-1.5796874205218714,-2.958060089741842
-1.0114124456988733,-2.5850918928729456,-1.2947748343097132,-0.7838090101825159,-1.5796392599688929,-2.9589577356921595
-1.0109570662127894,-2.5849717299090784,-1.2949307600604456,-0.783820931111471,-1.5796993414508265,-2.9594011942492884
-1.0104778448687952,-2.5848639647113245,-1.2951825300799769,-0.7836054007159632,-1.579747502003805,-2.9598923365222376
-1.0100582281695765,-2.5847442785846155,-1.295434300099508,-0.7836054007159632,-1.5798190275775355,-2.960395161305563
-1.0091350714312952,-2.584480587636129,-1.2958663145648401,-0.783365551625387,-1.5798309485064905,-2.9613049666034144
-1.0086324850665491,-2.5844324270831507,-1.2961543242083948,-0.7831614653216761,-1.5798552672015589,-2.96175986925234
-1.0081647078143519,-2.5842888990985315,-1.296382252370016,-0.7831013838397425,-1.5798309485064905,-2.9622512499438685
-1.0076735655414026,-2.5841568152057093,-1.2966702620135706,-0.7829459349261683,-1.5799029509173792,-2.9627183119403284
-1.0066903273211878,-2.5839293638812464,-1.2971623579608362,-0.7827656904803675,-1.5799630323993128,-2.963724199925558
-1.0061753431903284,-2.583785359059469,-1.2974379698382776,-0.7826698462115687,-1.580010716115133,-2.9642027060138147
-1.0056598822223108,-2.583653752003805,-1.2977259794818323,-0.7825740019427698,-1.5799749533282679,-2.9647417704211634
-1.0051091353045862,-2.5835097471820276,-1.2980383078204554,-0.7823823134051722,-1.5800469557391565,-2.9652567545520228
-1.0040658156024378,-2.5832584539996546,-1.298518482838766,-0.7820585409747522,-1.5801070372210901,-2.9663224856006067
-1.0034788290606897,-2.583102528248922,-1.2988303343402308,-0.7819026152240198,-1.5802267233477991,-2.966813389454977
-1.002927605305807,-2.582970921193258,-1.299094025288717,-0.7817109266864222,-1.5801785627948206,-2.9673998991595667
-1.0023639837848108,-2.5828149954425257,-1.2993701140033167,-0.7815430800067347,-1.5801904837237757,-2.967891041432516
-1.001213852559225,-2.5825513044940394,-1.2999938170062464,-0.7812431494342249,-1.5802386442767542,-2.969100538884298
-1.000662628804342,-2.58240777650942,-1.3003304640399378,-0.7810395399676722,-1.5803583304034632,-2.9696036020862024
-1.0000627676593226,-2.5822280089007776,-1.3006184736834925,-0.7809913794146937,-1.580334488545553,-2.970154110585348
-0.9995353857623499,-2.5820959250079554,-1.3009656111346644,-0.7807276884662073,-1.5803702513324183,-2.9708009401904505
-0.9983132521258753,-2.5817726294146937,-1.3015654722796839,-0.7804034391986292,-1.580454174672262,-2.9719865957843226
-0.9977019468890589,-2.5816524664508265,-1.301877800618307,-0.780247990285055,-1.580454174672262,-2.97264534631838
-0.9970787207232874,-2.581485096608297,-1.3022139708148401,-0.7800200621234339,-1.580550495778219,-2.97325569788088
-0.9964554945575159,-2.5813172499286097,-1.30251390138735,-0.7798283735858362,-1.5805266539203089,-2.9738546053515833
-0.9951728026019495,-2.581017796193258,-1.3031976858722132,-0.7795408407794397,-1.5806344191180628,-2.9751597086535853
-0.9944899717914026,-2.580886189137594,-1.3035815397845667,-0.7793844381915491,-1.5805986563311976,-2.975830618535177
-0.993842903767721,-2.580754105244772,-1.3038695494281214,-0.7792885939227503,-1.5807183424579065,-2.976452891026632
-0.993148152028219,-2.5805748144732874,-1.3042176405536097,-0.7790849844561976,-1.5807302633868616,-2.9771836439715784
-0.9917815367328089,-2.580311123524801,-1.3049734274493616,-0.7786648909198206,-1.580886189137594,-2.9785247484790247
-0.9910505453692835,-2.5801313559161585,-1.3053458372699183,-0.7784856001483362,-1.5808261076556605,-2.9792431036578577
-0.9903915564166468,-2.579987351094381,-1.3057177702533167,-0.7782571951495569,-1.580874268208639,-2.9800215403186243
-0.989624325429098,-2.579843823109762,-1.3060897032367151,-0.7780774275409144,-1.581005875264303,-2.980703894292013
-0.9882701078998011,-2.579496208821432,-1.3068211714373987,-0.7777417341815394,-1.580993954335348,-2.982201162968771
-0.9875267187701624,-2.5793283621417444,-1.3072293440448206,-0.7775381247149866,-1.5809581915484827,-2.9829910437213343
-0.9867718855487269,-2.5791128317462366,-1.307601277028219,-0.7773821989642542,-1.5809581915484827,-2.9837337175952356
-0.9860408941852015,-2.578921143208639,-1.308021370564596,-0.7771065870868128,-1.5811379591571253,-2.984500233327047
-0.9844945112811487,-2.578561607991354,-1.3088253180133265,-0.7767108122455042,-1.5811737219439905,-2.9859729448901575
-0.983715836201803,-2.5783818403827112,-1.3091490904437464,-0.7764833609210413,-1.5811856428729456,-2.9867635408984583
-0.9829605261432093,-2.5782020727740687,-1.3095329443561,-0.7762311140643519,-1.5811379591571253,-2.9875176588641565
-0.9821694532977503,-2.5779746214496058,-1.3099411169635218,-0.7760875860797327,-1.5813177267657679,-2.988248411809103
-0.980635944996969,-2.577639404927389,-1.310721222554342,-0.7757037321673792,-1.5812934080706995,-2.9897688070880335
-0.9798205534564417,-2.577423874531881,-1.3111165205584925,-0.7755239645587366,-1.5814016501056116,-2.990511480961935
-0.9790776411639612,-2.57721978822817,-1.3115008513080042,-0.7753198782550257,-1.5813654104815882,-2.991337839757101
-0.9782984892474573,-2.5770519415484827,-1.3119209448443812,-0.7750924269305628,-1.5814855734454554,-2.992103878651754
-0.9767168203936976,-2.576608959828512,-1.3127368132220667,-0.7746246496783655,-1.5815694967852991,-2.9936369101153772
-0.9758780638324183,-2.5764411131488245,-1.3131325880633753,-0.7743967215167444,-1.5815814177142542,-2.994427506123678
-0.975074593220846,-2.576261345540182,-1.313516918812887,-0.7742531935321253,-1.5815332571612757,-2.995277468358175
-0.9742358366595667,-2.576033417378561,-1.313948933278219,-0.7740009466754358,-1.5817249456988733,-2.9960437456714075
-0.9725816885577601,-2.5756619612323206,-1.3148368040667933,-0.7735570112811487,-1.5818207899676722,-2.9976845423327845
-0.9717190901385706,-2.575458351765768,-1.315268341694967,-0.7733653227435511,-1.581796948109762,-2.9985225836383265
-0.9708684126483362,-2.5752785841571253,-1.3156645933734339,-0.7730658690081995,-1.5818927923785608,-2.9993727842914026
-0.9700411001788538,-2.5750868956195276,-1.316120449696676,-0.7728260199176233,-1.5820606390582483,-3.0002709070788782
-0.9682553450213831,-2.574679676686422,-1.3171160856830042,-0.7724421660052698,-1.5821083227740687,-3.002139155064718
-0.9673569838153284,-2.5744641462909144,-1.3175719420062464,-0.7722623983966272,-1.582024876271383,-3.0030129591571253
-0.9663861433612269,-2.5742486158954065,-1.3181002775775355,-0.7720230261432093,-1.5821684042560022,-3.0039952437030237
-0.9654386679278772,-2.5740087668048304,-1.318580452595846,-0.7717469374286097,-1.5822880903827112,-3.004965368901388
-0.9634860197650355,-2.57358962694277,-1.319683853779928,-0.7711113134967249,-1.5824082533465784,-3.006988827382223
-0.9624193350421351,-2.573301617299215,-1.320212189351217,-0.7708957831012171,-1.5823004881488245,-3.008054558430807
-0.9613764921771448,-2.573050324116842,-1.320763889943258,-0.7706077734576624,-1.582480255757467,-3.0091562906848353
-0.9601777235614222,-2.572798554097311,-1.321388069783346,-0.770332161580221,-1.5825517813311976,-3.010174338017599
-0.9579489866839808,-2.572235409413473,-1.3225634733783167,-0.7696726957904261,-1.5827558676349085,-3.0124972502337855
-0.9567621389972132,-2.5719597975360315,-1.3231514135943812,-0.769444767628805,-1.5826357046710413,-3.013646666203634
-0.9555757681476038,-2.571672264729635,-1.3237641493426722,-0.7690728346454065,-1.5828993956195276,-3.014904324208395
-0.9543293158160608,-2.57133657137026,-1.3244231382953089,-0.7688329855548304,-1.5828517119037073,-3.016114060078756
-0.9517768065081995,-2.570738140736715,-1.325803581868307,-0.7681735197650355,-1.5830195585833948,-3.0186403433429163
-0.9504707495318812,-2.570366684590475,-1.3264630476581019,-0.7677901426898401,-1.5828993956195276,-3.0199578444110315
-0.9491403738604944,-2.57007867494692,-1.3271110693561,-0.7675021330462855,-1.5830791632281702,-3.0212510267840784
-0.9478219191180628,-2.5697434584247034,-1.3278067747699183,-0.7670825163470667,-1.5831154028521937,-3.0225802103625696
-0.9451497236834925,-2.5690725485431116,-1.3291986624347132,-0.7663872877704065,-1.5833190123187464,-3.0252025763141077
-0.943735424672262,-2.568761173878805,-1.3299067656146448,-0.7660158316241663,-1.5832231680499476,-3.0265799204455774
-0.9424050490008753,-2.56844932237734,-1.3306029478656214,-0.7656796614276331,-1.5834386984454554,-3.0279207865344446
-0.941014591847555,-2.56812554994692,-1.3313587347613733,-0.7654040495501917,-1.5834267775165003,-3.0292261282550257
-0.9382584730731409,-2.56751519838442,-1.3327983061419886,-0.7647083441363733,-1.5836671034442347,-3.031884495412008
-0.936904255543844,-2.5672271887408655,-1.333398167287008,-0.7643488089190882,-1.5836909453021448,-3.0332019964801233
-0.9356101194964808,-2.5669401327716272,-1.3341668287860315,-0.7639654318438929,-1.5838468710528772,-3.0345190207110804
-0.9342916647540491,-2.5666163603412073,-1.3348382155047815,-0.763641659413473,-1.5837748686419886,-3.035860602055685
-0.9316795508014124,-2.566017452870504,-1.3362181822406214,-0.7629578749286097,-1.583942715321676,-3.038506809865133
-0.9303610960589808,-2.5657175222979944,-1.3368061224566858,-0.7625625769244593,-1.5841582457171839,-3.0398364702807825
-0.9290669600116175,-2.5653942267047327,-1.337466065083639,-0.7622264067279261,-1.5840862433062952,-3.041129175816671
-0.9277966658221644,-2.565082375203268,-1.3381617704974573,-0.7619269529925745,-1.5842779318438929,-3.0424347559558313
-0.9253395239459437,-2.5644715468036097,-1.3393738905536097,-0.7613151709185999,-1.5843618551837366,-3.0450809637652796
-0.924117390309469,-2.5641844908343714,-1.3400095144854944,-0.7610276381122034,-1.5844939390765589,-3.0463505426989954
-0.9229067007647913,-2.5638607184039515,-1.3406694571124476,-0.760655705128805,-1.5844576994525355,-3.047572199498312
-0.9216607252704065,-2.5636094252215784,-1.3412578741656702,-0.7603562513934534,-1.5846017042743128,-3.048816982899801
-0.9192760626422327,-2.5630701223956507,-1.3424933592425745,-0.7597563902484339,-1.5846737066852015,-3.0512364546405237
-0.9180892149554651,-2.5627344290362757,-1.3431533018695276,-0.7594330946551722,-1.5847333113299769,-3.0523980299579065
-0.9169147650348108,-2.562530819569723,-1.3437650839435022,-0.7591336409198206,-1.5846617857562464,-3.0535834471331995
-0.9157403151141565,-2.562230888997213,-1.3443411032306116,-0.7588093916522425,-1.5849493185626429,-3.054697100316183
-0.9134152571307581,-2.5616796652423304,-1.3455770651446741,-0.7582576910602015,-1.5849373976336878,-3.057044569646017
-0.9122055212603968,-2.5614407698260706,-1.3462126890765589,-0.7579820791827601,-1.5850451628314417,-3.0581699053393763
-0.9109943548785608,-2.5611770788775843,-1.3468249479876917,-0.7576940695392054,-1.5850451628314417,-3.059427324925558
-0.9097965399371546,-2.560913387929098,-1.3474848906146448,-0.7573226133929651,-1.5852606932269495,-3.06061298051943
-0.9074118773089808,-2.560314480458395,-1.348696533833639,-0.7567351500140589,-1.5853684584247034,-3.0630558172809046
-0.9061530272113245,-2.5600388685809534,-1.3493683973895472,-0.7563989798175257,-1.5853927771197718,-3.064301077519552
-0.9049189726458948,-2.5597508589373987,-1.3499682585345667,-0.7561114470111292,-1.5855124632464808,-3.065498654042379
-0.9036248365985315,-2.559439484273092,-1.3506043593036097,-0.755739990864889,-1.5856083075152796,-3.066780392323629
-0.9010837713824671,-2.5588048140155237,-1.3519123236285608,-0.7551162878619593,-1.585883919392721,-3.0693066755877894
-0.8998015562640589,-2.558481518422262,-1.352584187184469,-0.7548049131976526,-1.585776154194967,-3.0706241766559046
-0.8985074202166956,-2.5581820646869105,-1.3532684485064905,-0.7544811407672327,-1.5859440008746546,-3.071881119404928
-0.8972614447223108,-2.5578344503985804,-1.3539641539203089,-0.7541449705706995,-1.585991684590475,-3.0731387774096888
-0.8946250120746058,-2.557211224232809,-1.3553198019610804,-0.7534259001361292,-1.5861957708941858,-3.0756779352771204
-0.893282715474264,-2.556875530873434,-1.3560755888568323,-0.7530902067767542,-1.5860994497882288,-3.0770304838763636
-0.8920243422137659,-2.5565641562091272,-1.3567479292498987,-0.7527425924884241,-1.5863035360919397,-3.078347984944479
-0.890670124684469,-2.5562642256366175,-1.3574674765216272,-0.7523587385760706,-1.5862792173968714,-3.0795932451831263
-0.8879855314837855,-2.5556777159320276,-1.3588231245623987,-0.7516873518573206,-1.5864833037005823,-3.0822160879718226
-0.886667553578512,-2.555354420338766,-1.3595431486712855,-0.7513993422137659,-1.5863631407367151,-3.0835331122027796
-0.8853853384601038,-2.5550907293902796,-1.3601434866534632,-0.7510398069964808,-1.586567227040426,-3.0849464575396937
-0.8840912024127405,-2.5547550360309046,-1.360910717641012,-0.7506559530841272,-1.5865429083453577,-3.0862277189837855
-0.8814786116229456,-2.554143730794088,-1.3622191588031214,-0.7499612013446253,-1.586759392415182,-3.0887184778796595
-0.880160156880514,-2.5538561979876917,-1.3629148642169397,-0.7496727148639124,-1.5867231527911585,-3.089987818394796
-0.8788660208331507,-2.553520981465475,-1.3635624090777796,-0.7493370215045374,-1.5869267622577112,-3.091269318257467
-0.8775599638568323,-2.5532334486590784,-1.364234749470846,-0.7489894072162073,-1.586902920399801,-3.0924909750567835
-0.875007454548971,-2.552622143422262,-1.3654702345477503,-0.7483180204974573,-1.5870826880084437,-3.0949693361865442
-0.8737371603595179,-2.5522993246661585,-1.366178337727682,-0.748054329548971,-1.587238613759176,-3.096226994191305
-0.8724668661700647,-2.552011315022604,-1.3668502012835901,-0.7477429548846644,-1.5873702208148401,-3.0974727312671106
-0.8712084929095667,-2.551688019429342,-1.3675101439105433,-0.747406307850973,-1.5872862974749964,-3.098705832158224
-0.8687399069415491,-2.5510886351214808,-1.368793789540426,-0.7467353979693812,-1.5874303022967737,-3.101208750401632
-0.8674939314471644,-2.5508011023150843,-1.3694418112384241,-0.7464116255389612,-1.58767015138735,-3.102490250264303
-0.8662951628314417,-2.5504539648639124,-1.3701141516314905,-0.7460878531085413,-1.5875380674945276,-3.1037355105029505
-0.8650134245501917,-2.550166432057516,-1.370725456868307,-0.745704476033346,-1.5877059141742151,-3.1050291697131556
-0.8625324408160608,-2.549615208302633,-1.3719494978534144,-0.7450445334063929,-1.5877059141742151,-3.1075194517718714
-0.8613103071795862,-2.5493157545672815,-1.3726094404803675,-0.7447808424579065,-1.5878976027118128,-3.1088369528399866
-0.8600996176349085,-2.549004379902975,-1.3732450644122522,-0.7445171515094202,-1.5877779165851038,-3.1100106875049036
-0.8588412443744105,-2.5487645308123987,-1.3738330046283167,-0.7442057768451136,-1.5879457632647913,-3.1113279501544397
-0.8563488165484827,-2.5481651465045374,-1.3750928084002894,-0.74347430864443,-1.5879815260516565,-3.1138067881213587
-0.8551386038409632,-2.5479019323932093,-1.3757050673114222,-0.7431624571429651,-1.5881970564471644,-3.1149924437152308
-0.8538325468646448,-2.5475786367999476,-1.3763650099383753,-0.7428501288043421,-1.5880773703204554,-3.1162856260882776
-0.8526218573199671,-2.547278706227438,-1.3770001570331019,-0.742502514516012,-1.5883649031268519,-3.1174712816821497
-0.8501418272601526,-2.546608273183004,-1.3782485167132776,-0.7418554464923304,-1.588473145161764,-3.1199141184436243
-0.8488715330706995,-2.5463083426104944,-1.378932301198141,-0.741495434437887,-1.5883892218219202,-3.121207300816671
-0.8476012388812464,-2.546008888875143,-1.3795564810382288,-0.7412198225604456,-1.588604752217428,-3.1224289576159876
-0.8464029471026819,-2.5457094351397913,-1.380240265523092,-0.7409198919879358,-1.5885565916644495,-3.1236746946917933
-0.8438261190997522,-2.5450504461871546,-1.3815844694720667,-0.7401645819293421,-1.588712517415182,-3.126237455998556
-0.8426397482501429,-2.544739071522848,-1.3822200934039515,-0.7398651281939905,-1.5889042059527796,-3.1274946371661585
-0.8413580099688929,-2.5444515387164515,-1.38293964067568,-0.7395413557635706,-1.5888803640948694,-3.1288116613971155
-0.840123478566305,-2.5441163221942347,-1.383575741444723,-0.7392414251910608,-1.5890243689166468,-3.1301053206073206
-0.8376429716693323,-2.5435169378863733,-1.3848713080035608,-0.7385099569903772,-1.5892041365252894,-3.132620159779684
-0.836336914693014,-2.543265167866842,-1.3855074087726038,-0.7381981054889124,-1.589288059865133,-3.1338897387133997
-0.8351147810565394,-2.5429657141314905,-1.3861315886126917,-0.7379344145404261,-1.5893476645099085,-3.1351588408099573
-0.8338926474200647,-2.542690102254049,-1.3868029753314417,-0.7376230398761194,-1.5895393530475062,-3.136428181325094
-0.8313759008990687,-2.542079273854391,-1.388146702443258,-0.7369392553912562,-1.5896957556353968,-3.1389432589160364
-0.8300817648517054,-2.5418036619769495,-1.388855282460348,-0.7365677992450159,-1.5896833578692835,-3.1402245203601282
-0.8288114706622522,-2.541516129170553,-1.3895390669452112,-0.7362559477435511,-1.5897076765643519,-3.141482178364889
-0.8275411764727991,-2.5412047545062464,-1.3901265303241175,-0.7359440962420862,-1.5898874441729944,-3.1427395979510706
-0.8249285856830042,-2.540605370198385,-1.3915064970599573,-0.7353208700763147,-1.5898874441729944,-3.145302120839254
-0.8236468474017542,-2.5403416792498987,-1.3921664396869105,-0.7349494139300745,-1.5899832884417933,-3.14657169977297
-0.822364632283346,-2.540006462727682,-1.3928144613849085,-0.7346127668963831,-1.5899713675128382,-3.1478527227984827
-0.8211186567889612,-2.5397189299212855,-1.3935464064227503,-0.7343252340899866,-1.590174976979391,-3.149062458668844
-0.8185899893390101,-2.5391319433795374,-1.3948424498187464,-0.733678166066305,-1.5902827421771448,-3.1515892187701624
-0.8173435370074671,-2.5388086477862757,-1.3955376783954065,-0.7333543936358851,-1.5902469793902796,-3.152822558079855
-0.8160737196551722,-2.538497273121969,-1.396233860646383,-0.7329586187945765,-1.5904505888568323,-3.154044214879171
-0.8148029486285608,-2.538173500691549,-1.3968456427203577,-0.7326949278460901,-1.5903547445880335,-3.1552539507495325
-0.8122628370868128,-2.5376580397235315,-1.3981650511371058,-0.7320111433612269,-1.590510670338766,-3.1577206293689173
-0.8110526243792933,-2.53735858598818,-1.3987892309771937,-0.7316277662860315,-1.5906665960894983,-3.1588943640338343
-0.8097580114947718,-2.53703481355776,-1.3994491736041468,-0.7312920729266565,-1.5907023588763636,-3.16016394296755
-0.8085721174823206,-2.536771599446432,-1.4000733534442347,-0.7309921423541468,-1.590870205556051,-3.161445204411642
-0.8060439268695276,-2.536184612904684,-1.4013927618609827,-0.7304165999041956,-1.59096604982485,-3.163948361073629
-0.8047373930560511,-2.5359090010272425,-1.4020288626300257,-0.7300570646869105,-1.5911219755755823,-3.1651573816882532
-0.8034914175616663,-2.535621468220846,-1.4026530424701136,-0.7297452131854456,-1.591097656880514,-3.1664987246142786
-0.802220646535055,-2.535285774861471,-1.4033244291888636,-0.7294095198260706,-1.5912655035602015,-3.16773230234255
-0.7996805349933069,-2.534686867390768,-1.4046323935138147,-0.7288106123553675,-1.5913375059710901,-3.170295063649313
-0.7984464804278772,-2.5343874136554163,-1.4052804152118128,-0.7284863630877894,-1.5913375059710901,-3.171600643788473
-0.7972000280963343,-2.534015957509176,-1.4059279600726526,-0.7281506697284144,-1.5913856665240687,-3.172809902821676
-0.7958701292621058,-2.5337284247027796,-1.4065402189837855,-0.7277668158160608,-1.5915172735797327,-3.174091641102926
-0.7934015432940882,-2.5331056753741663,-1.4078362623797815,-0.7271912733661097,-1.59166127840151,-3.1766422430621546
-0.7921312491046351,-2.5327580610858362,-1.4085076490985315,-0.7268555800067347,-1.5915892759906214,-3.177851978932516
-0.7908733526812952,-2.532482449208395,-1.4091437498675745,-0.7265203634845179,-1.59166127840151,-3.179073158894674
-0.7896507422076624,-2.5322187582599085,-1.4097912947284144,-0.7261722723590296,-1.591780964528219,-3.1803069750415247
-0.787170712147848,-2.5315478483783167,-1.4110754171954554,-0.7255008856402796,-1.5919488112079065,-3.182809654866354
-0.7859604994403284,-2.5312727133380335,-1.41168719926943,-0.72522479692568,-1.591912571583883,-3.1840553919421595
-0.7846663633929651,-2.530985180531637,-1.412347141896383,-0.7248533407794397,-1.5920923391925257,-3.185408417378561
-0.7834437529193323,-2.5307214895831507,-1.4129708448993128,-0.7244699637042444,-1.5920684973346155,-3.186725918446676
-0.7809155623065394,-2.5301221052752894,-1.4142668882953089,-0.7239177862750452,-1.5922964254962366,-3.1892645994769495
-0.7797053495990198,-2.529834572468893,-1.414938751851217,-0.7236183325396937,-1.592356030141012,-3.1905701796161097
-0.7784231344806116,-2.5295589605914515,-1.4155743757831019,-0.7232707182513636,-1.5925238768206995,-3.191815439854757
-0.7771766821490687,-2.5292595068561,-1.4162219206439417,-0.7229111830340784,-1.5924881140338343,-3.1931210199939173
-0.7746604124652308,-2.5286491552936,-1.4175904432879847,-0.7222755591021937,-1.5927155653582972,-3.1956597010241907
-0.7733905951129358,-2.528361145650045,-1.418274227772848,-0.7219517866717737,-1.5928719679461878,-3.1969173590289515
-0.7721203009234827,-2.5280497709857386,-1.4189460913287562,-0.7216275374041956,-1.5929315725909632,-3.198174540196554
-0.770874325429098,-2.5277860800372522,-1.4196417967425745,-0.7212203184710901,-1.593015495930807,-3.199455801640646
-0.7683337370501917,-2.527199093495504,-1.420997444783346,-0.7206209341632288,-1.593123737965719,-3.201935116444723
-0.7670758406268519,-2.5268872419940394,-1.4215973059283655,-0.7202852408038538,-1.5932076613055628,-3.2032042185412806
-0.7657817045794886,-2.526599709187643,-1.4222930113421839,-0.7200096289264124,-1.5932672659503382,-3.2044737974749964
-0.7645953337298792,-2.5263121763812464,-1.422952953969137,-0.719649616871969,-1.5933035055743616,-3.2057669798480433
-0.7619345823871058,-2.5257375876056116,-1.4242494742022913,-0.718978230153219,-1.593470875416891,-3.20831805864443
-0.7606766859637659,-2.52546197572817,-1.4249089399920862,-0.7186782995807093,-1.5936029593097132,-3.209599320088522
-0.7593949476825159,-2.525186363850729,-1.4255808035479944,-0.718294922505514,-1.5936268011676233,-3.2107730547534388
-0.7581365744220179,-2.5248988310443323,-1.4262164274798792,-0.717971150075094,-1.5936268011676233,-3.2120545546161097
-0.7556441465960901,-2.524323288594381,-1.4275363127337855,-0.717299763356344,-1.5937946478473108,-3.214557472859518
-0.7543504873858851,-2.524024311696188,-1.4281485716449183,-0.7170479933368128,-1.5938547293292444,-3.21574312845339
-0.7530558745013636,-2.523700539265768,-1.428796116505758,-0.7167599836932581,-1.5939982573138636,-3.216928784047262
-0.7518218199359339,-2.5234368483172815,-1.4294799009906214,-0.716412369404928,-1.5939744154559534,-3.218210283909933
-0.7492578665362757,-2.522802178059713,-1.4307516256915491,-0.7156932989703577,-1.5941780249225062,-3.220605198537008
-0.7480114142047327,-2.5224784056292933,-1.4314120451556605,-0.7153814474688929,-1.594273869191305,-3.2218030134784144
-0.746777359639303,-2.5221670309649866,-1.4320715109454554,-0.7150691191302698,-1.5944059530841272,-3.2230961958514612
-0.7455309073077601,-2.5218313376056116,-1.4327309767352503,-0.7147696653949183,-1.5943940321551722,-3.2243297735797327
-0.7430384794818323,-2.5211966673480433,-1.4340632597552698,-0.7140381971942347,-1.5945256392108362,-3.2268813292132776
-0.7416728178607386,-2.5208852926837366,-1.434747044240133,-0.713714901600973,-1.5945618788348597,-3.2281625906573694
-0.7404144446002405,-2.520561997090475,-1.4353588263141077,-0.713391129170553,-1.5946934858905237,-3.229503933583395
-0.7391327063189905,-2.52025014558901,-1.4359706083880823,-0.7130668799029749,-1.5947173277484339,-3.230809036885397
-0.7365921179400843,-2.519567314778463,-1.4372904936419886,-0.7123478094684046,-1.5948613325702112,-3.233419720326559
-0.7352984587298792,-2.5192435423480433,-1.4379504362689417,-0.7120121161090296,-1.5948732534991663,-3.234713379536764
-0.7340043226825159,-2.51896840730776,-1.438502613698141,-0.7117002646075647,-1.5949214140521448,-3.2360549608813685
-0.7327340284930628,-2.51864463487734,-1.4392340818988245,-0.7113168875323694,-1.595064942036764,-3.237312142048971
-0.7301219145404261,-2.518069569264547,-1.4405296484576624,-0.7105968634234827,-1.5951488653766077,-3.2398512999164026
-0.7288759390460413,-2.517782513295309,-1.441153351460592,-0.7102974096881312,-1.595292870198385,-3.2411564032184046
-0.7275937239276331,-2.5175069014178675,-1.441885773335592,-0.7100337187396448,-1.59528094926943,-3.2424140612231653
-0.7262757460223597,-2.5172069708453577,-1.442545239125387,-0.70972186723818,-1.5954607168780726,-3.243647638951437
-0.7237232367144983,-2.5165961424456995,-1.4438651243792933,-0.7089903990374964,-1.5955923239337366,-3.246150318776266
-0.7224291006671351,-2.516308609639303,-1.4445369879352015,-0.7086547056781214,-1.5956762472735804,-3.2474198977099817
-0.72113544145693,-2.515984837208883,-1.4451850096331995,-0.7083428541766565,-1.595736328755514,-3.2487011591540735
-0.7199009100543421,-2.5156973044024866,-1.4459169546710413,-0.7080190817462366,-1.5958197752581995,-3.249946896229879
-0.7173846403705042,-2.515050713215963,-1.4471762816058558,-0.707372013722555,-1.5960243383990687,-3.2524974981891077
-0.7161625067340296,-2.5147512594806116,-1.4478123823748987,-0.7070239225970667,-1.5960243383990687,-3.2537434736834925
-0.7149408499347132,-2.51445180574526,-1.4484484831439417,-0.7067120710956019,-1.596083943043844,-3.254965130482809
-0.7136943976031702,-2.5141523520099085,-1.4490483442889612,-0.7064483801471155,-1.596191708241598,-3.2562344709979456
-0.7112739721881312,-2.5135648886310022,-1.4503796736346644,-0.7058127562152308,-1.5963595549212855,-3.258653704320089
-0.7100399176227015,-2.5132773558246058,-1.4510038534747522,-0.7054536978351038,-1.5963595549212855,-3.2598634401904505
-0.708841625844137,-2.5129898230182093,-1.4516876379596155,-0.705153767262594,-1.5963957945453089,-3.2610607782946985
-0.7076557318316858,-2.5126779715167444,-1.4522393385516565,-0.7048662344561976,-1.5964916388141077,-3.2622223536120813
-0.7052353064166468,-2.512151543294088,-1.4535110632525843,-0.7041943709002894,-1.5966232458697718,-3.264653746281759
-0.7040966192828577,-2.5118520895587366,-1.4541476408587855,-0.7038348356830042,-1.5965994040118616,-3.265839401875631
-0.7028387228595179,-2.5116241613971155,-1.4547589460956019,-0.7035353819476526,-1.5967672506915491,-3.267036739979879
-0.7016647497760218,-2.511360470448629,-1.4554069677936,-0.7032712141620081,-1.5967190901385706,-3.2682703177081507
-0.6992080847369593,-2.5108092466937464,-1.4567144552813929,-0.7027438322650355,-1.5969350973712366,-3.270677630101339
-0.6979616324054163,-2.510533634816305,-1.4573620001422327,-0.7024439016925257,-1.5969107786761683,-3.2718868891345423
-0.6967642943011683,-2.5102103392230433,-1.4579504171954554,-0.7020600477801722,-1.5971387068377894,-3.2730847040759485
-0.695601765309469,-2.509934727345602,-1.4586461226092737,-0.7017486731158655,-1.5970547834979456,-3.2743664423571985
-0.6931331793414515,-2.5092762152301233,-1.4598339239703577,-0.7010892073260706,-1.5973065535174769,-3.2767136732684534
-0.6919592062579554,-2.509024445210592,-1.4604581038104456,-0.7007535139666956,-1.5973065535174769,-3.27793533006777
-0.6907127539264124,-2.5087369124041956,-1.4610579649554651,-0.7004416624652308,-1.5975220839129847,-3.2791689077960413
-0.6894548575030726,-2.5083892981158655,-1.4616578261004847,-0.7000821272479456,-1.5974143187152308,-3.2803545633899134
-0.6869867483722132,-2.5077784697162073,-1.4629409948932093,-0.6995304266559046,-1.5975821653949183,-3.2827375570880335
-0.6857526938067835,-2.5074546972857874,-1.4635289351092737,-0.6992428938495081,-1.5977619330035608,-3.2838872114764612
-0.6845663229571741,-2.507167164479391,-1.4641888777362269,-0.698895279561178,-1.597773853932516,-3.2850850264178675
-0.683392349873678,-2.5068681875811976,-1.464776341115133,-0.6985591093646448,-1.5978096167193812,-3.2862587610827845
-0.6810677687274378,-2.506340805684225,-1.4659884611712855,-0.6979835669146937,-1.5978816191302698,-3.288678232823507
-0.6798694769488733,-2.5061009565936487,-1.4666121641742151,-0.6977198759662073,-1.598109547291891,-3.2898038069354456
-0.6787074247943323,-2.5058258215533655,-1.4671524206744593,-0.6973603407489222,-1.5980852285968226,-3.291025463734762
-0.6775692144977015,-2.5055740515338343,-1.4677522818194788,-0.6970604101764124,-1.5980613867389124,-3.2922349611865442
-0.675448242818014,-2.50509483018984,-1.4688800016986292,-0.6964972654925745,-1.598121468220846,-3.2944026629077356
-0.6743577162372034,-2.504831139241354,-1.469504181538717,-0.6962931791888636,-1.5983131567584437,-3.2954686323748987
-0.6733153502093714,-2.504627529774801,-1.4700072447406214,-0.6960890928851526,-1.5983489195453089,-3.2964983622180384
-0.6722734610186976,-2.50437575975527,-1.4705117384540003,-0.6958134810077112,-1.5982769171344202,-3.297528330479757
-0.6704161802874964,-2.503932778035299,-1.4714954535113733,-0.6952140966998499,-1.5983970800982874,-3.2994449774371546
-0.6695058981524866,-2.5037534872638147,-1.471999470387594,-0.694986645375387,-1.5984929243670862,-3.300319019948141
-0.6686185042010706,-2.503549400960104,-1.4723833242999476,-0.6948064009295862,-1.5986126104937952,-3.301181141530172
-0.6677439848529261,-2.5032857100116175,-1.4728630224811,-0.6946147123919886,-1.5985048452960413,-3.3020437399493616
-0.6661742369281214,-2.5029142538653772,-1.4736788908587855,-0.6941469351397913,-1.598708454762594,-3.3035646120654505
-0.665443245564596,-2.5027225653277796,-1.474074665700094,-0.694002930318014,-1.5986846129046839,-3.304343287144796
-0.6647246519671839,-2.502554718648092,-1.4744346777545374,-0.6937392393695276,-1.5988648573504847,-3.3050854841815394
-0.6640060583697718,-2.502399269734518,-1.474818531666891,-0.6935589949237269,-1.5987923781024378,-3.3058162371264856
-0.6626756826983851,-2.5020397345172327,-1.4755023161517542,-0.6932356993304651,-1.598912541066305,-3.307157580052511
-0.6620171705829065,-2.5019076506244105,-1.4758499304400843,-0.6930316130267542,-1.598912541066305,-3.3078039328204554
-0.6613577047931116,-2.501740280781881,-1.4762104193316858,-0.6929238478290003,-1.599116627370016,-3.308450762425558
-0.6607225576983851,-2.5015843550311487,-1.476558033620016,-0.6927560011493128,-1.5989964644061487,-3.3091095129596155
-0.6594646612750452,-2.5013092199908655,-1.4771941343890589,-0.6924927870379847,-1.5991762320147913,-3.3102837244616907
-0.6588299910174769,-2.501153294240133,-1.4775422255145472,-0.6922887007342737,-1.5991762320147913,-3.310953919087545
-0.6582544485675257,-2.501033608113424,-1.477842156087057,-0.6920841375934046,-1.5993202368365687,-3.3116007486926478
-0.657607380543844,-2.500913921986715,-1.4781535307513636,-0.6919406096087855,-1.5992000738727015,-3.312211577092306
-0.656325642262594,-2.500590149556295,-1.4788373152362269,-0.6916049162494105,-1.5993202368365687,-3.313493076954977
-0.6556666533099573,-2.500446144734518,-1.4791377226458948,-0.6914852301227015,-1.5994518438922327,-3.3141399065600794
-0.655067269002096,-2.5002787748919886,-1.4795458952533167,-0.6912935415851038,-1.5995238463031214,-3.314810339604513
-0.6544325987445276,-2.5001705328570765,-1.4798334280597132,-0.6911852995501917,-1.5993922392474573,-3.3154330889331263
-0.6531866232501429,-2.499871079121725,-1.480492893849508,-0.6907895247088831,-1.5995476881610315,-3.316786591206686
-0.6525033156024378,-2.4997151533709925,-1.4808772245990198,-0.6905501524554651,-1.5995238463031214,-3.317385498677389
-0.6518204847918909,-2.4995597044574183,-1.4812491575824183,-0.6903703848468226,-1.5996916929828089,-3.3180561701404017
-0.6511853376971644,-2.4994400183307093,-1.4816086927997034,-0.6901662985431116,-1.599583927785055,-3.318810764943258
-0.6497719923602503,-2.4991167227374476,-1.4823172728167933,-0.6898544470416468,-1.5996678511248987,-3.3201523462878626
-0.6491125265704554,-2.498960796986715,-1.482736889516012,-0.6897462050067347,-1.5997994581805628,-3.320786778126852
-0.6483939329730433,-2.4987571875201624,-1.4830487410174769,-0.6895068327533167,-1.599823300038473,-3.3214574495898646
-0.6477230230914515,-2.498589340840475,-1.4833605925189417,-0.6894705931292933,-1.5997756163226526,-3.3221281210528772
-0.646393124257223,-2.498266045247213,-1.484044377003805,-0.6891229788409632,-1.5999072233783167,-3.323529307042257
-0.6457222143756312,-2.498122040425436,-1.484368626271383,-0.6888592878924769,-1.5999553839312952,-3.3240800539599817
-0.6450632254229944,-2.4979541937457483,-1.4847405592547815,-0.6887038389789026,-1.6000631491290491,-3.3247748056994837
-0.6444280783282679,-2.4977744261371058,-1.4850524107562464,-0.6884754339801233,-1.5999911467181605,-3.325409714375631
-0.6431339422809046,-2.4974988142596644,-1.4856880346881312,-0.6881039778338831,-1.6000631491290491,-3.326667610798971
-0.6425469557391565,-2.497331444417135,-1.4860242048846644,-0.6880076567279261,-1.6001470724688929,-3.3272903601275843
-0.6419237295733851,-2.497175995503561,-1.4863117376910608,-0.6878040472613733,-1.6002429167376917,-3.3279128710376185
-0.6413486639605921,-2.4970558325396937,-1.4866722265826624,-0.6877802054034632,-1.6001113096820276,-3.3284876982318323
-0.6402223745929163,-2.4967921415912073,-1.4872358481036585,-0.6874683539019983,-1.6002429167376917,-3.3297093550311487
-0.6396239439593714,-2.496648613606588,-1.4875238577472132,-0.6872404257403772,-1.600278679524557,-3.330224339162008
-0.6390960852252405,-2.496504608784811,-1.487823788319723,-0.687204662953512,-1.600386921559469,-3.330679241810934
-0.6385691801654261,-2.4963610808001917,-1.4880755583392542,-0.686988655720846,-1.6002548376666468,-3.3312061468707483
-0.6375630537616175,-2.4961450735675257,-1.488603417073385,-0.6867731253253382,-1.6004226843463343,-3.3323081175433558
-0.6370113531695765,-2.4959891478167933,-1.4888432661639612,-0.6865695158587855,-1.6004107634173792,-3.3327749411212366
-0.6365926901446741,-2.4958937803851526,-1.4890950361834925,-0.6865451971637171,-1.6005786100970667,-3.3333023230182093
-0.6361368338214319,-2.4957740942584437,-1.4893234411822718,-0.686293903981344,-1.6003988424884241,-3.3337817827807825
-0.6352503935443323,-2.495558563862936,-1.4897673765765589,-0.6862099806415003,-1.6005304495440882,-3.3346079031573694
-0.6348908583270472,-2.495462719594137,-1.4899590651141565,-0.6861379782306116,-1.6005423704730433,-3.335014883671896
-0.6344836393939417,-2.495343033467428,-1.490211311970846,-0.6860178152667444,-1.600638214741842,-3.3354345003711146
-0.634064022694723,-2.4952591101275843,-1.4904268423663538,-0.6859219709979456,-1.6005304495440882,-3.3357816378222864
-0.6333330313311976,-2.495091263447897,-1.4907992521869105,-0.6857417265521448,-1.600626293812887,-3.336559836064474
-0.6329854170428675,-2.494995419179098,-1.4909551779376429,-0.6857178846942347,-1.6007583777057093,-3.336931292210714
-0.6325786749469202,-2.4949353376971644,-1.4911707083331507,-0.6855619589435022,-1.6007702986346644,-3.337278429661886
-0.6322668234454554,-2.494863812123434,-1.4913628737079065,-0.6854661146747034,-1.6007102171527308,-3.3375662008868616
-0.6316083113299769,-2.4947317282306116,-1.4917109648333948,-0.6852625052081507,-1.6007822195636194,-3.3381646315204065
-0.6312845388995569,-2.494647804890768,-1.4918788115130823,-0.6852381865130823,-1.6009019056903284,-3.3385120073901575
-0.6309726873980921,-2.4946120421039026,-1.4920347372638147,-0.6850464979754847,-1.600961987172262,-3.3388353029834192
-0.6306732336627405,-2.494563881550924,-1.4922145048724573,-0.6850946585284632,-1.600854221974508,-3.3390870730029505
-0.6301100889789026,-2.494420353566305,-1.4924424330340784,-0.6849029699908655,-1.6009381453143519,-3.339637819920675
-0.6298230330096644,-2.4943721930133265,-1.4925749937640589,-0.6848910490619105,-1.6010220686541956,-3.339889113103048
-0.6295712629901331,-2.494324509297506,-1.492730442677633,-0.6847346464740198,-1.6011059919940394,-3.3401768843280237
-0.6293676535235804,-2.4942763487445276,-1.492826286946432,-0.6847465674029749,-1.600950066243307,-3.340452019368307
-0.6288884321795862,-2.494192425404684,-1.4930780569659632,-0.6845667997943323,-1.601069752370016,-3.340895954762594
-0.6286609808551233,-2.49410850206484,-1.4932225386248987,-0.6846988836871546,-1.601081673298971,-3.3410993258105677
-0.6284211317645472,-2.494072739277975,-1.4933064619647425,-0.6844471136676233,-1.601189915333883,-3.341278855000631
-0.6282652060138147,-2.4940126577960413,-1.4933784643756312,-0.6845906416522425,-1.601081673298971,-3.3414347807513636
-0.6278937498675745,-2.493964974080221,-1.4935701529132288,-0.6845548788653772,-1.6011655966388147,-3.34181791940798
-0.627725903187887,-2.4939168135272425,-1.493678394948141,-0.6842554251300257,-1.6010459105121058,-3.3420451323138636
-0.6275704542743128,-2.493869129811422,-1.4937623182879847,-0.6844351927386683,-1.601189915333883,-3.3421531359301966
-0.6274264494525355,-2.493856732045309,-1.493798557912008,-0.684183422719137,-1.601093594227926,-3.342296902333395
-0.6272347609149378,-2.493772808705465,-1.493918244038717,-0.6842435042010706,-1.6011655966388147,-3.342536274586813
-0.6270907560931605,-2.493772808705465,-1.4939540068255823,-0.6841233412372034,-1.6010578314410608,-3.3425126711474817
-0.6270311514483851,-2.49376088777651,-1.4939659277545374,-0.6842673460589808,-1.6012495199786585,-3.342560116444723
-0.6269596258746546,-2.49376088777651,-1.4939659277545374,-0.6840036551104944,-1.6011298338519495,-3.3427160421954554
-0.6268637816058558,-2.49376088777651,-1.4939902464496058,-0.6839917341815394,-1.6012495199786585,-3.3427398840533655
-0.6268876234637659,-2.4937012831317347,-1.4939301649676722,-0.6842554251300257,-1.6011417547809046,-3.342655960713522
-0.6269472281085413,-2.493772808705465,-1.4939540068255823,-0.6841595808612269,-1.6011775175677698,-3.342691961918966
-0.6269715468036097,-2.49376088777651,-1.4939540068255823,-0.6841953436480921,-1.6012256781207483,-3.342668120061056
-0.6269596258746546,-2.493772808705465,-1.4939420858966272,-0.6842072645770472,-1.6011775175677698,-3.3426440397845667
-0.6269953886615198,-2.4937370459186,-1.4939659277545374,-0.6841953436480921,-1.601189915333883,-3.342668120061056
-0.6269353071795862,-2.4937132040606897,-1.4939420858966272,-0.684183422719137,-1.6011775175677698,-3.342680040990011
-0.6269596258746546,-2.493748966847555,-1.4939420858966272,-0.6842072645770472,-1.601189915333883,-3.342655960713522
-0.6269834677325647,-2.49376088777651,-1.4939420858966272,-0.6842072645770472,-1.601189915333883,-3.342668120061056
-0.6269715468036097,-2.49376088777651,-1.4939420858966272,-0.684183422719137,-1.601189915333883,-3.3426321188556116
-0.6269472281085413,-2.493748966847555,-1.4939301649676722,-0.6841715017901819,-1.601189915333883,-3.342691961918966
-0.6269834677325647,-2.4937370459186,-1.4940021673785608,-0.6841715017901819,-1.6012137571917933,-3.342691961918966
-0.6269953886615198,-2.4937370459186,-1.4939778486834925,-0.6840994993792933,-1.6012018362628382,-3.3426440397845667
-0.6269953886615198,-2.493748966847555,-1.4939420858966272,-0.6840394178973597,-1.6011775175677698,-3.342668120061056
-0.6269596258746546,-2.493725124989645,-1.4939540068255823,-0.6840036551104944,-1.6011775175677698,-3.342691961918966
-0.6269834677325647,-2.4937370459186,-1.4939902464496058,-0.6840155760394495,-1.6011775175677698,-3.342680040990011
-0.6270068327533167,-2.4937370459186,-1.4939778486834925,-0.6840155760394495,-1.601189915333883,-3.342680040990011
-0.6269953886615198,-2.4937370459186,-1.4939540068255823,-0.6840394178973597,-1.6011775175677698,-3.342680040990011
-0.6269472281085413,-2.493725124989645,-1.4939659277545374,-0.6840155760394495,-1.6011775175677698,-3.342655960713522
-0.6269472281085413,-2.4937370459186,-1.4939778486834925,-0.6839917341815394,-1.6011775175677698,-3.342691961918966
-0.6269472281085413,-2.4937132040606897,-1.4939659277545374,-0.6840274969684046,-1.6011775175677698,-3.342691961918966
-0.6269233862506312,-2.4936769644366663,-1.4939301649676722,-0.6840155760394495,-1.6012018362628382,-3.3427160421954554
-0.6269953886615198,-2.4937012831317347,-1.4939540068255823,-0.6840394178973597,-1.6011536757098597,-3.342703882847921
-0.6269596258746546,-2.4937132040606897,-1.4939778486834925,-0.6840155760394495,-1.6012018362628382,-3.3427279631244105
-0.6269596258746546,-2.493653122578756,-1.4939540068255823,-0.6840513388263147,-1.601189915333883,-3.342763964329855
-0.6269472281085413,-2.4936650435077112,-1.4939902464496058,-0.6840155760394495,-1.6011775175677698,-3.3427398840533655
-0.6269596258746546,-2.4936650435077112,-1.4939659277545374,-0.6840513388263147,-1.6011775175677698,-3.3427518049823206
-0.6269834677325647,-2.4936893622027796,-1.4939659277545374,-0.6840994993792933,-1.6012018362628382,-3.342703882847921
-0.6270311514483851,-2.4936893622027796,-1.4938939253436487,-0.6841715017901819,-1.6011775175677698,-3.3427160421954554
-0.6270907560931605,-2.4936650435077112,-1.4938581625567835,-0.684183422719137,-1.6012018362628382,-3.3425961176501673
-0.6271269957171839,-2.4936769644366663,-1.4937861601458948,-0.6841595808612269,-1.6011775175677698,-3.342584196721212
-0.6272228399859827,-2.4936893622027796,-1.4937503973590296,-0.6842072645770472,-1.6012018362628382,-3.342524592076437
-0.6274264494525355,-2.4937132040606897,-1.4935820738421839,-0.684303108845846,-1.6012137571917933,-3.3423808256732386
-0.6275704542743128,-2.493725124989645,-1.4935219923602503,-0.6843870321856897,-1.6011775175677698,-3.342189137135641
-0.6277020613299769,-2.4937370459186,-1.493462387715475,-0.6844351927386683,-1.601189915333883,-3.342201058064596
-0.6278818289386194,-2.49376088777651,-1.4933784643756312,-0.6844471136676233,-1.6012137571917933,-3.3420332113849085
-0.6282170454608362,-2.493869129811422,-1.4931262175189417,-0.6845548788653772,-1.6012018362628382,-3.3416500727282923
-0.6284330526935022,-2.4939168135272425,-1.4929822126971644,-0.6845310370074671,-1.6012018362628382,-3.3413987795459192
-0.6286967436419886,-2.4939168135272425,-1.4928143660174769,-0.6848428885089319,-1.6011655966388147,-3.341135088597433
-0.6289365927325647,-2.493988815938131,-1.4926946798907679,-0.6845787207232874,-1.6011655966388147,-3.3408358732806605
-0.6294754187213343,-2.4941447416888636,-1.4924300352679651,-0.6847947279559534,-1.601069752370016,-3.3402605692492884
-0.6297391096698206,-2.494216267262594,-1.4922145048724573,-0.6848910490619105,-1.6010339895831507,-3.339984957371847
-0.6300624052630823,-2.494324509297506,-1.4920948187457483,-0.6850107351886194,-1.6010459105121058,-3.3395779768573206
-0.6304338614093226,-2.4943960348712366,-1.491854492818014,-0.684974495564596,-1.601069752370016,-3.339254681264059
-0.6311410109149378,-2.4946120421039026,-1.4915068785296839,-0.6851304213153284,-1.6010339895831507,-3.338548008595602
-0.6315601507769983,-2.4947317282306116,-1.4913151899920862,-0.6852505842791956,-1.6010339895831507,-3.3381169478045862
-0.6319072882281702,-2.4948275724994105,-1.4910510222064417,-0.6852625052081507,-1.6009977499591272,-3.337745491658346
-0.632326904927389,-2.494911495839254,-1.4908469359027308,-0.6853702704059046,-1.6009858290301722,-3.3373144308673304
-0.6332252661334437,-2.495127026234762,-1.4903791586505335,-0.6855977217303675,-1.6009381453143519,-3.3364763895617884
-0.6336448828326624,-2.4952591101275843,-1.4901393095599573,-0.6858614126788538,-1.6009381453143519,-3.335985247288839
-0.6341002623187464,-2.4953787962542933,-1.4898870627032679,-0.6858018080340784,-1.6008780638324183,-3.3355658690081995
-0.6345794836627405,-2.4955108801471155,-1.4896352926837366,-0.6860178152667444,-1.6009019056903284,-3.3351107279406946
-0.635561768208639,-2.49573785463442,-1.489131275807516,-0.6862219015704554,-1.6007941404925745,-3.334104839955465
-0.6360047499286097,-2.4958937803851526,-1.4888551870929163,-0.686197582875387,-1.6007941404925745,-3.3336499373065394
-0.6364725271808069,-2.496037308369772,-1.48859149614443,-0.6863415876971644,-1.6007941404925745,-3.333170477543966
-0.6370113531695765,-2.496181313191549,-1.4883034865008753,-0.6865094343768519,-1.6007702986346644,-3.3326435724841517
-0.6379941145526331,-2.4964569250689905,-1.4877398649798792,-0.6867969671832483,-1.6006863752948206,-3.331613365803854
-0.6385090986834925,-2.4966004530536097,-1.487415615712301,-0.686868969594137,-1.600626293812887,-3.3310027758227747
-0.6390240828143519,-2.496756378804342,-1.4871400038348597,-0.6871207396136683,-1.6006625334369105,-3.33045202890505
-0.6395400206195276,-2.4969242254840296,-1.48684007326235,-0.6871684233294886,-1.600638214741842,-3.329996649418966
-0.64063007036318,-2.4972475210772913,-1.4862397352801722,-0.687540356312887,-1.6005542914019983,-3.328883234654562
-0.6411927382098597,-2.4974034468280237,-1.4859402815448206,-0.6877802054034632,-1.600506607686178,-3.328320328389303
-0.6417444388019007,-2.497546974812643,-1.4856880346881312,-0.687876049672262,-1.600518528615133,-3.3277693430529993
-0.6423195044146937,-2.4977267424212855,-1.4852927366839808,-0.6881039778338831,-1.6005423704730433,-3.3271825949298304
-0.6434815565692347,-2.498002354298727,-1.4846680800067347,-0.6883795897113245,-1.6004465262042444,-3.326104704533712
-0.6440084616290491,-2.4981702009784144,-1.4843805472003382,-0.6884635130511683,-1.6004346052752894,-3.3254576365100306
-0.6445477644549769,-2.4983018080340784,-1.4839842955218714,-0.6887038389789026,-1.6004226843463343,-3.3248468081103724
-0.6451829115497034,-2.4985058943377894,-1.483696762715475,-0.6887996832477015,-1.6004465262042444,-3.3242598215686243
-0.6463449637042444,-2.4988649527179163,-1.4830487410174769,-0.6892550627337855,-1.6003745237933558,-3.323062245045797
-0.6469920317279261,-2.4990204016314905,-1.4826648871051233,-0.6895306746112269,-1.6003149191485804,-3.3224273363696497
-0.6476395765887659,-2.499200169240133,-1.4823172728167933,-0.6896861235248011,-1.6003149191485804,-3.3218405882464808
-0.6482623259173792,-2.499416176472799,-1.4819453398333948,-0.6898663679706019,-1.6002910772906702,-3.321146313344137
-0.6495321432696741,-2.4997032324420374,-1.4812973181353968,-0.69019061723818,-1.6002309958087366,-3.3198166529284876
-0.6502388159381312,-2.4999550024615687,-1.4809253851519983,-0.6902502218829554,-1.6002429167376917,-3.3192058245288294
-0.6508505980121058,-2.5000746885882776,-1.4805291334735315,-0.6905258337603968,-1.6001952330218714,-3.3184996286975306
-0.6515329519854944,-2.5002663771258753,-1.4801338354693812,-0.6906340757953089,-1.6002190748797815,-3.317864481602804
-0.652862850819723,-2.5006020704852503,-1.4793294111834925,-0.691101376210348,-1.6001113096820276,-3.3163910547839563
-0.6535938421832483,-2.500769917164938,-1.4789698759662073,-0.6912816206561487,-1.6001351515399378,-3.315732781087057
-0.6543129126178187,-2.500997845326559,-1.4785378615008753,-0.6914609114276331,-1.6000989119159144,-3.3149781862842005
-0.6550195852862757,-2.501153294240133,-1.4781058470355433,-0.691664997731344,-1.6000631491290491,-3.3142598311053675
-0.6564572493182581,-2.501500431691305,-1.4773381392108362,-0.6920245329486292,-1.5999673048602503,-3.3127625624286097
-0.6572240034686487,-2.501728359852926,-1.476882282887594,-0.692240063344137,-1.6000030676471155,-3.312079731618063
-0.6579549948321741,-2.501871887837545,-1.476462189351217,-0.6924803892718714,-1.5999553839312952,-3.3113015333758753
-0.6586983839618128,-2.502075497304098,-1.4760544935809534,-0.6926844755755823,-1.5999673048602503,-3.310558859501974
-0.660255257283346,-2.5024827162372034,-1.4752023855792444,-0.6930559317218226,-1.599823300038473,-3.3089776674853724
-0.6609624067889612,-2.5026868025409144,-1.4748066107379358,-0.6932356993304651,-1.5998356978045862,-3.30818754831423
-0.6617415587054651,-2.5029142538653772,-1.4743989149676722,-0.6934750715838831,-1.5997756163226526,-3.3074567953692835
-0.662544075642721,-2.503105942402975,-1.4739306608783167,-0.6936314741717737,-1.5997274557696741,-3.3066661993609827
-0.6641019026385706,-2.503549400960104,-1.473079029713766,-0.6940630117999476,-1.599703613911764,-3.3050974051104944
-0.6648686567889612,-2.5037291685687464,-1.472635571156637,-0.6942785421954554,-1.5996077696429651,-3.3042712847339075
-0.6656950155841272,-2.503944698964254,-1.4721911589251917,-0.6944945494281214,-1.5996196905719202,-3.303492609654562
-0.6664379278766077,-2.504172150288717,-1.4717467466937464,-0.6947105566607874,-1.5996196905719202,-3.3027265707599085
-0.6680434385882776,-2.5046032110797327,-1.4708712736712855,-0.6950581709491175,-1.5994880835162562,-3.301049772893087
-0.6688459555255335,-2.5048192183123987,-1.4704635779010218,-0.6952980200396937,-1.5994399229632776,-3.3002710978137415
-0.6696971098529261,-2.5050585905658167,-1.470032040272848,-0.6954658667193812,-1.5994637648211878,-3.2994330565081995
-0.6705477873431605,-2.505298439656393,-1.4695761839496058,-0.6957653204547327,-1.5993202368365687,-3.298690144215719
-0.6721532980548304,-2.5057180563556116,-1.4686759153949183,-0.6962812582599085,-1.599236313496725,-3.297037426625387
-0.6730158964740198,-2.5059216658221644,-1.468220059071676,-0.6964972654925745,-1.599236313496725,-3.2961512247668665
-0.673842732106344,-2.5061729590045374,-1.4677284399615687,-0.6967008749591272,-1.5991523901568812,-3.2953007856952112
-0.6746934095965784,-2.50635272661318,-1.467236344014303,-0.6969407240497034,-1.5990803877459925,-3.2944985071765345
-0.6764548460589808,-2.506820027028219,-1.4661925474749964,-0.6973484198199671,-1.598912541066305,-3.2927261034594935
-0.6774371306048792,-2.507047478352682,-1.4657123724566858,-0.6975882689105433,-1.5990203062640589,-3.2917800585376185
-0.6783955732928675,-2.507299248372213,-1.4651849905597132,-0.6978996435748499,-1.5988767782794397,-3.290870014821188
-0.6793659369098108,-2.5075748602496546,-1.4646208922015589,-0.6981633345233362,-1.598912541066305,-3.2898038069354456
-0.681319538746969,-2.508113686238424,-1.463541332875387,-0.6986554304706019,-1.5987804571734827,-3.287863794957296
-0.682349983845846,-2.5083892981158655,-1.4629409948932093,-0.6989548842059534,-1.5988529364215296,-3.286785666142599
-0.6833685080157679,-2.508676830922262,-1.4623530546771448,-0.6993024984942835,-1.5987203756915491,-3.2856479326831263
-0.6844947973834437,-2.5089405218707483,-1.4617417494403284,-0.6995781103717249,-1.5986488501178187,-3.2846179644214075
-0.6866753737079065,-2.5095399061786097,-1.4604457060443323,-0.7001898924456995,-1.59857684770693,-3.282342497502462
-0.6878612677203577,-2.5098632017718714,-1.4597738424884241,-0.700477425252096,-1.5986245314227503,-3.2811926046954554
-0.6890233198748987,-2.5102227369891565,-1.459101978932516,-0.7007773558246058,-1.5985530058490198,-3.279970947896139
-0.6902454535113733,-2.510533634816305,-1.4585140387164515,-0.7011373678790491,-1.598469082509176,-3.27879769006838
-0.6927736441241663,-2.511228863392965,-1.4570625464068812,-0.7017844359027308,-1.5983970800982874,-3.2763543764697474
-0.6941159407245081,-2.51156455675234,-1.456390682850973,-0.7021797339068812,-1.598360840474264,-3.2750733534442347
-0.6953380743609827,-2.5119240919696253,-1.4555867354022425,-0.7025159041034144,-1.5984328428851526,-3.2737792173968714
-0.6966441313373011,-2.512271229420797,-1.4548066298114222,-0.7029355208026331,-1.598241154347555,-3.2724018732654017
-0.6993158499347132,-2.5129898230182093,-1.453378979359762,-0.7036312262164515,-1.5982292334186,-3.26969558397402
-0.7006819883929651,-2.5133374373065394,-1.4525874296771448,-0.703918759022848,-1.5980733076678675,-3.2682462374316614
-0.7020838896380823,-2.5137208143817347,-1.451843563710348,-0.7042425314532679,-1.5981810728656214,-3.26689321199526
-0.7034857908831995,-2.5140441099749964,-1.4510396162616175,-0.704602066670553,-1.5980256239520472,-3.265491787587301
-0.7062056700335901,-2.514798943196432,-1.44946796098818,-0.7053816954242151,-1.5980494658099573,-3.2627254168139856
-0.7075355688678187,-2.515146557484762,-1.4487479368792933,-0.7057650724994105,-1.59790546098818,-3.2613003889666956
-0.7089136282550257,-2.515481774006979,-1.447956387196676,-0.706148926411764,-1.5979417006122034,-3.2600067297564905
-0.7102559248553675,-2.515853230153219,-1.4472363630877894,-0.7065442244159144,-1.5977500120746058,-3.2585697809802454
-0.7129157225238245,-2.516524140034811,-1.445772949849264,-0.7072160879718226,-1.5976417700396937,-3.2558632532702845
-0.7142093817340296,-2.516883675252096,-1.4450891653644007,-0.7075040976153772,-1.597678009663717,-3.2545576731311243
-0.7155039946185511,-2.5172789732562464,-1.444369141255514,-0.7078636328326624,-1.5975459257708948,-3.2532523314105433
-0.7167499701129358,-2.517590347920553,-1.4436848799334925,-0.7082470099078577,-1.5975340048419397,-3.251934591923849
-0.7192300001727503,-2.518261257802145,-1.442305866871969,-0.7089303175555628,-1.5974023977862757,-3.249443833027975
-0.7205002943622034,-2.5185607115374964,-1.441573444996969,-0.7092421690570276,-1.597222630177633,-3.248162333165304
-0.721722427998678,-2.5188964048968714,-1.4408896605121058,-0.7095659414874476,-1.5972345511065882,-3.246881071721212
-0.7229207197772425,-2.5191481749164026,-1.440242115651266,-0.7099140326129358,-1.5971387068377894,-3.2456355730639856
-0.7253053824054163,-2.519759003316061,-1.4388983885394495,-0.7105730215655726,-1.5970428625689905,-3.243216101323263
-0.7265155951129358,-2.5200822989093226,-1.4382384459124964,-0.7108371893512171,-1.5970309416400355,-3.2419830004321497
-0.7276294867144983,-2.5203703085528772,-1.4375785032855433,-0.7111247221576136,-1.5969226996051233,-3.2407613436328333
-0.7287920157061976,-2.5206812063800257,-1.43689471880068,-0.7114604155169886,-1.5967672506915491,-3.2395995298968714
-0.7311885992633265,-2.5213282744037073,-1.4355509916888636,-0.7121561209308069,-1.5965994040118616,-3.2371206919299524
-0.7323864142047327,-2.521628204976217,-1.4348910490619105,-0.7124317328082483,-1.5966714064227503,-3.2358511129962366
-0.7335851828204554,-2.521951500569479,-1.4342430273639124,-0.712743107472555,-1.5966351667987269,-3.234701458607809
-0.735969368611471,-2.5226224104510706,-1.432899300252096,-0.7134512106524866,-1.5965636412249964,-3.2322943846331995
-0.7371795813189905,-2.522886101399557,-1.432251278554098,-0.7137625853167933,-1.5963957945453089,-3.2310248056994837
-0.7383535544024866,-2.523257557545797,-1.4315317312823694,-0.7140501181231897,-1.596407715474264,-3.229791227971212
-0.7395880858050745,-2.5235326925860804,-1.4308479467975062,-0.7143738905536097,-1.5963237921344202,-3.228593651448385
-0.7408221403705042,-2.523844544087545,-1.4301398436175745,-0.7146857420550745,-1.5962160269366663,-3.227300469075338
-0.7432783285724085,-2.5245030562030237,-1.4287360350238245,-0.7153814474688929,-1.5961321035968226,-3.2248685995685022
-0.7445724646197718,-2.5248869101153772,-1.428028408681051,-0.7156694571124476,-1.5961321035968226,-3.2235634962665003
-0.7458904425250452,-2.5251625219928187,-1.4273083845721644,-0.7159808317767542,-1.5961077849017542,-3.2223179976092737
-0.7471368948565882,-2.5254977385150355,-1.4265406767474573,-0.7162683645831507,-1.595964256917135,-3.221048418675558
-0.7497013250934046,-2.5261805693255823,-1.4251130262957972,-0.7170360724078577,-1.5958321730243128,-3.2185094992267054
-0.7510069052325647,-2.526480023060934,-1.4243691603290003,-0.7173593680011194,-1.5958922545062464,-3.2172279993640345
-0.75238544145693,-2.5268033186541956,-1.423600975667135,-0.7176831404315394,-1.595748249684469,-3.2159228960620325
-0.7536910215960901,-2.5271151701556605,-1.4228814283954065,-0.7180188337909144,-1.5957000891314905,-3.214557472859518
-0.7563393751727503,-2.5277860800372522,-1.421417538319723,-0.7187741438495081,-1.5955565611468714,-3.2120545546161097
-0.7576692740069788,-2.5281456152545374,-1.4206855932818812,-0.719085995350973,-1.595520321522848,-3.2106531302081507
-0.759071175252096,-2.5284574667560022,-1.4200018087970179,-0.7194579283343714,-1.5953167120562952,-3.2093239466296595
-0.7603657881366175,-2.528816048298971,-1.4192221800433558,-0.7198298613177698,-1.5954244772540491,-3.207982603703634
-0.7630375067340296,-2.5295589605914515,-1.4178183714496058,-0.7205970923053187,-1.5952089468585413,-3.205251995717184
-0.7643316427813929,-2.5298827330218714,-1.4170621077166956,-0.7209685484515589,-1.5951607863055628,-3.203946892415182
-0.7656257788287562,-2.530182186757223,-1.4163420836078089,-0.7212923208819788,-1.5949810186969202,-3.202569309865133
-0.7668717543231409,-2.530541721974508,-1.415586296712057,-0.7216399351703089,-1.5951011816607874,-3.201264206563131
-0.7694123427020472,-2.5312369505511683,-1.4142068068133753,-0.7223475615130823,-1.5948851744281214,-3.1985817591296595
-0.7707064787494105,-2.5315359274493616,-1.4134867827044886,-0.722670857106344,-1.5949090162860315,-3.197324339543478
-0.7719762961017054,-2.5318830649005335,-1.4127667585956019,-0.7230070273028772,-1.5947654883014124,-3.196042839680807
-0.7732346693622034,-2.5322306791888636,-1.412011448537008,-0.7232945601092737,-1.5948012510882776,-3.19474965730776
-0.775703255330221,-2.532853905354635,-1.4106677214251917,-0.7240498701678675,-1.5946453253375452,-3.1922226587878626
-0.7769611517535608,-2.533201519642965,-1.40993577638735,-0.7243378798114222,-1.5947535673724573,-3.1909294764148157
-0.7781832853900355,-2.5335009733783167,-1.409215275441305,-0.7246258894549769,-1.5945375601397913,-3.18968373933901
-0.7794173399554651,-2.5338481108294886,-1.4085553328143519,-0.7249372641192835,-1.594597641621725,-3.1884382406817835
-0.7818744818316858,-2.534567181264059,-1.4071877638446253,-0.7256205717669886,-1.5944297949420374,-3.18592340150942
-0.7830846945392054,-2.534926716481344,-1.4065278212176722,-0.7259324232684534,-1.5945375601397913,-3.18464166322817
-0.7843545118915003,-2.5352981726275843,-1.4058082739459437,-0.7262919584857386,-1.594273869191305,-3.183396641408102
-0.7856248060809534,-2.5356696287738245,-1.4051240126239222,-0.7266162077533167,-1.5943339506732386,-3.182127062474386
-0.7880695501910608,-2.5363286177264612,-1.4036968390094202,-0.7273591200457972,-1.5941184202777308,-3.179647986088888
-0.7893512884723108,-2.536687676106588,-1.4029648939715784,-0.7277072111712855,-1.5941899458514612,-3.1783304850207728
-0.7905858198748987,-2.536999527608053,-1.402292553578512,-0.728006664906637,-1.593926731740133,-3.177169148121969
-0.7918079535113733,-2.5373223463641565,-1.401621166859762,-0.7283304373370569,-1.5940583387957972,-3.175875965748922
-0.7943604628192347,-2.5379937330829065,-1.4001215139972132,-0.7289899031268519,-1.5938547293292444,-3.173396889363424
-0.7955945173846644,-2.538293186818258,-1.399473015462057,-0.7293017546283167,-1.593806568776266,-3.172199074422018
-0.7968767325030726,-2.538605038319723,-1.398717228566305,-0.7296612898456019,-1.5936630407916468,-3.170905892048971
-0.7981470266925257,-2.5389283339129847,-1.3980572859393519,-0.729901138936178,-1.5937226454364222,-3.1696723143206995
-0.8006513754474085,-2.5395873228656214,-1.3966296354876917,-0.7306807676898401,-1.5936630407916468,-3.1672053972827356
-0.8019097487079065,-2.5399344603167933,-1.3959582487689417,-0.7310283819781702,-1.5934589544879358,-3.1659238974200647
-0.8031676451312464,-2.5402701536761683,-1.3952139059649866,-0.73132831255068,-1.5935309568988245,-3.1646304766284388
-0.8044617811786097,-2.540581528340475,-1.394505802785055,-0.7316277662860315,-1.5934351126300257,-3.163337532673971
-0.8069184462176722,-2.54126483598818,-1.3931263128863733,-0.7322629133807581,-1.593363110219137,-3.1608343760119837
-0.808176342641012,-2.541635815297262,-1.3924067656146448,-0.7326830069171351,-1.5931475798236292,-3.159541193638937
-0.8094466368304651,-2.541971508656637,-1.3917587439166468,-0.7329948584185999,-1.593255345021383,-3.1583436171161097
-0.8106687704669397,-2.542318646107809,-1.3909786383258265,-0.73334247270693,-1.5931475798236292,-3.157074038182394
-0.813209358845846,-2.543013397847311,-1.3895390669452112,-0.7340858618365687,-1.5930755774127405,-3.154487196599142
-0.8144195715533655,-2.5433371702777308,-1.388867203389303,-0.734469238911764,-1.592895809804098,-3.1532536188708704
-0.8157256285296839,-2.5436728636371058,-1.3881714979754847,-0.7347696463214319,-1.5929678122149866,-3.151972834263937
-0.8169601599322718,-2.5439961592303675,-1.38747483888735,-0.7351291815387171,-1.5928357283221644,-3.1506791750537317
-0.8195365110980433,-2.544643227254049,-1.3859995047198694,-0.7357643286334437,-1.592776123677389,-3.148248259221212
-0.820782486592428,-2.544978443776266,-1.385303799306051,-0.7361362616168421,-1.592572037373678,-3.146918837224142
-0.8220647017108362,-2.5452659765826624,-1.384643856679098,-0.7364237944232386,-1.5926440397845667,-3.1456013361560267
-0.8232987562762659,-2.5456255117999476,-1.3839595953570765,-0.7367113272296351,-1.5924518744098108,-3.144320074711935
-0.8258636633502405,-2.546272579823629,-1.38259202638735,-0.7374432722674769,-1.5923922697650355,-3.141709868107931
-0.8271458784686487,-2.5466678778277796,-1.3818958441363733,-0.7378266493426722,-1.5921881834613245,-3.140320364628927
-0.8284037748919886,-2.5469911734210413,-1.3811762968646448,-0.7381861845599573,-1.592236344014303,-3.1390748659717005
-0.8296979109393519,-2.5473745504962366,-1.3804801146136683,-0.738474194203512,-1.5920446554767054,-3.1377816835986536
-0.8322027365313929,-2.5480454603778284,-1.3790648619281214,-0.7391217390643519,-1.5919726530658167,-3.1352184454547327
-0.8334968725787562,-2.5484169165240687,-1.3783324400531214,-0.7394936720477503,-1.5918768087970179,-3.1338897387133997
-0.8347309271441858,-2.5487645308123987,-1.377648655568258,-0.7398293654071253,-1.5919368902789515,-3.132632080708639
-0.8359530607806605,-2.5490639845477503,-1.3769405523883265,-0.7401407400714319,-1.591769043599264,-3.1313868204699915
-0.8385174910174769,-2.549723450337545,-1.3755372206317347,-0.7408960501300257,-1.5917452017413538,-3.1287997404681605
-0.8397639433490198,-2.550070587788717,-1.374817196522848,-0.7412074247943323,-1.5916250387774866,-3.1275184790240687
-0.8410099188434046,-2.5503581205951136,-1.3741453329669397,-0.741591755543844,-1.5917571226703089,-3.126237455998556
-0.8422449270831507,-2.5506933371173304,-1.3733771483050745,-0.7418797651873987,-1.5915773550616663,-3.1249077955829065
-0.8447130362140101,-2.551352326069967,-1.372009579335348,-0.7425625959979456,-1.5915654341327112,-3.122381035481588
-0.8459590117083948,-2.5516279379474085,-1.3712776342975062,-0.7428863684283655,-1.5914095083819788,-3.1211000124560755
-0.8472178618060511,-2.55192739168276,-1.3705337683307093,-0.7432339827166956,-1.591553036366598,-3.1198304335223597
-0.8485239187823694,-2.55225116411318,-1.3699219862567347,-0.7435582319842737,-1.5913375059710901,-3.118585173283712
