youngblood1998/my_ws/src/ur5_platform/ur5_platform_manipulation/wzq/test4_14_6.csv
j0,j1,j2,j3,j4,j5
-0.8226283232318323,-2.5178540388690394,-1.4397500197040003,-0.7138584295855921,-1.5963838736163538,-3.1427038351642054
-0.822604004536764,-2.517830197011129,-1.4397981802569788,-0.7138827482806605,-1.5963838736163538,-3.1427157560931605
-0.8226283232318323,-2.5178421179400843,-1.4398101011859339,-0.7138827482806605,-1.5963957945453089,-3.142691675816671
-0.8226283232318323,-2.5178540388690394,-1.4397981802569788,-0.7138827482806605,-1.5963595549212855,-3.1427276770221155
-0.822615925465719,-2.5178540388690394,-1.4397624174701136,-0.7138584295855921,-1.5963714758502405,-3.1427157560931605
-0.8225920836078089,-2.5178540388690394,-1.4397500197040003,-0.7138703505145472,-1.5963595549212855,-3.1427276770221155
-0.8226283232318323,-2.517830197011129,-1.4397862593280237,-0.7138827482806605,-1.5963838736163538,-3.1427157560931605
-0.822615925465719,-2.517818276082174,-1.4397981802569788,-0.7138703505145472,-1.5963957945453089,-3.142751757298605
-0.8226283232318323,-2.517830197011129,-1.4397624174701136,-0.7138703505145472,-1.5963714758502405,-3.1427157560931605
-0.8225920836078089,-2.5178421179400843,-1.4397862593280237,-0.713846508656637,-1.5963957945453089,-3.1427395979510706
-0.822615925465719,-2.517818276082174,-1.4397862593280237,-0.7138703505145472,-1.5963838736163538,-3.142691675816671
-0.822615925465719,-2.5178421179400843,-1.4397981802569788,-0.7138584295855921,-1.5963957945453089,-3.1427038351642054
-0.822615925465719,-2.5178421179400843,-1.4397981802569788,-0.7138703505145472,-1.5963838736163538,-3.142655674611227
-0.8226283232318323,-2.5178421179400843,-1.4397261778460901,-0.7138703505145472,-1.5964315573321741,-3.1427395979510706
-0.822604004536764,-2.517806355153219,-1.4397500197040003,-0.7138584295855921,-1.596407715474264,-3.1427395979510706
-0.8225920836078089,-2.517818276082174,-1.4397738615619105,-0.7138584295855921,-1.596407715474264,-3.142691675816671
-0.822604004536764,-2.517806355153219,-1.4397862593280237,-0.7139065901385706,-1.5963714758502405,-3.1427038351642054
-0.8226402441607874,-2.517806355153219,-1.4397862593280237,-0.7138703505145472,-1.5963957945453089,-3.1427038351642054
-0.8225682417498987,-2.517818276082174,-1.4397624174701136,-0.7138827482806605,-1.5963714758502405,-3.1427038351642054
-0.8226283232318323,-2.517806355153219,-1.4397862593280237,-0.7138703505145472,-1.596407715474264,-3.1427038351642054
-0.822615925465719,-2.517818276082174,-1.4397862593280237,-0.7138584295855921,-1.5963838736163538,-3.1427157560931605
-0.8226402441607874,-2.5178540388690394,-1.4397624174701136,-0.713846508656637,-1.5963714758502405,-3.1427157560931605
-0.8226283232318323,-2.517830197011129,-1.4397624174701136,-0.7138703505145472,-1.5963838736163538,-3.1427038351642054
-0.822615925465719,-2.5178421179400843,-1.4397738615619105,-0.7138946692096155,-1.5963714758502405,-3.1427276770221155
-0.8225920836078089,-2.517818276082174,-1.4397862593280237,-0.7138827482806605,-1.5963838736163538,-3.1427276770221155
-0.8226283232318323,-2.517830197011129,-1.4397981802569788,-0.7138584295855921,-1.5963957945453089,-3.1427276770221155
-0.8225682417498987,-2.517830197011129,-1.4397981802569788,-0.7138703505145472,-1.5963838736163538,-3.1427038351642054
-0.822604004536764,-2.517818276082174,-1.4397862593280237,-0.7138703505145472,-1.596419636403219,-3.1427157560931605
-0.822615925465719,-2.517818276082174,-1.4397862593280237,-0.7138703505145472,-1.5963838736163538,-3.1427157560931605
-0.822604004536764,-2.517818276082174,-1.4397862593280237,-0.7138584295855921,-1.5963714758502405,-3.1427157560931605
-0.8226283232318323,-2.517818276082174,-1.4397862593280237,-0.7139065901385706,-1.596419636403219,-3.142667833958761
-0.8226402441607874,-2.517794434224264,-1.4397862593280237,-0.7138703505145472,-1.5963957945453089,-3.142667833958761
-0.822615925465719,-2.517818276082174,-1.4397738615619105,-0.7138345877276819,-1.5963957945453089,-3.1427276770221155
-0.8225920836078089,-2.517830197011129,-1.4397738615619105,-0.7138584295855921,-1.5963838736163538,-3.1427038351642054
-0.8226521650897425,-2.517830197011129,-1.4397624174701136,-0.7138703505145472,-1.5963957945453089,-3.1427157560931605
-0.822615925465719,-2.517818276082174,-1.4397738615619105,-0.7138827482806605,-1.5963838736163538,-3.142691675816671
-0.822615925465719,-2.517818276082174,-1.4397981802569788,-0.7138345877276819,-1.5964315573321741,-3.142751757298605
-0.8225920836078089,-2.517818276082174,-1.4397738615619105,-0.7138703505145472,-1.596407715474264,-3.1427276770221155
-0.822604004536764,-2.5178421179400843,-1.4397862593280237,-0.7138703505145472,-1.5963838736163538,-3.1427276770221155
-0.822604004536764,-2.517830197011129,-1.4397862593280237,-0.7138703505145472,-1.5963957945453089,-3.1427157560931605
-0.8226402441607874,-2.517806355153219,-1.4397981802569788,-0.7138946692096155,-1.596407715474264,-3.1427395979510706
-0.8226283232318323,-2.517830197011129,-1.4397624174701136,-0.7138703505145472,-1.5963838736163538,-3.1427038351642054
-0.8225920836078089,-2.5178421179400843,-1.4397862593280237,-0.7138946692096155,-1.5963714758502405,-3.142691675816671
-0.822615925465719,-2.517818276082174,-1.4397738615619105,-0.7138703505145472,-1.5963838736163538,-3.1427276770221155
-0.8225801626788538,-2.517818276082174,-1.4397981802569788,-0.7139185110675257,-1.596419636403219,-3.1427157560931605
-0.822615925465719,-2.517806355153219,-1.4397380987750452,-0.7138703505145472,-1.5963838736163538,-3.1427395979510706
-0.822615925465719,-2.5178540388690394,-1.4397738615619105,-0.713846508656637,-1.5963838736163538,-3.1427038351642054
-0.822615925465719,-2.5178540388690394,-1.4397981802569788,-0.713846508656637,-1.5963595549212855,-3.1427276770221155
-0.822604004536764,-2.517818276082174,-1.4397862593280237,-0.7138703505145472,-1.5963714758502405,-3.1427157560931605
-0.822604004536764,-2.517818276082174,-1.4397738615619105,-0.7138703505145472,-1.5963957945453089,-3.1427157560931605
-0.822604004536764,-2.5178421179400843,-1.4397500197040003,-0.7138703505145472,-1.5963838736163538,-3.1427038351642054
-0.8226521650897425,-2.517830197011129,-1.4397624174701136,-0.7139065901385706,-1.5963595549212855,-3.1427276770221155
-0.8226283232318323,-2.517830197011129,-1.4397981802569788,-0.7138584295855921,-1.5963476339923304,-3.1427038351642054
-0.822604004536764,-2.5178540388690394,-1.4397624174701136,-0.7138827482806605,-1.5963957945453089,-3.1427157560931605
-0.822615925465719,-2.517818276082174,-1.4397624174701136,-0.7138703505145472,-1.5963838736163538,-3.1427276770221155
-0.822604004536764,-2.517794434224264,-1.4397862593280237,-0.7138946692096155,-1.596407715474264,-3.1427276770221155
-0.8225920836078089,-2.517794434224264,-1.4397624174701136,-0.7138584295855921,-1.5963595549212855,-3.1427038351642054
-0.8225920836078089,-2.517818276082174,-1.4397624174701136,-0.7138703505145472,-1.596407715474264,-3.1427157560931605
-0.8226521650897425,-2.517830197011129,-1.4397624174701136,-0.7138946692096155,-1.5963838736163538,-3.1427038351642054
-0.8225920836078089,-2.517830197011129,-1.4397500197040003,-0.7138584295855921,-1.596419636403219,-3.142691675816671
-0.8225920836078089,-2.517806355153219,-1.4397738615619105,-0.7138703505145472,-1.5963838736163538,-3.1427157560931605
-0.8226760069476526,-2.517806355153219,-1.4397738615619105,-0.7138703505145472,-1.5964315573321741,-3.14276367822756
-0.822604004536764,-2.517830197011129,-1.4397738615619105,-0.7138703505145472,-1.5963957945453089,-3.1427157560931605
-0.822604004536764,-2.517830197011129,-1.4397624174701136,-0.7138703505145472,-1.5963957945453089,-3.1427157560931605
-0.8225801626788538,-2.5178540388690394,-1.4397500197040003,-0.7138584295855921,-1.5963838736163538,-3.1427276770221155
-0.822604004536764,-2.5178421179400843,-1.4397261778460901,-0.713846508656637,-1.5963838736163538,-3.1427157560931605
-0.822604004536764,-2.517806355153219,-1.4397624174701136,-0.7138946692096155,-1.5964315573321741,-3.1427276770221155
-0.822615925465719,-2.517818276082174,-1.4397624174701136,-0.713846508656637,-1.5963957945453089,-3.1427038351642054
-0.822615925465719,-2.517818276082174,-1.4397738615619105,-0.7138584295855921,-1.5963714758502405,-3.1427038351642054
-0.8226283232318323,-2.517806355153219,-1.4397981802569788,-0.7138345877276819,-1.5963714758502405,-3.1427157560931605
-0.8225682417498987,-2.517794434224264,-1.4397981802569788,-0.7138827482806605,-1.5963714758502405,-3.1427038351642054
-0.822615925465719,-2.5178540388690394,-1.4397500197040003,-0.7138946692096155,-1.5963957945453089,-3.1427038351642054
-0.8226521650897425,-2.517794434224264,-1.4397500197040003,-0.713846508656637,-1.5963714758502405,-3.1427157560931605
-0.8226640860186976,-2.517806355153219,-1.4397981802569788,-0.7138703505145472,-1.5963595549212855,-3.1427038351642054
-0.8225920836078089,-2.517830197011129,-1.4397862593280237,-0.7138584295855921,-1.5963714758502405,-3.1427157560931605
-0.822615925465719,-2.517806355153219,-1.4397624174701136,-0.7138946692096155,-1.5963838736163538,-3.1427157560931605
-0.822615925465719,-2.517818276082174,-1.4397981802569788,-0.7138703505145472,-1.5963838736163538,-3.1427157560931605
-0.822615925465719,-2.517794434224264,-1.4397500197040003,-0.7138946692096155,-1.5963595549212855,-3.142691675816671
-0.8226283232318323,-2.5178659597979944,-1.4397624174701136,-0.7138584295855921,-1.5963957945453089,-3.1427276770221155
-0.8225920836078089,-2.5178421179400843,-1.4397981802569788,-0.7138584295855921,-1.5963476339923304,-3.142691675816671
-0.8226640860186976,-2.517818276082174,-1.4397500197040003,-0.7138827482806605,-1.5963595549212855,-3.1427276770221155
-0.8225920836078089,-2.5178421179400843,-1.4397500197040003,-0.7138703505145472,-1.596419636403219,-3.1427276770221155
-0.8225801626788538,-2.517818276082174,-1.4397738615619105,-0.7138703505145472,-1.5963838736163538,-3.1427038351642054
-0.822615925465719,-2.517794434224264,-1.4397981802569788,-0.7138703505145472,-1.5963957945453089,-3.142679754887716
-0.822604004536764,-2.5178421179400843,-1.4397862593280237,-0.7138584295855921,-1.5963595549212855,-3.142751757298605
-0.822604004536764,-2.517818276082174,-1.4397981802569788,-0.7138703505145472,-1.5963714758502405,-3.1427038351642054
-0.822604004536764,-2.517830197011129,-1.439833943043844,-0.7138946692096155,-1.5963957945453089,-3.1427038351642054
-0.822615925465719,-2.517818276082174,-1.4397624174701136,-0.713846508656637,-1.5963957945453089,-3.1427276770221155
-0.8225920836078089,-2.5178421179400843,-1.4397738615619105,-0.7139065901385706,-1.5963838736163538,-3.1427157560931605
-0.822615925465719,-2.5178421179400843,-1.4397624174701136,-0.7138703505145472,-1.5963838736163538,-3.1427395979510706
-0.8226402441607874,-2.517806355153219,-1.4397738615619105,-0.7138827482806605,-1.5963957945453089,-3.1427038351642054
-0.8226521650897425,-2.517830197011129,-1.4397981802569788,-0.7138827482806605,-1.5963957945453089,-3.1427157560931605
-0.822615925465719,-2.517818276082174,-1.4397624174701136,-0.7138827482806605,-1.5963838736163538,-3.142691675816671
-0.822615925465719,-2.5178421179400843,-1.4397862593280237,-0.7138584295855921,-1.5963595549212855,-3.142751757298605
-0.8225920836078089,-2.517818276082174,-1.4397738615619105,-0.713846508656637,-1.5963957945453089,-3.142691675816671
-0.822615925465719,-2.517830197011129,-1.4397981802569788,-0.7138584295855921,-1.596407715474264,-3.1427038351642054
-0.822615925465719,-2.517830197011129,-1.4397862593280237,-0.7138703505145472,-1.596407715474264,-3.1427395979510706
-0.8226402441607874,-2.517830197011129,-1.4397624174701136,-0.7138703505145472,-1.5963838736163538,-3.1427157560931605
-0.8226402441607874,-2.5178421179400843,-1.4397380987750452,-0.713846508656637,-1.5963838736163538,-3.142691675816671
-0.8225920836078089,-2.517830197011129,-1.4397624174701136,-0.713846508656637,-1.5963957945453089,-3.1427157560931605
-0.8226283232318323,-2.5178540388690394,-1.4397862593280237,-0.7138703505145472,-1.596407715474264,-3.1427038351642054
-0.822604004536764,-2.517818276082174,-1.4397500197040003,-0.7138703505145472,-1.5963714758502405,-3.1427157560931605
-0.8225920836078089,-2.517794434224264,-1.4397738615619105,-0.7138703505145472,-1.596419636403219,-3.1427276770221155
-0.8225920836078089,-2.517806355153219,-1.4397862593280237,-0.7138703505145472,-1.596419636403219,-3.1427157560931605
-0.822615925465719,-2.517818276082174,-1.439822022114889,-0.7138946692096155,-1.596419636403219,-3.142691675816671
-0.822615925465719,-2.5178421179400843,-1.4397624174701136,-0.7138584295855921,-1.5963595549212855,-3.1427276770221155
-0.822615925465719,-2.517818276082174,-1.4397981802569788,-0.713846508656637,-1.5963957945453089,-3.142691675816671
-0.8226521650897425,-2.5178540388690394,-1.4397624174701136,-0.7139065901385706,-1.5963595549212855,-3.1427038351642054
-0.822615925465719,-2.517818276082174,-1.4397624174701136,-0.7138946692096155,-1.5963838736163538,-3.142679754887716
-0.8225920836078089,-2.517818276082174,-1.4397261778460901,-0.7138946692096155,-1.5963838736163538,-3.1427276770221155
-0.822615925465719,-2.517818276082174,-1.4397261778460901,-0.7138827482806605,-1.5963838736163538,-3.142691675816671
-0.822604004536764,-2.5178421179400843,-1.4397261778460901,-0.7138584295855921,-1.596419636403219,-3.1427038351642054
-0.822615925465719,-2.517830197011129,-1.4397261778460901,-0.7138703505145472,-1.5963838736163538,-3.1427276770221155
-0.822615925465719,-2.517818276082174,-1.4397981802569788,-0.7138946692096155,-1.5963957945453089,-3.142751757298605
-0.8225920836078089,-2.517818276082174,-1.4397738615619105,-0.7138703505145472,-1.5964315573321741,-3.1427276770221155
-0.822615925465719,-2.517830197011129,-1.4397624174701136,-0.7138703505145472,-1.5963957945453089,-3.1427157560931605
-0.8225920836078089,-2.517830197011129,-1.4397981802569788,-0.7138703505145472,-1.5963838736163538,-3.142691675816671
-0.8225563208209437,-2.517818276082174,-1.4397624174701136,-0.713846508656637,-1.5963838736163538,-3.1427157560931605
-0.822604004536764,-2.5178421179400843,-1.4397862593280237,-0.7138827482806605,-1.5963714758502405,-3.1427038351642054
-0.822615925465719,-2.5178540388690394,-1.4397380987750452,-0.7138703505145472,-1.5964315573321741,-3.1427038351642054
-0.822615925465719,-2.517830197011129,-1.4397624174701136,-0.7138703505145472,-1.596419636403219,-3.1427038351642054
-0.8225920836078089,-2.517830197011129,-1.4397981802569788,-0.7138946692096155,-1.5963714758502405,-3.1427395979510706
-0.8226283232318323,-2.517818276082174,-1.4397738615619105,-0.7138584295855921,-1.596407715474264,-3.1427276770221155
-0.822615925465719,-2.5178421179400843,-1.4397500197040003,-0.713846508656637,-1.5963595549212855,-3.1427038351642054
-0.822615925465719,-2.517830197011129,-1.4397862593280237,-0.7138827482806605,-1.5963957945453089,-3.1427276770221155
-0.8225920836078089,-2.5178540388690394,-1.4397981802569788,-0.7138946692096155,-1.5963957945453089,-3.1427038351642054
-0.8225801626788538,-2.517818276082174,-1.4397261778460901,-0.7138703505145472,-1.5963838736163538,-3.142691675816671
-0.822604004536764,-2.517806355153219,-1.4397738615619105,-0.7138827482806605,-1.5963838736163538,-3.1427157560931605
-0.8225682417498987,-2.517830197011129,-1.4397380987750452,-0.7138703505145472,-1.5963957945453089,-3.1427038351642054
-0.8225920836078089,-2.517806355153219,-1.4397738615619105,-0.7138584295855921,-1.5963957945453089,-3.1427038351642054
-0.822615925465719,-2.517794434224264,-1.4398101011859339,-0.7138946692096155,-1.5963714758502405,-3.1427395979510706
-0.8226283232318323,-2.517830197011129,-1.4397981802569788,-0.7138345877276819,-1.5963714758502405,-3.1427157560931605
-0.8225920836078089,-2.517818276082174,-1.4397738615619105,-0.7138345877276819,-1.596407715474264,-3.142655674611227
-0.822604004536764,-2.517818276082174,-1.4397500197040003,-0.7138703505145472,-1.5963714758502405,-3.1427038351642054
-0.822615925465719,-2.5178540388690394,-1.4397738615619105,-0.7138827482806605,-1.5963838736163538,-3.1427276770221155
-0.822615925465719,-2.517818276082174,-1.4397500197040003,-0.7138703505145472,-1.5963838736163538,-3.142691675816671
-0.822615925465719,-2.5178421179400843,-1.4397624174701136,-0.7138584295855921,-1.5963595549212855,-3.1427395979510706
-0.8225682417498987,-2.517818276082174,-1.4398101011859339,-0.7139065901385706,-1.5963595549212855,-3.1427038351642054
-0.822604004536764,-2.517830197011129,-1.4397981802569788,-0.713846508656637,-1.5963957945453089,-3.1427038351642054
-0.8226283232318323,-2.517818276082174,-1.4397738615619105,-0.7138703505145472,-1.5963957945453089,-3.142679754887716
-0.8225920836078089,-2.517818276082174,-1.4397624174701136,-0.7138703505145472,-1.5963476339923304,-3.1427157560931605
-0.8225920836078089,-2.517818276082174,-1.4397500197040003,-0.7138946692096155,-1.5963595549212855,-3.1427038351642054
-0.8226402441607874,-2.517794434224264,-1.4397500197040003,-0.7138827482806605,-1.5963714758502405,-3.142691675816671
-0.822615925465719,-2.517830197011129,-1.4397624174701136,-0.7138584295855921,-1.596407715474264,-3.1427395979510706
-0.822615925465719,-2.5178421179400843,-1.4397624174701136,-0.7138703505145472,-1.5963957945453089,-3.1427038351642054
-0.822615925465719,-2.517818276082174,-1.4397862593280237,-0.7138946692096155,-1.5963595549212855,-3.1427395979510706
-0.822615925465719,-2.5178421179400843,-1.4397500197040003,-0.7138703505145472,-1.596419636403219,-3.1427157560931605
-0.8226283232318323,-2.517818276082174,-1.4397624174701136,-0.7138584295855921,-1.5963957945453089,-3.1427038351642054
-0.822615925465719,-2.517806355153219,-1.4397500197040003,-0.7138946692096155,-1.596407715474264,-3.142691675816671
-0.8225920836078089,-2.517830197011129,-1.4397624174701136,-0.7138584295855921,-1.5963838736163538,-3.14276367822756
-0.822615925465719,-2.517830197011129,-1.4397624174701136,-0.7138703505145472,-1.5963838736163538,-3.1427157560931605
-0.822604004536764,-2.517818276082174,-1.4397981802569788,-0.7138584295855921,-1.5963957945453089,-3.1427038351642054
-0.822604004536764,-2.517818276082174,-1.4397261778460901,-0.7138827482806605,-1.5963957945453089,-3.142751757298605
-0.822604004536764,-2.517818276082174,-1.4397380987750452,-0.7138584295855921,-1.596419636403219,-3.142667833958761
-0.822604004536764,-2.5178421179400843,-1.439833943043844,-0.7138703505145472,-1.5963838736163538,-3.1427276770221155
-0.822604004536764,-2.517806355153219,-1.4397624174701136,-0.7138584295855921,-1.5963714758502405,-3.1427157560931605
-0.8225801626788538,-2.517818276082174,-1.4397862593280237,-0.7138827482806605,-1.5963957945453089,-3.1427157560931605
-0.822615925465719,-2.517830197011129,-1.4397624174701136,-0.7138703505145472,-1.5963476339923304,-3.1427157560931605
-0.8225682417498987,-2.517782513295309,-1.4397624174701136,-0.713846508656637,-1.596407715474264,-3.142751757298605
-0.822615925465719,-2.517794434224264,-1.4397624174701136,-0.7138703505145472,-1.5963714758502405,-3.1427157560931605
-0.8226283232318323,-2.5178421179400843,-1.4397380987750452,-0.7138946692096155,-1.596407715474264,-3.142691675816671
-0.8226283232318323,-2.517830197011129,-1.4397500197040003,-0.7138827482806605,-1.5963714758502405,-3.1427395979510706
-0.8226283232318323,-2.5178421179400843,-1.4397738615619105,-0.713846508656637,-1.5963957945453089,-3.1427038351642054
-0.822615925465719,-2.517818276082174,-1.4397624174701136,-0.7138584295855921,-1.5963957945453089,-3.1427038351642054
-0.822615925465719,-2.517806355153219,-1.4397738615619105,-0.7138584295855921,-1.5963838736163538,-3.142655674611227
-0.8226283232318323,-2.517818276082174,-1.4397624174701136,-0.7138827482806605,-1.5963957945453089,-3.1427395979510706
-0.822615925465719,-2.517806355153219,-1.4397624174701136,-0.7138584295855921,-1.5963957945453089,-3.1427276770221155
-0.822604004536764,-2.517818276082174,-1.4397261778460901,-0.7138946692096155,-1.5963714758502405,-3.1427395979510706
-0.8226283232318323,-2.517806355153219,-1.439714256917135,-0.7138827482806605,-1.5963957945453089,-3.1427038351642054
-0.822615925465719,-2.517818276082174,-1.4397500197040003,-0.7138584295855921,-1.5963957945453089,-3.1427157560931605
-0.822615925465719,-2.517818276082174,-1.4397738615619105,-0.713846508656637,-1.5963838736163538,-3.1427038351642054
-0.822615925465719,-2.5178540388690394,-1.4397500197040003,-0.7139065901385706,-1.5963714758502405,-3.1427038351642054
-0.822615925465719,-2.517830197011129,-1.4398101011859339,-0.713846508656637,-1.5963714758502405,-3.1427395979510706
-0.822604004536764,-2.5178540388690394,-1.4397981802569788,-0.7138827482806605,-1.5963957945453089,-3.1427157560931605
-0.822604004536764,-2.517818276082174,-1.4397862593280237,-0.7138827482806605,-1.5963714758502405,-3.1427276770221155
-0.8225920836078089,-2.517830197011129,-1.4397624174701136,-0.7138703505145472,-1.5963476339923304,-3.1427157560931605
-0.8226283232318323,-2.517818276082174,-1.4397981802569788,-0.7139065901385706,-1.596407715474264,-3.1427157560931605
-0.822604004536764,-2.517830197011129,-1.4397738615619105,-0.7138703505145472,-1.596407715474264,-3.1427157560931605
-0.822615925465719,-2.517818276082174,-1.4397738615619105,-0.7139065901385706,-1.5963714758502405,-3.1427395979510706
-0.8226283232318323,-2.517782513295309,-1.4397500197040003,-0.7138827482806605,-1.5963838736163538,-3.1427276770221155
-0.8225682417498987,-2.5178421179400843,-1.4397862593280237,-0.7138584295855921,-1.5963838736163538,-3.1427157560931605
-0.822615925465719,-2.517818276082174,-1.4397862593280237,-0.7138946692096155,-1.596407715474264,-3.1427276770221155
-0.8225801626788538,-2.5178540388690394,-1.4397862593280237,-0.7138584295855921,-1.5963957945453089,-3.142691675816671
-0.822615925465719,-2.517806355153219,-1.4397624174701136,-0.7138703505145472,-1.5963957945453089,-3.1427276770221155
-0.822615925465719,-2.517806355153219,-1.4398101011859339,-0.7138703505145472,-1.596419636403219,-3.1427038351642054
-0.8225920836078089,-2.5178421179400843,-1.4397738615619105,-0.7138703505145472,-1.5963957945453089,-3.1427157560931605
-0.8226283232318323,-2.5178421179400843,-1.4397500197040003,-0.713846508656637,-1.596407715474264,-3.1427276770221155
-0.8226283232318323,-2.517830197011129,-1.4397862593280237,-0.7138703505145472,-1.5963957945453089,-3.1427157560931605
-0.8225920836078089,-2.5178421179400843,-1.4397862593280237,-0.7138703505145472,-1.5963838736163538,-3.1427038351642054
-0.822615925465719,-2.517806355153219,-1.4397624174701136,-0.713846508656637,-1.596407715474264,-3.142691675816671
-0.8225920836078089,-2.517818276082174,-1.4397624174701136,-0.713846508656637,-1.596407715474264,-3.1427395979510706
-0.8226283232318323,-2.517818276082174,-1.4397624174701136,-0.7138946692096155,-1.5963595549212855,-3.1427395979510706
-0.8226640860186976,-2.517830197011129,-1.4397981802569788,-0.7138703505145472,-1.5963957945453089,-3.142751757298605
-0.822615925465719,-2.5178540388690394,-1.4397738615619105,-0.7138827482806605,-1.5963595549212855,-3.1427395979510706
-0.822604004536764,-2.517806355153219,-1.4397862593280237,-0.7138827482806605,-1.5963957945453089,-3.1427038351642054
-0.8225920836078089,-2.517818276082174,-1.4397738615619105,-0.7138827482806605,-1.5963838736163538,-3.1427395979510706
-0.822604004536764,-2.517830197011129,-1.4397624174701136,-0.7138946692096155,-1.5963957945453089,-3.1427276770221155
-0.8225920836078089,-2.5178421179400843,-1.4398101011859339,-0.7138946692096155,-1.5963957945453089,-3.1427395979510706
-0.8225801626788538,-2.5178421179400843,-1.4398101011859339,-0.7138946692096155,-1.5963714758502405,-3.1427157560931605
-0.8225920836078089,-2.517818276082174,-1.4397862593280237,-0.713846508656637,-1.596407715474264,-3.1427038351642054
-0.8225801626788538,-2.5178421179400843,-1.4397624174701136,-0.7138946692096155,-1.596407715474264,-3.142691675816671
-0.8225801626788538,-2.517830197011129,-1.4397981802569788,-0.7138946692096155,-1.5963957945453089,-3.1427395979510706
-0.8226283232318323,-2.5178421179400843,-1.4397500197040003,-0.7138946692096155,-1.5963957945453089,-3.1427395979510706
-0.8225920836078089,-2.5178540388690394,-1.4397624174701136,-0.7138946692096155,-1.5963357130633753,-3.142751757298605
-0.822615925465719,-2.517830197011129,-1.4397500197040003,-0.7138827482806605,-1.596419636403219,-3.1427157560931605
-0.8225682417498987,-2.5178421179400843,-1.4397862593280237,-0.7138703505145472,-1.5963957945453089,-3.142691675816671
-0.8225920836078089,-2.517806355153219,-1.4397981802569788,-0.7138703505145472,-1.5963595549212855,-3.142679754887716
-0.8226521650897425,-2.517830197011129,-1.439822022114889,-0.7138703505145472,-1.5963714758502405,-3.1427038351642054
-0.8225801626788538,-2.5178421179400843,-1.4397624174701136,-0.7138827482806605,-1.5963838736163538,-3.1427157560931605
-0.822615925465719,-2.517830197011129,-1.4397624174701136,-0.7138703505145472,-1.5963957945453089,-3.142751757298605
-0.8225324789630335,-2.517818276082174,-1.4397862593280237,-0.7138584295855921,-1.596419636403219,-3.1427395979510706
-0.822615925465719,-2.517818276082174,-1.4397738615619105,-0.7138827482806605,-1.596419636403219,-3.1427157560931605
-0.8225920836078089,-2.5178540388690394,-1.4397380987750452,-0.7138584295855921,-1.5963957945453089,-3.1427276770221155
-0.822604004536764,-2.517818276082174,-1.4398101011859339,-0.7138584295855921,-1.5963595549212855,-3.1427276770221155
-0.8225920836078089,-2.517830197011129,-1.4397624174701136,-0.7138946692096155,-1.5963957945453089,-3.1427038351642054
-0.822615925465719,-2.5178421179400843,-1.4397380987750452,-0.7138584295855921,-1.5963838736163538,-3.142691675816671
-0.8226283232318323,-2.517818276082174,-1.4397624174701136,-0.7138703505145472,-1.5963957945453089,-3.1427395979510706
-0.822604004536764,-2.517818276082174,-1.4397862593280237,-0.7138703505145472,-1.5963957945453089,-3.1427157560931605
-0.822615925465719,-2.5178421179400843,-1.439822022114889,-0.7138946692096155,-1.5963838736163538,-3.1427157560931605
-0.8225920836078089,-2.517830197011129,-1.4397981802569788,-0.7138584295855921,-1.596407715474264,-3.1427276770221155
-0.8225920836078089,-2.5178421179400843,-1.4397862593280237,-0.7138827482806605,-1.5963714758502405,-3.142667833958761
-0.8226283232318323,-2.517818276082174,-1.4397261778460901,-0.713846508656637,-1.5963595549212855,-3.1427157560931605
-0.822604004536764,-2.517830197011129,-1.4397981802569788,-0.7138946692096155,-1.596419636403219,-3.1427276770221155
-0.8225920836078089,-2.517806355153219,-1.4397624174701136,-0.7138703505145472,-1.5963957945453089,-3.1427276770221155
-0.822615925465719,-2.517806355153219,-1.4397981802569788,-0.7138703505145472,-1.596407715474264,-3.1427157560931605
-0.822615925465719,-2.5178421179400843,-1.4397500197040003,-0.7138946692096155,-1.5963957945453089,-3.142751757298605
-0.822604004536764,-2.517830197011129,-1.4397500197040003,-0.7138946692096155,-1.5964315573321741,-3.142691675816671
-0.822615925465719,-2.517818276082174,-1.4397624174701136,-0.713846508656637,-1.5963838736163538,-3.1427276770221155
-0.8225920836078089,-2.517794434224264,-1.4397624174701136,-0.7138584295855921,-1.5963595549212855,-3.1427157560931605
-0.8225801626788538,-2.517818276082174,-1.439714256917135,-0.7138827482806605,-1.5963957945453089,-3.142691675816671
-0.822604004536764,-2.517818276082174,-1.4397738615619105,-0.7138703505145472,-1.5963838736163538,-3.1427395979510706
-0.8225920836078089,-2.5178421179400843,-1.4397862593280237,-0.713846508656637,-1.5963838736163538,-3.1427157560931605
-0.8226521650897425,-2.517830197011129,-1.4397981802569788,-0.7138827482806605,-1.5963838736163538,-3.1427038351642054
-0.822615925465719,-2.5178421179400843,-1.4397624174701136,-0.7138827482806605,-1.5963838736163538,-3.1427157560931605
-0.8225920836078089,-2.5178421179400843,-1.4397981802569788,-0.7138827482806605,-1.596407715474264,-3.1427395979510706
-0.822615925465719,-2.5178659597979944,-1.4397981802569788,-0.7138584295855921,-1.5963957945453089,-3.14276367822756
-0.8226283232318323,-2.517830197011129,-1.4397981802569788,-0.7138827482806605,-1.5963714758502405,-3.1427395979510706
-0.822615925465719,-2.517830197011129,-1.4397624174701136,-0.7138827482806605,-1.596419636403219,-3.1427395979510706
-0.8225920836078089,-2.517830197011129,-1.4397261778460901,-0.7138827482806605,-1.5963714758502405,-3.1427395979510706
-0.822615925465719,-2.517818276082174,-1.4397981802569788,-0.7138946692096155,-1.596419636403219,-3.1427157560931605
-0.822615925465719,-2.5178540388690394,-1.4397624174701136,-0.7138827482806605,-1.5963714758502405,-3.1427038351642054
-0.8226521650897425,-2.517818276082174,-1.4397862593280237,-0.713846508656637,-1.5963714758502405,-3.142691675816671
-0.8226283232318323,-2.517830197011129,-1.4397738615619105,-0.7138827482806605,-1.5963714758502405,-3.1427157560931605
-0.8225682417498987,-2.5178421179400843,-1.4398101011859339,-0.7138584295855921,-1.5963714758502405,-3.1427038351642054
-0.822615925465719,-2.5178421179400843,-1.4398101011859339,-0.7138946692096155,-1.5963957945453089,-3.1427276770221155
-0.822615925465719,-2.517794434224264,-1.4397981802569788,-0.7138703505145472,-1.5963595549212855,-3.1427395979510706
-0.8225801626788538,-2.5178421179400843,-1.4397624174701136,-0.7138703505145472,-1.5963714758502405,-3.1427157560931605
-0.822604004536764,-2.5178421179400843,-1.4397624174701136,-0.7138946692096155,-1.5963957945453089,-3.1427157560931605
-0.822604004536764,-2.517830197011129,-1.4397624174701136,-0.7138946692096155,-1.5963957945453089,-3.1427157560931605
-0.8226283232318323,-2.517818276082174,-1.4397738615619105,-0.7138226667987269,-1.596407715474264,-3.1427157560931605
-0.8226402441607874,-2.5178421179400843,-1.4397261778460901,-0.7138703505145472,-1.5963957945453089,-3.1427157560931605
-0.822604004536764,-2.517818276082174,-1.4397624174701136,-0.7138946692096155,-1.596407715474264,-3.1427157560931605
-0.822604004536764,-2.5178421179400843,-1.4397738615619105,-0.7138703505145472,-1.5963714758502405,-3.1427038351642054
-0.8225920836078089,-2.5178540388690394,-1.4397981802569788,-0.7138703505145472,-1.5963957945453089,-3.1427157560931605
-0.8226402441607874,-2.517806355153219,-1.4397738615619105,-0.7138946692096155,-1.596407715474264,-3.1427276770221155
-0.8225801626788538,-2.517830197011129,-1.4397500197040003,-0.7138584295855921,-1.596419636403219,-3.1427157560931605
-0.8225920836078089,-2.517818276082174,-1.4397981802569788,-0.7138703505145472,-1.596407715474264,-3.142751757298605
-0.8226521650897425,-2.517830197011129,-1.4397981802569788,-0.7139065901385706,-1.596419636403219,-3.1427157560931605
-0.822604004536764,-2.517806355153219,-1.4397500197040003,-0.7138703505145472,-1.5963957945453089,-3.1427276770221155
-0.822604004536764,-2.517806355153219,-1.4397624174701136,-0.7138946692096155,-1.5963957945453089,-3.1427157560931605
-0.822604004536764,-2.517830197011129,-1.4397738615619105,-0.7138703505145472,-1.5963714758502405,-3.1427276770221155
-0.8225920836078089,-2.517830197011129,-1.4397738615619105,-0.7138946692096155,-1.5963838736163538,-3.1427276770221155
-0.822604004536764,-2.517806355153219,-1.4397862593280237,-0.7138584295855921,-1.5963957945453089,-3.142691675816671
-0.822604004536764,-2.517818276082174,-1.4397981802569788,-0.7138584295855921,-1.596407715474264,-3.1427157560931605
-0.8226283232318323,-2.517818276082174,-1.4397738615619105,-0.7138703505145472,-1.5963957945453089,-3.1427157560931605
-0.8225920836078089,-2.5178421179400843,-1.4397981802569788,-0.7138946692096155,-1.5963957945453089,-3.142691675816671
-0.8225920836078089,-2.5178421179400843,-1.4397738615619105,-0.7138584295855921,-1.5963714758502405,-3.1427395979510706
-0.8225920836078089,-2.5178421179400843,-1.4397738615619105,-0.7138703505145472,-1.596407715474264,-3.142679754887716
-0.8226402441607874,-2.517806355153219,-1.4397738615619105,-0.7138584295855921,-1.596407715474264,-3.1427038351642054
-0.822604004536764,-2.517806355153219,-1.4397500197040003,-0.7138946692096155,-1.5963714758502405,-3.1427157560931605
-0.822615925465719,-2.5178540388690394,-1.4397862593280237,-0.7138827482806605,-1.5963957945453089,-3.142691675816671
-0.822604004536764,-2.5178421179400843,-1.4397981802569788,-0.7138584295855921,-1.5963714758502405,-3.142691675816671
-0.822615925465719,-2.517830197011129,-1.4398101011859339,-0.7138827482806605,-1.596407715474264,-3.1427395979510706
-0.8226283232318323,-2.5178540388690394,-1.4397500197040003,-0.7138584295855921,-1.5963838736163538,-3.142751757298605
-0.8226402441607874,-2.517818276082174,-1.4397738615619105,-0.7138703505145472,-1.5963476339923304,-3.1427157560931605
-0.822604004536764,-2.517830197011129,-1.4397738615619105,-0.7138703505145472,-1.5963838736163538,-3.1427276770221155
-0.8226402441607874,-2.5178540388690394,-1.4397862593280237,-0.7138827482806605,-1.5963838736163538,-3.1427038351642054
-0.822604004536764,-2.5178540388690394,-1.4397862593280237,-0.7138584295855921,-1.5963838736163538,-3.1427276770221155
-0.822615925465719,-2.517830197011129,-1.4397981802569788,-0.7138345877276819,-1.5963838736163538,-3.1427157560931605
-0.8226283232318323,-2.517818276082174,-1.4397624174701136,-0.7138584295855921,-1.5963957945453089,-3.1427157560931605
-0.8225920836078089,-2.5178659597979944,-1.4397738615619105,-0.7138584295855921,-1.5963595549212855,-3.142691675816671
-0.8226521650897425,-2.5178421179400843,-1.4397624174701136,-0.713846508656637,-1.5963838736163538,-3.1427276770221155
-0.822604004536764,-2.517830197011129,-1.4397738615619105,-0.7138946692096155,-1.5963957945453089,-3.142775599156515
-0.8225920836078089,-2.517818276082174,-1.4397624174701136,-0.7138703505145472,-1.5964315573321741,-3.1427038351642054
-0.8226402441607874,-2.517794434224264,-1.4397738615619105,-0.7139065901385706,-1.596407715474264,-3.1427157560931605
-0.822604004536764,-2.517830197011129,-1.4397738615619105,-0.7138584295855921,-1.5963714758502405,-3.142751757298605
-0.822615925465719,-2.517818276082174,-1.4397738615619105,-0.7138827482806605,-1.5963957945453089,-3.1427395979510706
-0.822604004536764,-2.517818276082174,-1.4397624174701136,-0.7138703505145472,-1.5963957945453089,-3.1427276770221155
-0.822615925465719,-2.517806355153219,-1.4397738615619105,-0.7138584295855921,-1.5963838736163538,-3.142691675816671
-0.8226283232318323,-2.5178421179400843,-1.4397862593280237,-0.7138946692096155,-1.5963838736163538,-3.142691675816671
-0.822615925465719,-2.517818276082174,-1.4397981802569788,-0.7138584295855921,-1.5963957945453089,-3.1427157560931605
-0.8226283232318323,-2.5178540388690394,-1.4398101011859339,-0.713846508656637,-1.5963595549212855,-3.1427038351642054
-0.8225920836078089,-2.517830197011129,-1.4397981802569788,-0.713846508656637,-1.596419636403219,-3.1427395979510706
-0.8226402441607874,-2.517806355153219,-1.4398101011859339,-0.713846508656637,-1.5963838736163538,-3.1427395979510706
-0.8225682417498987,-2.517818276082174,-1.4397624174701136,-0.7138827482806605,-1.596407715474264,-3.1427038351642054
-0.822615925465719,-2.517794434224264,-1.4397862593280237,-0.7138703505145472,-1.5963957945453089,-3.142691675816671
-0.822604004536764,-2.517830197011129,-1.4397624174701136,-0.7138703505145472,-1.596407715474264,-3.142691675816671
-0.822604004536764,-2.517806355153219,-1.4397738615619105,-0.7138946692096155,-1.5963595549212855,-3.142667833958761
-0.822604004536764,-2.517830197011129,-1.4397981802569788,-0.7138345877276819,-1.5963838736163538,-3.1427276770221155
-0.822604004536764,-2.5178421179400843,-1.4397624174701136,-0.7138827482806605,-1.5963714758502405,-3.142691675816671
-0.822604004536764,-2.517830197011129,-1.4397500197040003,-0.7138703505145472,-1.5963595549212855,-3.1427157560931605
-0.822615925465719,-2.5178540388690394,-1.4397862593280237,-0.7138827482806605,-1.5963714758502405,-3.142643753682272
-0.822615925465719,-2.5178659597979944,-1.4397624174701136,-0.7138946692096155,-1.5963595549212855,-3.1427395979510706
-0.822604004536764,-2.5178659597979944,-1.4397862593280237,-0.7138703505145472,-1.5963595549212855,-3.142691675816671
-0.8225920836078089,-2.517830197011129,-1.4397981802569788,-0.7138946692096155,-1.5963957945453089,-3.1427157560931605
-0.822615925465719,-2.5178421179400843,-1.4397862593280237,-0.7138703505145472,-1.5963838736163538,-3.1427395979510706
-0.8226283232318323,-2.517830197011129,-1.4397981802569788,-0.7138584295855921,-1.5963714758502405,-3.1427276770221155
-0.822615925465719,-2.517830197011129,-1.4397738615619105,-0.7138584295855921,-1.5963957945453089,-3.142691675816671
-0.822604004536764,-2.517830197011129,-1.4397624174701136,-0.7138584295855921,-1.596407715474264,-3.1427276770221155
-0.8226402441607874,-2.517794434224264,-1.4397862593280237,-0.713846508656637,-1.5963957945453089,-3.1427157560931605
-0.822615925465719,-2.517818276082174,-1.4397380987750452,-0.713846508656637,-1.596407715474264,-3.1427038351642054
-0.8226283232318323,-2.517818276082174,-1.4397738615619105,-0.7138946692096155,-1.596407715474264,-3.1427157560931605
-0.822615925465719,-2.5178540388690394,-1.4397738615619105,-0.7138946692096155,-1.5964315573321741,-3.1427395979510706
-0.8226402441607874,-2.517794434224264,-1.4397862593280237,-0.7138827482806605,-1.5963714758502405,-3.142691675816671
-0.822615925465719,-2.5178540388690394,-1.4397624174701136,-0.7138827482806605,-1.5963957945453089,-3.1427276770221155
-0.822615925465719,-2.517818276082174,-1.4397624174701136,-0.7138946692096155,-1.5963957945453089,-3.1427157560931605
-0.8225920836078089,-2.5177701155291956,-1.4397261778460901,-0.7138703505145472,-1.5963714758502405,-3.1427157560931605
-0.822604004536764,-2.517818276082174,-1.4397624174701136,-0.7138703505145472,-1.5963957945453089,-3.142751757298605
-0.8226402441607874,-2.517830197011129,-1.4397624174701136,-0.7138946692096155,-1.5963957945453089,-3.1427395979510706
-0.822615925465719,-2.517830197011129,-1.4397862593280237,-0.7138584295855921,-1.5963714758502405,-3.1427276770221155
-0.8226283232318323,-2.517818276082174,-1.4397862593280237,-0.7138584295855921,-1.5963476339923304,-3.1427038351642054
-0.8225920836078089,-2.517818276082174,-1.4397380987750452,-0.7138703505145472,-1.596407715474264,-3.1427276770221155
-0.8225801626788538,-2.517830197011129,-1.4397738615619105,-0.7138584295855921,-1.5963838736163538,-3.1427157560931605
-0.8226283232318323,-2.517830197011129,-1.4397500197040003,-0.7138584295855921,-1.5963957945453089,-3.1427276770221155
-0.8226402441607874,-2.517806355153219,-1.4398101011859339,-0.713846508656637,-1.5963957945453089,-3.1427276770221155
-0.8225920836078089,-2.517830197011129,-1.4397624174701136,-0.7138946692096155,-1.5963957945453089,-3.142667833958761
-0.8225801626788538,-2.5178421179400843,-1.4397738615619105,-0.713846508656637,-1.596407715474264,-3.1427038351642054
-0.822615925465719,-2.517794434224264,-1.4397981802569788,-0.7138827482806605,-1.5963838736163538,-3.1427157560931605
-0.822615925465719,-2.517806355153219,-1.4397738615619105,-0.7138703505145472,-1.5963714758502405,-3.1427038351642054
-0.822615925465719,-2.517830197011129,-1.4397738615619105,-0.7138946692096155,-1.5963957945453089,-3.142691675816671
-0.8226283232318323,-2.517818276082174,-1.4397738615619105,-0.7138946692096155,-1.596407715474264,-3.1427157560931605
-0.8225920836078089,-2.517830197011129,-1.4398101011859339,-0.7138946692096155,-1.596407715474264,-3.1427038351642054
-0.8226283232318323,-2.5178421179400843,-1.4397981802569788,-0.7138703505145472,-1.5963957945453089,-3.1427276770221155
-0.8226521650897425,-2.5178778807269495,-1.4397500197040003,-0.7138703505145472,-1.5963957945453089,-3.142667833958761
-0.822615925465719,-2.5178421179400843,-1.4397624174701136,-0.7138584295855921,-1.5964315573321741,-3.1427038351642054
-0.8225920836078089,-2.517806355153219,-1.4397862593280237,-0.713846508656637,-1.5963838736163538,-3.142667833958761
-0.822615925465719,-2.5178778807269495,-1.4397981802569788,-0.7138827482806605,-1.5963957945453089,-3.1427157560931605
-0.8225682417498987,-2.517818276082174,-1.4397624174701136,-0.7138946692096155,-1.5963595549212855,-3.1427276770221155
-0.822615925465719,-2.517806355153219,-1.4398101011859339,-0.7138703505145472,-1.5963957945453089,-3.1427276770221155
-0.822604004536764,-2.517830197011129,-1.4397981802569788,-0.7138584295855921,-1.5963957945453089,-3.1427276770221155
-0.822615925465719,-2.517818276082174,-1.4397862593280237,-0.7138827482806605,-1.5964315573321741,-3.1427276770221155
-0.822604004536764,-2.517818276082174,-1.4397981802569788,-0.7138827482806605,-1.5963957945453089,-3.1427276770221155
-0.8226283232318323,-2.517818276082174,-1.4397624174701136,-0.7138946692096155,-1.5963838736163538,-3.1427038351642054
-0.822604004536764,-2.517830197011129,-1.4397981802569788,-0.7138226667987269,-1.5963714758502405,-3.1427157560931605
-0.8225920836078089,-2.517830197011129,-1.4397981802569788,-0.7138703505145472,-1.5963957945453089,-3.1427038351642054
-0.822615925465719,-2.517806355153219,-1.4397862593280237,-0.7138946692096155,-1.5963714758502405,-3.1427276770221155
-0.8226402441607874,-2.5178421179400843,-1.4397738615619105,-0.7138827482806605,-1.5963838736163538,-3.1427038351642054
-0.8225920836078089,-2.5178540388690394,-1.4397624174701136,-0.7138827482806605,-1.5963957945453089,-3.142679754887716
-0.8226521650897425,-2.517806355153219,-1.4397981802569788,-0.7138584295855921,-1.5963838736163538,-3.142691675816671
-0.8225920836078089,-2.517818276082174,-1.4397624174701136,-0.7138584295855921,-1.596419636403219,-3.1427038351642054
-0.8225920836078089,-2.517830197011129,-1.4397624174701136,-0.7138345877276819,-1.5963957945453089,-3.1427038351642054
-0.8226521650897425,-2.517818276082174,-1.4397624174701136,-0.7138827482806605,-1.5963957945453089,-3.1427276770221155
-0.8225920836078089,-2.517818276082174,-1.4397624174701136,-0.7138584295855921,-1.5963838736163538,-3.1427157560931605
-0.8226283232318323,-2.517818276082174,-1.4397738615619105,-0.7138584295855921,-1.5963957945453089,-3.142691675816671
-0.8225920836078089,-2.517830197011129,-1.4397981802569788,-0.7138584295855921,-1.5963957945453089,-3.1427276770221155
-0.822604004536764,-2.5178540388690394,-1.4397624174701136,-0.7139065901385706,-1.5963714758502405,-3.142691675816671
-0.8225801626788538,-2.517818276082174,-1.4397500197040003,-0.7138703505145472,-1.5963595549212855,-3.1427157560931605
-0.822604004536764,-2.517818276082174,-1.4397981802569788,-0.7138827482806605,-1.5963838736163538,-3.1427395979510706
-0.822604004536764,-2.517830197011129,-1.4397738615619105,-0.7138703505145472,-1.5963595549212855,-3.142679754887716
-0.822615925465719,-2.517818276082174,-1.4397500197040003,-0.7138703505145472,-1.5963838736163538,-3.142751757298605
-0.822604004536764,-2.517830197011129,-1.4397981802569788,-0.7139065901385706,-1.596419636403219,-3.1427038351642054
-0.822604004536764,-2.517818276082174,-1.4397738615619105,-0.7139065901385706,-1.5963714758502405,-3.1427157560931605
-0.8225920836078089,-2.517830197011129,-1.4397500197040003,-0.7138584295855921,-1.5963714758502405,-3.1427038351642054
-0.822604004536764,-2.517830197011129,-1.439822022114889,-0.7138703505145472,-1.5963838736163538,-3.1427038351642054
-0.8226283232318323,-2.517818276082174,-1.4397738615619105,-0.7138703505145472,-1.5963595549212855,-3.1427038351642054
-0.8226283232318323,-2.517818276082174,-1.4397862593280237,-0.7138703505145472,-1.5963595549212855,-3.142679754887716
-0.8225801626788538,-2.5178540388690394,-1.4397981802569788,-0.7138703505145472,-1.5963957945453089,-3.142691675816671
-0.8226283232318323,-2.5178659597979944,-1.4397624174701136,-0.7138584295855921,-1.596407715474264,-3.142691675816671
-0.822615925465719,-2.5178421179400843,-1.4397738615619105,-0.7138703505145472,-1.5963838736163538,-3.1427157560931605
-0.8225920836078089,-2.517806355153219,-1.4397624174701136,-0.7138827482806605,-1.596407715474264,-3.142691675816671
-0.822615925465719,-2.5178540388690394,-1.4398101011859339,-0.7138703505145472,-1.5963957945453089,-3.142691675816671
-0.822615925465719,-2.517830197011129,-1.4397738615619105,-0.7138703505145472,-1.5963957945453089,-3.1427276770221155
-0.822604004536764,-2.517830197011129,-1.4397738615619105,-0.7139065901385706,-1.5963838736163538,-3.1427276770221155
-0.8226283232318323,-2.517806355153219,-1.4397981802569788,-0.7138584295855921,-1.5963595549212855,-3.1427038351642054
-0.8226283232318323,-2.517794434224264,-1.4397738615619105,-0.7138226667987269,-1.5963957945453089,-3.1427276770221155
-0.822615925465719,-2.5178421179400843,-1.4397981802569788,-0.7138703505145472,-1.5963838736163538,-3.1427276770221155
-0.822604004536764,-2.517794434224264,-1.4397738615619105,-0.7138827482806605,-1.5963714758502405,-3.1427395979510706
-0.822615925465719,-2.517806355153219,-1.4397862593280237,-0.7138703505145472,-1.5963838736163538,-3.1427276770221155
-0.822615925465719,-2.5178421179400843,-1.4397862593280237,-0.7138584295855921,-1.5963957945453089,-3.142691675816671
-0.822604004536764,-2.517818276082174,-1.4397380987750452,-0.7138584295855921,-1.5963714758502405,-3.1427157560931605
-0.822615925465719,-2.517806355153219,-1.4397862593280237,-0.7138946692096155,-1.5963838736163538,-3.1427157560931605
-0.822604004536764,-2.5178540388690394,-1.4397981802569788,-0.7138827482806605,-1.5963838736163538,-3.1427038351642054
-0.822604004536764,-2.5178421179400843,-1.4397624174701136,-0.7138703505145472,-1.596407715474264,-3.1427157560931605
-0.8225801626788538,-2.517806355153219,-1.4397624174701136,-0.7138827482806605,-1.5963714758502405,-3.142691675816671
-0.8225920836078089,-2.5178540388690394,-1.4397981802569788,-0.7138946692096155,-1.5963957945453089,-3.1427395979510706
-0.8225920836078089,-2.517794434224264,-1.4397738615619105,-0.7138946692096155,-1.596407715474264,-3.142667833958761
-0.8226283232318323,-2.517830197011129,-1.4397862593280237,-0.7138946692096155,-1.5964315573321741,-3.1427395979510706
-0.8226283232318323,-2.5178421179400843,-1.4397981802569788,-0.7138703505145472,-1.5963957945453089,-3.142691675816671
-0.822604004536764,-2.5178540388690394,-1.4398101011859339,-0.7138584295855921,-1.596419636403219,-3.142691675816671
-0.822604004536764,-2.517794434224264,-1.4397862593280237,-0.7138584295855921,-1.5963957945453089,-3.142691675816671
-0.8225920836078089,-2.517830197011129,-1.4397624174701136,-0.7138946692096155,-1.5963957945453089,-3.1427395979510706
-0.8226283232318323,-2.517830197011129,-1.4397862593280237,-0.7138703505145472,-1.5963957945453089,-3.1427038351642054
-0.8226283232318323,-2.5178659597979944,-1.4397624174701136,-0.7138827482806605,-1.5963957945453089,-3.1427157560931605
-0.8226283232318323,-2.517818276082174,-1.4397738615619105,-0.7138584295855921,-1.596407715474264,-3.1427157560931605
-0.8226283232318323,-2.517830197011129,-1.4397738615619105,-0.7138703505145472,-1.5963957945453089,-3.1427157560931605
-0.8226402441607874,-2.517830197011129,-1.4397981802569788,-0.7138703505145472,-1.596419636403219,-3.1427157560931605
-0.822604004536764,-2.517818276082174,-1.4397981802569788,-0.7138703505145472,-1.5963595549212855,-3.1427276770221155
-0.8225801626788538,-2.5178421179400843,-1.4397981802569788,-0.7138827482806605,-1.5963838736163538,-3.142691675816671
-0.822604004536764,-2.517806355153219,-1.4398101011859339,-0.7138703505145472,-1.5963957945453089,-3.1427276770221155
-0.8226283232318323,-2.5178659597979944,-1.4397738615619105,-0.7138703505145472,-1.5963957945453089,-3.1427276770221155
-0.822615925465719,-2.517818276082174,-1.4397981802569788,-0.7138827482806605,-1.596407715474264,-3.1427038351642054
-0.8225682417498987,-2.517830197011129,-1.4397862593280237,-0.7138703505145472,-1.5963957945453089,-3.1427395979510706
-0.8225682417498987,-2.5178421179400843,-1.4397862593280237,-0.7139065901385706,-1.5963957945453089,-3.1427157560931605
-0.822604004536764,-2.517794434224264,-1.4397862593280237,-0.7138584295855921,-1.5963957945453089,-3.1427395979510706
-0.822604004536764,-2.5178421179400843,-1.4397981802569788,-0.7138946692096155,-1.5963957945453089,-3.142691675816671
-0.8226283232318323,-2.517794434224264,-1.4397981802569788,-0.7138584295855921,-1.5963714758502405,-3.1427276770221155
-0.8226283232318323,-2.5178540388690394,-1.4398101011859339,-0.713846508656637,-1.5963595549212855,-3.142691675816671
-0.822604004536764,-2.517818276082174,-1.4397500197040003,-0.7138827482806605,-1.596407715474264,-3.142679754887716
-0.8225920836078089,-2.517806355153219,-1.4397500197040003,-0.7139065901385706,-1.596419636403219,-3.142679754887716
-0.8226402441607874,-2.517830197011129,-1.4397500197040003,-0.7138703505145472,-1.596407715474264,-3.1427038351642054
-0.822604004536764,-2.517830197011129,-1.4397500197040003,-0.7139065901385706,-1.5963838736163538,-3.142751757298605
-0.8226402441607874,-2.517818276082174,-1.4397624174701136,-0.7138703505145472,-1.5963595549212855,-3.1427276770221155
-0.822615925465719,-2.5178540388690394,-1.4397380987750452,-0.7138584295855921,-1.5963838736163538,-3.1427395979510706
-0.822615925465719,-2.517806355153219,-1.4397624174701136,-0.7138946692096155,-1.5963957945453089,-3.1427157560931605
-0.8226283232318323,-2.517818276082174,-1.4397624174701136,-0.7138584295855921,-1.5963714758502405,-3.1427038351642054
-0.8226402441607874,-2.5178540388690394,-1.4397738615619105,-0.7138703505145472,-1.5963957945453089,-3.1427276770221155
-0.822604004536764,-2.517818276082174,-1.4397500197040003,-0.7138946692096155,-1.5963714758502405,-3.1427038351642054
-0.8225920836078089,-2.517830197011129,-1.4397738615619105,-0.7138827482806605,-1.596407715474264,-3.1427157560931605
-0.8225682417498987,-2.517818276082174,-1.4398101011859339,-0.7138703505145472,-1.5963957945453089,-3.1427157560931605
-0.822615925465719,-2.5178421179400843,-1.4397500197040003,-0.7138703505145472,-1.5963957945453089,-3.1427276770221155
-0.8225920836078089,-2.517830197011129,-1.4397500197040003,-0.7138703505145472,-1.5963838736163538,-3.142691675816671
-0.822615925465719,-2.517818276082174,-1.4397500197040003,-0.7138584295855921,-1.596407715474264,-3.1427395979510706
-0.8226283232318323,-2.517830197011129,-1.4397738615619105,-0.7138584295855921,-1.5963957945453089,-3.1427157560931605
-0.822615925465719,-2.517830197011129,-1.4397500197040003,-0.7138946692096155,-1.5963595549212855,-3.1427395979510706
-0.8225682417498987,-2.5178540388690394,-1.4397862593280237,-0.7138946692096155,-1.5963714758502405,-3.1427395979510706
-0.822615925465719,-2.5178421179400843,-1.4397738615619105,-0.7138584295855921,-1.5963957945453089,-3.1427276770221155
-0.8225920836078089,-2.517830197011129,-1.4397500197040003,-0.7138584295855921,-1.5963838736163538,-3.142691675816671
-0.822604004536764,-2.5178421179400843,-1.4397624174701136,-0.7138703505145472,-1.5963838736163538,-3.1427395979510706
-0.822604004536764,-2.517806355153219,-1.4397981802569788,-0.7139065901385706,-1.596407715474264,-3.1427276770221155
-0.8225801626788538,-2.517818276082174,-1.4397738615619105,-0.7138345877276819,-1.5963714758502405,-3.142691675816671
-0.822615925465719,-2.517818276082174,-1.4397862593280237,-0.7138703505145472,-1.5963595549212855,-3.1427276770221155
-0.8225801626788538,-2.517794434224264,-1.4397862593280237,-0.7138345877276819,-1.596407715474264,-3.142691675816671
-0.822615925465719,-2.517806355153219,-1.4397738615619105,-0.7138584295855921,-1.596407715474264,-3.1427276770221155
-0.8226283232318323,-2.5178421179400843,-1.4397738615619105,-0.7138584295855921,-1.5963595549212855,-3.1427395979510706
-0.822604004536764,-2.517830197011129,-1.4397624174701136,-0.7138584295855921,-1.5963714758502405,-3.1427157560931605
-0.8225920836078089,-2.517818276082174,-1.4397981802569788,-0.7138584295855921,-1.5963595549212855,-3.1427157560931605
-0.8225920836078089,-2.517818276082174,-1.4397981802569788,-0.7138703505145472,-1.5963957945453089,-3.1427395979510706
-0.8226402441607874,-2.517830197011129,-1.4397624174701136,-0.7138946692096155,-1.5963957945453089,-3.142691675816671
-0.8226521650897425,-2.517830197011129,-1.4397862593280237,-0.7138703505145472,-1.5963714758502405,-3.142691675816671
-0.8225920836078089,-2.517794434224264,-1.4397624174701136,-0.7138584295855921,-1.5963957945453089,-3.1427157560931605
-0.822604004536764,-2.517818276082174,-1.4397624174701136,-0.7138946692096155,-1.5964315573321741,-3.142751757298605
-0.822615925465719,-2.517830197011129,-1.4398101011859339,-0.7138827482806605,-1.5964315573321741,-3.1427038351642054
-0.8225682417498987,-2.5178540388690394,-1.4397624174701136,-0.7139065901385706,-1.5963957945453089,-3.1427157560931605
-0.822604004536764,-2.5178421179400843,-1.4397981802569788,-0.7138584295855921,-1.5963838736163538,-3.1427157560931605
-0.8226283232318323,-2.5178540388690394,-1.4397500197040003,-0.7138584295855921,-1.5963838736163538,-3.1427038351642054
-0.822604004536764,-2.517794434224264,-1.4397981802569788,-0.7138827482806605,-1.5963595549212855,-3.1427038351642054
-0.8226402441607874,-2.5178421179400843,-1.4397738615619105,-0.7138703505145472,-1.5963957945453089,-3.1427276770221155
-0.8225682417498987,-2.517818276082174,-1.4397624174701136,-0.7138946692096155,-1.5963838736163538,-3.142679754887716
-0.822615925465719,-2.5178421179400843,-1.4397981802569788,-0.7138584295855921,-1.5963838736163538,-3.142679754887716
-0.822615925465719,-2.5178421179400843,-1.4397738615619105,-0.7138946692096155,-1.596407715474264,-3.1427157560931605
-0.822615925465719,-2.517830197011129,-1.4397624174701136,-0.7138584295855921,-1.596407715474264,-3.142751757298605
-0.822615925465719,-2.517806355153219,-1.4397738615619105,-0.7138703505145472,-1.5963838736163538,-3.142691675816671
-0.8225801626788538,-2.517806355153219,-1.4397738615619105,-0.7138584295855921,-1.5963957945453089,-3.1427038351642054
-0.8226521650897425,-2.5178540388690394,-1.4397862593280237,-0.7138584295855921,-1.5963957945453089,-3.1427276770221155
-0.8226283232318323,-2.517818276082174,-1.4397862593280237,-0.7138703505145472,-1.5963838736163538,-3.1427276770221155
-0.822604004536764,-2.5178540388690394,-1.4397981802569788,-0.7138703505145472,-1.5963957945453089,-3.1427157560931605
-0.822615925465719,-2.5178540388690394,-1.4397981802569788,-0.7138703505145472,-1.5963838736163538,-3.1427038351642054
-0.822615925465719,-2.517818276082174,-1.4397981802569788,-0.7138827482806605,-1.5963714758502405,-3.1427276770221155
-0.822615925465719,-2.5178421179400843,-1.4397738615619105,-0.7138703505145472,-1.5963714758502405,-3.142679754887716
-0.8225920836078089,-2.517794434224264,-1.4397862593280237,-0.7138703505145472,-1.596407715474264,-3.1427157560931605
-0.822604004536764,-2.5178421179400843,-1.4397981802569788,-0.7138584295855921,-1.5963838736163538,-3.1427276770221155
-0.8226283232318323,-2.517818276082174,-1.4397380987750452,-0.7138703505145472,-1.5963714758502405,-3.142691675816671
-0.822615925465719,-2.517818276082174,-1.4397862593280237,-0.7138703505145472,-1.596407715474264,-3.14276367822756
-0.822604004536764,-2.517830197011129,-1.4397738615619105,-0.7138703505145472,-1.5963838736163538,-3.1427038351642054
-0.822615925465719,-2.517818276082174,-1.4397738615619105,-0.7138827482806605,-1.5963957945453089,-3.142679754887716
-0.822604004536764,-2.5178540388690394,-1.4397862593280237,-0.7138584295855921,-1.5963957945453089,-3.1427038351642054
-0.822615925465719,-2.5178421179400843,-1.4397624174701136,-0.7138703505145472,-1.5964315573321741,-3.142691675816671
-0.8226283232318323,-2.517830197011129,-1.4397981802569788,-0.7138827482806605,-1.5963838736163538,-3.1427395979510706
-0.8225920836078089,-2.5178421179400843,-1.4397981802569788,-0.7138584295855921,-1.596407715474264,-3.1427395979510706
-0.822604004536764,-2.5178421179400843,-1.4397981802569788,-0.7138703505145472,-1.5963714758502405,-3.1427157560931605
-0.8225920836078089,-2.517806355153219,-1.4397738615619105,-0.7138703505145472,-1.5963957945453089,-3.1427395979510706
-0.822604004536764,-2.5178421179400843,-1.4397738615619105,-0.7138703505145472,-1.5963714758502405,-3.1427157560931605
-0.822604004536764,-2.5178540388690394,-1.4397738615619105,-0.7138703505145472,-1.5963714758502405,-3.1427395979510706
-0.822604004536764,-2.517830197011129,-1.4397862593280237,-0.7138827482806605,-1.5963957945453089,-3.1427038351642054
-0.8226640860186976,-2.517794434224264,-1.439822022114889,-0.7138827482806605,-1.596407715474264,-3.1427395979510706
-0.8225920836078089,-2.517830197011129,-1.4397624174701136,-0.7138827482806605,-1.5963957945453089,-3.1427038351642054
-0.8226402441607874,-2.5178659597979944,-1.4397380987750452,-0.7138703505145472,-1.5963957945453089,-3.1427395979510706
-0.822615925465719,-2.517818276082174,-1.4397981802569788,-0.7139185110675257,-1.596419636403219,-3.142691675816671
-0.8226283232318323,-2.517818276082174,-1.4397500197040003,-0.7138584295855921,-1.5963957945453089,-3.142691675816671
-0.822615925465719,-2.517830197011129,-1.4397981802569788,-0.7138584295855921,-1.5963957945453089,-3.1427157560931605
-0.822604004536764,-2.517830197011129,-1.4397981802569788,-0.713846508656637,-1.5963838736163538,-3.142691675816671
-0.822615925465719,-2.5178540388690394,-1.4397624174701136,-0.7138946692096155,-1.5963838736163538,-3.1427276770221155
-0.8226402441607874,-2.5178540388690394,-1.4397738615619105,-0.7138946692096155,-1.596407715474264,-3.1427157560931605
-0.8226283232318323,-2.517818276082174,-1.439822022114889,-0.7138584295855921,-1.5963838736163538,-3.142691675816671
-0.8225920836078089,-2.517818276082174,-1.4397500197040003,-0.7138827482806605,-1.5963714758502405,-3.1427276770221155
-0.8226283232318323,-2.517830197011129,-1.4397738615619105,-0.7139065901385706,-1.5963957945453089,-3.1427157560931605
-0.8225920836078089,-2.517806355153219,-1.4397380987750452,-0.7138584295855921,-1.5963714758502405,-3.1427157560931605
-0.822604004536764,-2.5178659597979944,-1.4397981802569788,-0.713846508656637,-1.5963838736163538,-3.1427276770221155
-0.8226283232318323,-2.517794434224264,-1.4397738615619105,-0.7138345877276819,-1.5963714758502405,-3.1427276770221155
-0.8225920836078089,-2.5178421179400843,-1.4397738615619105,-0.7138703505145472,-1.596419636403219,-3.1427276770221155
-0.822604004536764,-2.5178540388690394,-1.4397862593280237,-0.713846508656637,-1.5963714758502405,-3.142691675816671
-0.822615925465719,-2.517830197011129,-1.4397261778460901,-0.713846508656637,-1.596407715474264,-3.1427038351642054
-0.8226521650897425,-2.517818276082174,-1.4397981802569788,-0.7138703505145472,-1.5963838736163538,-3.1427276770221155
-0.822615925465719,-2.517818276082174,-1.4397862593280237,-0.7138703505145472,-1.5963595549212855,-3.142691675816671
-0.822604004536764,-2.5178421179400843,-1.4397862593280237,-0.7138946692096155,-1.596419636403219,-3.1427276770221155
-0.822615925465719,-2.5178540388690394,-1.4397738615619105,-0.7138827482806605,-1.5963957945453089,-3.1427157560931605
-0.822604004536764,-2.517830197011129,-1.4397738615619105,-0.7138703505145472,-1.5963838736163538,-3.142751757298605
-0.822604004536764,-2.5178540388690394,-1.4397500197040003,-0.7138827482806605,-1.5963714758502405,-3.1427276770221155
-0.822604004536764,-2.5178421179400843,-1.4397500197040003,-0.7138584295855921,-1.5963957945453089,-3.1427038351642054
-0.8226521650897425,-2.5178421179400843,-1.4397738615619105,-0.7138946692096155,-1.5963838736163538,-3.1427395979510706
-0.8226283232318323,-2.5178540388690394,-1.4397624174701136,-0.7138827482806605,-1.596407715474264,-3.1427395979510706
-0.822604004536764,-2.517806355153219,-1.4397500197040003,-0.7138946692096155,-1.5963838736163538,-3.1427157560931605
-0.8225801626788538,-2.517818276082174,-1.4397862593280237,-0.7138946692096155,-1.5963957945453089,-3.1427157560931605
-0.822604004536764,-2.517818276082174,-1.4397738615619105,-0.7138703505145472,-1.5963838736163538,-3.1427395979510706
-0.8225920836078089,-2.517818276082174,-1.4397738615619105,-0.7138703505145472,-1.5963957945453089,-3.1427038351642054
-0.8226521650897425,-2.517818276082174,-1.4397738615619105,-0.7138703505145472,-1.5963595549212855,-3.1427157560931605
-0.8226521650897425,-2.517830197011129,-1.4397862593280237,-0.7138584295855921,-1.5963838736163538,-3.1427276770221155
-0.8225920836078089,-2.517818276082174,-1.4397862593280237,-0.7138827482806605,-1.5963957945453089,-3.1427038351642054
-0.822615925465719,-2.5178421179400843,-1.4397624174701136,-0.7138946692096155,-1.5963957945453089,-3.1427038351642054
-0.822615925465719,-2.517818276082174,-1.4397624174701136,-0.7138827482806605,-1.5963714758502405,-3.1427276770221155
-0.8226402441607874,-2.517806355153219,-1.4397981802569788,-0.7138703505145472,-1.5963838736163538,-3.142679754887716
-0.8226283232318323,-2.517818276082174,-1.4397624174701136,-0.7138946692096155,-1.596419636403219,-3.1427038351642054
-0.822615925465719,-2.517830197011129,-1.4397500197040003,-0.7139065901385706,-1.5963838736163538,-3.1427276770221155
-0.822604004536764,-2.517830197011129,-1.4397981802569788,-0.7138703505145472,-1.5963957945453089,-3.142691675816671
-0.8226402441607874,-2.5178421179400843,-1.4397738615619105,-0.7138703505145472,-1.596407715474264,-3.1427038351642054
-0.822615925465719,-2.517818276082174,-1.4397624174701136,-0.7138946692096155,-1.5963838736163538,-3.1427276770221155
-0.8225920836078089,-2.517818276082174,-1.4397981802569788,-0.7138946692096155,-1.5963957945453089,-3.142691675816671
-0.822615925465719,-2.5178659597979944,-1.4397862593280237,-0.7138946692096155,-1.5963957945453089,-3.142679754887716
-0.8226521650897425,-2.517794434224264,-1.4397500197040003,-0.7138827482806605,-1.5963957945453089,-3.1427276770221155
-0.8226521650897425,-2.517818276082174,-1.4397738615619105,-0.7138703505145472,-1.5963838736163538,-3.142691675816671
-0.8226283232318323,-2.517830197011129,-1.4397862593280237,-0.7138827482806605,-1.5963957945453089,-3.14276367822756
-0.822615925465719,-2.517830197011129,-1.4397981802569788,-0.7139185110675257,-1.5963957945453089,-3.1427395979510706
-0.8226402441607874,-2.517818276082174,-1.4397738615619105,-0.7138703505145472,-1.5963838736163538,-3.1427157560931605
-0.8225920836078089,-2.5178421179400843,-1.4397862593280237,-0.7139185110675257,-1.5963957945453089,-3.142679754887716
-0.822615925465719,-2.517830197011129,-1.4397624174701136,-0.7139065901385706,-1.5963957945453089,-3.142691675816671
-0.822615925465719,-2.517794434224264,-1.4397738615619105,-0.7138703505145472,-1.5963714758502405,-3.1427276770221155
-0.8225920836078089,-2.5178421179400843,-1.4397738615619105,-0.713846508656637,-1.596407715474264,-3.142691675816671
-0.8226283232318323,-2.5178540388690394,-1.439822022114889,-0.7138584295855921,-1.5963838736163538,-3.1427395979510706
-0.8226283232318323,-2.5178421179400843,-1.4397862593280237,-0.7138827482806605,-1.596407715474264,-3.1427276770221155
-0.822615925465719,-2.5178421179400843,-1.4397624174701136,-0.7138827482806605,-1.5963957945453089,-3.1427038351642054
-0.8225801626788538,-2.517794434224264,-1.4397981802569788,-0.7138703505145472,-1.5964434782611292,-3.142679754887716
-0.8226402441607874,-2.517818276082174,-1.4397862593280237,-0.7138703505145472,-1.5963957945453089,-3.1427157560931605
-0.8225920836078089,-2.5178421179400843,-1.4397500197040003,-0.7138703505145472,-1.5963838736163538,-3.1427395979510706
-0.822604004536764,-2.517782513295309,-1.4397738615619105,-0.7138584295855921,-1.596419636403219,-3.1427157560931605
-0.822615925465719,-2.517818276082174,-1.4397738615619105,-0.7138584295855921,-1.5963957945453089,-3.142691675816671
-0.8226283232318323,-2.517818276082174,-1.4397862593280237,-0.7138584295855921,-1.5963838736163538,-3.1427038351642054
-0.822615925465719,-2.517818276082174,-1.4398101011859339,-0.7138827482806605,-1.5963838736163538,-3.1427276770221155
-0.8225920836078089,-2.517818276082174,-1.4397981802569788,-0.713846508656637,-1.596407715474264,-3.1427157560931605
-0.822615925465719,-2.5178421179400843,-1.4397981802569788,-0.7138946692096155,-1.596419636403219,-3.142691675816671
-0.822604004536764,-2.517818276082174,-1.4397981802569788,-0.7138946692096155,-1.596407715474264,-3.142691675816671
-0.8225801626788538,-2.517806355153219,-1.4397738615619105,-0.7138703505145472,-1.5963957945453089,-3.142691675816671
-0.822604004536764,-2.517806355153219,-1.4397862593280237,-0.7138703505145472,-1.5963957945453089,-3.1427276770221155
-0.822604004536764,-2.517830197011129,-1.4398101011859339,-0.7138584295855921,-1.5963838736163538,-3.1427038351642054
-0.822615925465719,-2.5178421179400843,-1.4397624174701136,-0.7138584295855921,-1.5963838736163538,-3.1427157560931605
-0.822615925465719,-2.517830197011129,-1.4397738615619105,-0.7138946692096155,-1.5963838736163538,-3.1427157560931605
-0.822604004536764,-2.5178421179400843,-1.4397380987750452,-0.7138703505145472,-1.5963957945453089,-3.1427157560931605
-0.8226283232318323,-2.517818276082174,-1.4397624174701136,-0.7138946692096155,-1.5963838736163538,-3.1427157560931605
-0.822604004536764,-2.5178540388690394,-1.4397862593280237,-0.7138703505145472,-1.5963838736163538,-3.142691675816671
-0.822615925465719,-2.517818276082174,-1.4397261778460901,-0.7138827482806605,-1.5963714758502405,-3.1427038351642054
-0.8225920836078089,-2.517830197011129,-1.4397738615619105,-0.7139065901385706,-1.5964315573321741,-3.142691675816671
-0.8225920836078089,-2.517818276082174,-1.4397862593280237,-0.7138703505145472,-1.5963957945453089,-3.14276367822756
-0.822615925465719,-2.517830197011129,-1.4397624174701136,-0.7138584295855921,-1.5963838736163538,-3.1427276770221155
-0.8225920836078089,-2.517830197011129,-1.4397500197040003,-0.7138584295855921,-1.596407715474264,-3.1427038351642054
-0.822604004536764,-2.517818276082174,-1.4398101011859339,-0.7138584295855921,-1.5963838736163538,-3.1427157560931605
-0.822604004536764,-2.5178421179400843,-1.4397500197040003,-0.7138703505145472,-1.5963838736163538,-3.1427276770221155
-0.8225920836078089,-2.517830197011129,-1.4397261778460901,-0.713846508656637,-1.5963957945453089,-3.1427395979510706
-0.8226283232318323,-2.517830197011129,-1.4398101011859339,-0.713846508656637,-1.5963957945453089,-3.1427038351642054
-0.8225920836078089,-2.5178421179400843,-1.4397981802569788,-0.7138584295855921,-1.5963838736163538,-3.1427395979510706
-0.822604004536764,-2.517806355153219,-1.4397624174701136,-0.7138827482806605,-1.5963838736163538,-3.142691675816671
-0.822615925465719,-2.5178540388690394,-1.4397862593280237,-0.713846508656637,-1.5963714758502405,-3.1427276770221155
-0.822604004536764,-2.517830197011129,-1.4397624174701136,-0.7138703505145472,-1.5963838736163538,-3.1427276770221155
-0.822615925465719,-2.5178421179400843,-1.4397500197040003,-0.713846508656637,-1.596407715474264,-3.1427276770221155
-0.8226283232318323,-2.517830197011129,-1.4397862593280237,-0.7138827482806605,-1.5963714758502405,-3.1427276770221155
-0.8226521650897425,-2.517794434224264,-1.4397862593280237,-0.7139065901385706,-1.5963957945453089,-3.1427157560931605
-0.822615925465719,-2.517830197011129,-1.4397738615619105,-0.7138946692096155,-1.5963595549212855,-3.1427276770221155
-0.822615925465719,-2.517818276082174,-1.4397738615619105,-0.7138827482806605,-1.5963714758502405,-3.1427038351642054
-0.822615925465719,-2.517830197011129,-1.4397738615619105,-0.7138584295855921,-1.596407715474264,-3.1427157560931605
-0.822615925465719,-2.5178421179400843,-1.4397624174701136,-0.7138584295855921,-1.596407715474264,-3.1427157560931605
-0.8226402441607874,-2.517806355153219,-1.439833943043844,-0.7138703505145472,-1.596407715474264,-3.1427157560931605
-0.8225920836078089,-2.517830197011129,-1.4397738615619105,-0.713846508656637,-1.5963714758502405,-3.1427157560931605
-0.8225920836078089,-2.517818276082174,-1.4397624174701136,-0.7138584295855921,-1.5963957945453089,-3.142775599156515
-0.822615925465719,-2.517818276082174,-1.4397624174701136,-0.7138584295855921,-1.5963838736163538,-3.1427276770221155
-0.822604004536764,-2.5178540388690394,-1.4397738615619105,-0.7138946692096155,-1.5963838736163538,-3.142691675816671
-0.8226283232318323,-2.517830197011129,-1.4397981802569788,-0.7138703505145472,-1.5963476339923304,-3.1427276770221155
-0.822604004536764,-2.517794434224264,-1.4397862593280237,-0.7138584295855921,-1.5963595549212855,-3.1427276770221155
-0.822604004536764,-2.517830197011129,-1.4397862593280237,-0.7138584295855921,-1.5963595549212855,-3.1427395979510706
-0.8225920836078089,-2.517830197011129,-1.4397738615619105,-0.7138703505145472,-1.5963714758502405,-3.1427276770221155
-0.8226283232318323,-2.517818276082174,-1.4397981802569788,-0.7138703505145472,-1.5963957945453089,-3.1427157560931605
-0.822615925465719,-2.5178421179400843,-1.4397500197040003,-0.713846508656637,-1.5963957945453089,-3.1427157560931605
-0.822615925465719,-2.517818276082174,-1.4397500197040003,-0.7138703505145472,-1.596419636403219,-3.1427038351642054
-0.8226283232318323,-2.517830197011129,-1.4397380987750452,-0.7138584295855921,-1.5963957945453089,-3.1427395979510706
-0.8225801626788538,-2.517830197011129,-1.4397261778460901,-0.7138827482806605,-1.5963957945453089,-3.1427157560931605
-0.8226402441607874,-2.5178421179400843,-1.43970233598818,-0.7139304319964808,-1.5963957945453089,-3.1427157560931605
-0.8225920836078089,-2.5178659597979944,-1.439606014882223,-0.7140143553363245,-1.596407715474264,-3.1427276770221155
-0.822604004536764,-2.5178778807269495,-1.4395220915423792,-0.7139785925494593,-1.5963838736163538,-3.1427157560931605
-0.8225682417498987,-2.5179618040667933,-1.4392221609698694,-0.7141221205340784,-1.596407715474264,-3.14276367822756
-0.822615925465719,-2.5180094877826136,-1.439054314290182,-0.714182202016012,-1.5963957945453089,-3.1427157560931605
-0.822604004536764,-2.5181172529803675,-1.438862148915426,-0.7143257300006312,-1.5963838736163538,-3.1427157560931605
-0.8226283232318323,-2.5182254950152796,-1.4386103788958948,-0.7143619696246546,-1.5963838736163538,-3.1427276770221155
-0.8226283232318323,-2.5184410254107874,-1.4380705992328089,-0.7146499792682093,-1.596407715474264,-3.1427395979510706
-0.822615925465719,-2.518608872090475,-1.437770191823141,-0.714853588734762,-1.5963838736163538,-3.142667833958761
-0.8226283232318323,-2.5187647978412073,-1.4374106566058558,-0.7149613539325159,-1.5963714758502405,-3.1427276770221155
-0.822615925465719,-2.5188844839679163,-1.4370625654803675,-0.7152369658099573,-1.596407715474264,-3.142691675816671
-0.8225920836078089,-2.5192797819720667,-1.4362590948687952,-0.7155969778644007,-1.5963957945453089,-3.1427038351642054
-0.822604004536764,-2.5195310751544397,-1.435815159474508,-0.7158010641681116,-1.5963957945453089,-3.1427157560931605
-0.8226402441607874,-2.5196989218341272,-1.435383145009176,-0.7160170714007776,-1.5963838736163538,-3.142691675816671
-0.822615925465719,-2.5199268499957483,-1.4349148909198206,-0.716292683278219,-1.5964315573321741,-3.1427276770221155
-0.822604004536764,-2.5203822294818323,-1.4340270201312464,-0.7168195883380335,-1.596407715474264,-3.1427157560931605
-0.8225801626788538,-2.5206216017352503,-1.433535401021139,-0.7171676794635218,-1.5963957945453089,-3.1427157560931605
-0.822604004536764,-2.5208852926837366,-1.4330194632159632,-0.717419449483053,-1.596419636403219,-3.1427157560931605
-0.8225920836078089,-2.521160904561178,-1.4325631300555628,-0.7176831404315394,-1.5963957945453089,-3.1427038351642054
-0.8225920836078089,-2.5216639677630823,-1.4315794149981897,-0.7182710806476038,-1.5963595549212855,-3.142679754887716
-0.8225682417498987,-2.5219152609454554,-1.4310153166400355,-0.7186186949359339,-1.5964434782611292,-3.142691675816671
-0.822604004536764,-2.522202793751852,-1.4304397741900843,-0.7188943068133753,-1.5963714758502405,-3.1427157560931605
-0.8225682417498987,-2.5223825613604944,-1.4299119154559534,-0.7191937605487269,-1.5963838736163538,-3.142679754887716
-0.8225801626788538,-2.522921864186422,-1.4288442770587366,-0.7198055426227015,-1.5963838736163538,-3.142691675816671
-0.8225324789630335,-2.5231617132769983,-1.4282682577716272,-0.7201173941241663,-1.5964434782611292,-3.1427395979510706
-0.8225443998919886,-2.5234368483172815,-1.4277284781085413,-0.7204650084124964,-1.5963838736163538,-3.1427276770221155
-0.8225081602679651,-2.523688618336813,-1.4270928541766565,-0.7208126227008265,-1.5963957945453089,-3.1427157560931605
-0.8225200811969202,-2.5242393652545374,-1.4259889761554163,-0.7213519255267542,-1.596407715474264,-3.1427038351642054
-0.8225081602679651,-2.5244434515582483,-1.4253523985492151,-0.7217000166522425,-1.5963957945453089,-3.1427276770221155
-0.822484318410055,-2.524754826222555,-1.4247649351703089,-0.7219880262957972,-1.5963714758502405,-3.1427157560931605
-0.8224962393390101,-2.5250185171710413,-1.4242008368121546,-0.7223356405841272,-1.596419636403219,-3.1427276770221155
-0.8225081602679651,-2.525522057210104,-1.422952953969137,-0.7229469458209437,-1.596419636403219,-3.142751757298605
-0.8225324789630335,-2.52578574815859,-1.4223411718951624,-0.7232468763934534,-1.596419636403219,-3.1427038351642054
-0.8224485556231897,-2.526013199483053,-1.421717945729391,-0.7236183325396937,-1.596407715474264,-3.142655674611227
-0.822484318410055,-2.526264492665426,-1.4211419264422815,-0.7239535490619105,-1.5963957945453089,-3.1427038351642054
-0.8224723974810999,-2.5268033186541956,-1.419821564351217,-0.7245777289019983,-1.596419636403219,-3.1427157560931605
-0.8224361578570765,-2.527055088673727,-1.4191740194903772,-0.7248771826373499,-1.5963957945453089,-3.1427157560931605
-0.8224242369281214,-2.5273664633380335,-1.4185383955584925,-0.7252491156207483,-1.596419636403219,-3.1427395979510706
-0.8224242369281214,-2.5276663939105433,-1.4178183714496058,-0.7256687323199671,-1.596407715474264,-3.1427276770221155
-0.8224604765521448,-2.5282533804522913,-1.416450325642721,-0.7264364401446741,-1.596407715474264,-3.1427276770221155
-0.8223765532123011,-2.528540913258688,-1.415682617818014,-0.7268436590777796,-1.5963838736163538,-3.1427395979510706
-0.8224485556231897,-2.528804127370016,-1.4149869124041956,-0.7272513548480433,-1.596419636403219,-3.1427276770221155
-0.8224242369281214,-2.529151741658346,-1.414290730153219,-0.7276833693133753,-1.596407715474264,-3.142751757298605
-0.8224123159991663,-2.5298107306109827,-1.4128149191485804,-0.7284262816058558,-1.5963838736163538,-3.1427276770221155
-0.8223527113543909,-2.530158344899313,-1.4120352903949183,-0.728882137929098,-1.5963957945453089,-3.1427395979510706
-0.8223765532123011,-2.5304816404925745,-1.411279026662008,-0.7293136755572718,-1.596407715474264,-3.142751757298605
-0.8223765532123011,-2.530853573475973,-1.4105117956744593,-0.7297213713275355,-1.5964315573321741,-3.142775599156515
-0.8223527113543909,-2.531607453023092,-1.4089520613299769,-0.7306087652789515,-1.5964315573321741,-3.1427276770221155
-0.822364632283346,-2.5319669882403772,-1.4082077185260218,-0.7310522238360804,-1.596407715474264,-3.14276367822756
-0.8223884741412562,-2.5323508421527308,-1.4074042479144495,-0.731459919606344,-1.596407715474264,-3.1427276770221155
-0.8223403135882776,-2.532722298298971,-1.4066241423236292,-0.7318795363055628,-1.596407715474264,-3.142751757298605
-0.8222926298724573,-2.5335009733783167,-1.404992405568258,-0.7328389326678675,-1.5964434782611292,-3.1427276770221155
-0.8223403135882776,-2.533896271382467,-1.4041641394244593,-0.7332704702960413,-1.596419636403219,-3.1427276770221155
-0.8223045508014124,-2.534327809010641,-1.4033125082599085,-0.7337263266192835,-1.596407715474264,-3.142775599156515
-0.8222563902484339,-2.534734551106588,-1.4024484793292444,-0.7342174688922327,-1.596407715474264,-3.142775599156515
-0.8222807089435022,-2.535609547291891,-1.4007089773761194,-0.7351530233966272,-1.596419636403219,-3.14278752008547
-0.8222325483905237,-2.536064926777975,-1.3998091856585901,-0.7355964819537562,-1.5964673201190394,-3.1428116003619593
-0.8222325483905237,-2.5365079084979456,-1.3989575544940394,-0.7361362616168421,-1.596419636403219,-3.1428235212909144
-0.8222325483905237,-2.536891762410299,-1.3981054464923304,-0.7365077177630823,-1.596407715474264,-3.142799679433004
-0.8222087065326136,-2.537694279347555,-1.396341625844137,-0.7374790350543421,-1.5964315573321741,-3.1428116003619593
-0.8222325483905237,-2.5381014982806605,-1.3954418341266077,-0.7379944960223597,-1.596419636403219,-3.1428476015674036
-0.8221967856036585,-2.5384610334979456,-1.3946135679828089,-0.7384141127215784,-1.5964553991900843,-3.1428831259356897
-0.8222087065326136,-2.538856331502096,-1.3937261740313929,-0.7388575712787073,-1.5964434782611292,-3.1428595224963587
-0.8221848646747034,-2.5396230856524866,-1.3919623533831995,-0.7398532072650355,-1.5965035597430628,-3.1428354422198694
-0.82214862505068,-2.539994541798727,-1.3910625616656702,-0.7402842680560511,-1.5965755621539515,-3.1428235212909144
-0.8221128622638147,-2.540449921284811,-1.3901146093951624,-0.7408121267901819,-1.5964916388141077,-3.142895046864645
-0.8221247831927698,-2.5407612959491175,-1.3892386595355433,-0.7413399855243128,-1.596539322529928,-3.1428831259356897
-0.8221128622638147,-2.5415757338153284,-1.3874509970294397,-0.7422869841205042,-1.5965874830829065,-3.1428595224963587
-0.8221247831927698,-2.541971508656637,-1.3864553610431116,-0.7428024450885218,-1.5964434782611292,-3.1428831259356897
-0.8221009413348597,-2.5423906485186976,-1.3855555693255823,-0.743258301411764,-1.596647087727682,-3.1428712050067347
-0.8220890204059046,-2.542809788380758,-1.3846915403949183,-0.7437976042376917,-1.5964916388141077,-3.1428712050067347
-0.8220527807818812,-2.5436366240130823,-1.382927719746725,-0.7447927633868616,-1.5965994040118616,-3.1428831259356897
-0.8220408598529261,-2.544068161641256,-1.3820155302630823,-0.7452719847308558,-1.5964797178851526,-3.1428712050067347
-0.8220890204059046,-2.544499222432272,-1.3811042944537562,-0.7456925551043909,-1.5965874830829065,-3.1428476015674036
-0.8220766226397913,-2.5449426809894007,-1.3801563421832483,-0.7462075392352503,-1.596551243458883,-3.1428476015674036
-0.822028938923971,-2.5458410421954554,-1.3783205191241663,-0.7472146193133753,-1.5965994040118616,-3.1429069677936
-0.8220050970660608,-2.5462964216815394,-1.3774083296405237,-0.7476704756366175,-1.5965035597430628,-3.142931048070089
-0.8220050970660608,-2.546692196522848,-1.3764846960650843,-0.7482102552997034,-1.5966113249408167,-3.142931048070089
-0.8219807783709925,-2.547194782887594,-1.3755009810077112,-0.7487013975726526,-1.596527401600973,-3.142931048070089
-0.8219450155841272,-2.5481413046466272,-1.3736174742328089,-0.7497084776507776,-1.5966232458697718,-3.142931048070089
-0.8219569365130823,-2.548584763203756,-1.372645680104391,-0.7502606550799769,-1.5964673201190394,-3.1429665724383753
-0.8219688574420374,-2.549028221760885,-1.3717334906207483,-0.7507279554950159,-1.5965636412249964,-3.1429665724383753
-0.8219688574420374,-2.5494235197650355,-1.3708093802081507,-0.7512558142291468,-1.596551243458883,-3.1429551283465784
-0.8219211737262171,-2.5502260367022913,-1.3689377943622034,-0.7523587385760706,-1.5966113249408167,-3.142931048070089
-0.8219211737262171,-2.550657097493307,-1.3679779211627405,-0.752838436757223,-1.5965035597430628,-3.1429429689990442
-0.8218730131732386,-2.551028553639547,-1.366957966481344,-0.7533658186541956,-1.5964916388141077,-3.1429787317859095
-0.8218610922442835,-2.551448170338766,-1.3659985701190394,-0.7538932005511683,-1.5965994040118616,-3.1429551283465784
-0.8218491713153284,-2.552239243184225,-1.36401874223818,-0.7549245993243616,-1.596647087727682,-3.1429787317859095
-0.8218372503863733,-2.5526703039752405,-1.363046948109762,-0.755523983632223,-1.596551243458883,-3.142931048070089
-0.8218372503863733,-2.5530899206744593,-1.3620269934283655,-0.7560036818133753,-1.5965154806720179,-3.1429665724383753
-0.8218610922442835,-2.55355674425234,-1.3609827200519007,-0.7565792242633265,-1.5966594854937952,-3.1429787317859095
-0.8217771689044397,-2.5544074217425745,-1.3588712851153772,-0.7576463858233851,-1.5966351667987269,-3.143026653920309
-0.8217414061175745,-2.5548508802997034,-1.357875172291891,-0.7582100073443812,-1.5966232458697718,-3.1430025736438196
-0.8217771689044397,-2.5553181807147425,-1.356783692036764,-0.7588213125811976,-1.5965035597430628,-3.143050495778219
-0.8217533270465296,-2.5558093229876917,-1.3556678930865687,-0.7593968550311487,-1.5966714064227503,-3.1430144945727747
-0.8217652479754847,-2.5568154493915003,-1.353351895009176,-0.7606437841998499,-1.5965994040118616,-3.143026653920309
-0.8217294851886194,-2.557318989430563,-1.3521760145770472,-0.7612431685077112,-1.5966594854937952,-3.143038574849264
-0.8217175642596644,-2.5578225294696253,-1.3510125319110315,-0.7619989554034632,-1.596527401600973,-3.1430144945727747
-0.821693245564596,-2.5584214369403284,-1.3498123327838343,-0.7625983397113245,-1.5966594854937952,-3.143050495778219
-0.8216813246356409,-2.5595114866839808,-1.3473523298846644,-0.763977352772848,-1.596551243458883,-3.1430745760547083
-0.8216694037066858,-2.560110394154684,-1.3460453192340296,-0.7646845022784632,-1.5966952482806605,-3.1430745760547083
-0.8215974012957972,-2.5606139341937464,-1.344809357319967,-0.7654641310321253,-1.5965035597430628,-3.143038574849264
-0.8216336409198206,-2.561237160359518,-1.343501392995016,-0.7661593596087855,-1.5966594854937952,-3.1430745760547083
-0.8216093222247522,-2.5624945799456995,-1.3408377806292933,-0.7675984541522425,-1.596551243458883,-3.1430984179126185
-0.8215974012957972,-2.563141647969381,-1.339505974446432,-0.7683776060687464,-1.5966952482806605,-3.1431103388415735
-0.8216093222247522,-2.5637648741351526,-1.3380778471576136,-0.7691925207721155,-1.596551243458883,-3.1430864969836634
-0.8215497175799769,-2.564400021229879,-1.3366144339190882,-0.7699006239520472,-1.5966714064227503,-3.1431103388415735
-0.8215740362750452,-2.565669838582174,-1.3338545004474085,-0.7715190092669886,-1.596539322529928,-3.1430864969836634
-0.8215139547931116,-2.566328827534811,-1.3324263731585901,-0.7723105589496058,-1.5966351667987269,-3.143134419118063
-0.8215139547931116,-2.567012135182516,-1.33099872270693,-0.7730897108661097,-1.5965154806720179,-3.143158260975973
-0.8214662710772913,-2.5676706472979944,-1.3295109907733362,-0.7738330999957483,-1.5966594854937952,-3.143134419118063
-0.821441952382223,-2.569012467061178,-1.3265836874591272,-0.7754038015948694,-1.5965035597430628,-3.143158260975973
-0.821441952382223,-2.5696595350848597,-1.3251555601703089,-0.7762792746173304,-1.5967190901385706,-3.1432064215289515
-0.8214181105243128,-2.570366684590475,-1.3236797491656702,-0.777010742818014,-1.5965874830829065,-3.143170420323507
-0.8213942686664026,-2.5710609594928187,-1.3222153822528284,-0.7777541319476526,-1.5966351667987269,-3.1431942621814173
-0.8214061895953577,-2.5723913351642054,-1.3194320837603968,-0.7792165915118616,-1.5965874830829065,-3.143170420323507
-0.8213580290423792,-2.5730980078326624,-1.3180516401873987,-0.7799723784076136,-1.5967190901385706,-3.1432064215289515
-0.8213699499713343,-2.5737574736224573,-1.3167079130755823,-0.7806795279132288,-1.5965874830829065,-3.1432183424579065
-0.8213461081134241,-2.574428383504049,-1.3154247442828577,-0.7814229170428675,-1.5966351667987269,-3.143182341252462
-0.8212502638446253,-2.5757816473590296,-1.312533203755514,-0.7829697767840784,-1.5965874830829065,-3.1432302633868616
-0.8212621847735804,-2.576381031666891,-1.3112252394305628,-0.7836893240558069,-1.5966952482806605,-3.1432183424579065
-0.8212865034686487,-2.5770400206195276,-1.309845272694723,-0.7844565550433558,-1.5966594854937952,-3.1432183424579065
-0.8212502638446253,-2.577675167714254,-1.3085373083697718,-0.7851880232440394,-1.596647087727682,-3.1432064215289515
-0.8212502638446253,-2.5788849035846155,-1.3057892958270472,-0.7866385618792933,-1.5965874830829065,-3.1432064215289515
-0.8212145010577601,-2.579472366963522,-1.304469410573141,-0.7872861067401331,-1.5966594854937952,-3.143290106450216
-0.8212145010577601,-2.5800955931292933,-1.3031137625323694,-0.7880175749408167,-1.5966714064227503,-3.143254343663351
-0.8211901823626917,-2.580658260975973,-1.3018057982074183,-0.7886889616595667,-1.5965874830829065,-3.143266264592306
-0.8211663405047815,-2.5818565527545374,-1.2991178671466272,-0.7901399771319788,-1.5966351667987269,-3.143290106450216
-0.8211901823626917,-2.5824554602252405,-1.297809902821676,-0.7908595244037073,-1.5966714064227503,-3.143266264592306
-0.8211305777179163,-2.582959000264303,-1.2965267340289515,-0.7915304342852991,-1.596647087727682,-3.1433261076556605
-0.8211186567889612,-2.5835216681109827,-1.2952306906329554,-0.7922022978412073,-1.5966113249408167,-3.143278185521261
-0.8210704962359827,-2.5846365133868616,-1.2927587668048304,-0.7936289946185511,-1.5965755621539515,-3.143290106450216
-0.8210943380938929,-2.5851996580706995,-1.291546646748678,-0.7942765394793909,-1.5966714064227503,-3.1433141867267054
-0.8210585753070276,-2.585762325917379,-1.2903350035296839,-0.7949841658221644,-1.5967071692096155,-3.1433022657977503
-0.8210466543780726,-2.586313549672262,-1.2891109625445765,-0.7956193129168909,-1.5965636412249964,-3.143290106450216
-0.8210347334491175,-2.587367836629049,-1.2867110411273401,-0.7970464865313929,-1.5965994040118616,-3.1433261076556605
-0.820998493825094,-2.587907139454977,-1.285511318837301,-0.7977178732501429,-1.596647087727682,-3.1433380285846155
-0.8209860960589808,-2.5884226004229944,-1.2842634359942835,-0.7983410994159144,-1.5967310110675257,-3.1433022657977503
-0.8209860960589808,-2.588949505482809,-1.2830756346331995,-0.7989762465106409,-1.5965874830829065,-3.1433022657977503
-0.8209741751300257,-2.5899437109576624,-1.2807114760028284,-0.8003795782672327,-1.596647087727682,-3.1433141867267054
-0.8209384123431605,-2.59043533006777,-1.2795479933368128,-0.8010028044330042,-1.596539322529928,-3.1433261076556605
-0.820902172719137,-2.5909627119647425,-1.2782757917987269,-0.8017228285418909,-1.5967429319964808,-3.1433261076556605
-0.8208783308612269,-2.591513458882467,-1.2770636717425745,-0.8023460547076624,-1.5966113249408167,-3.1433616320239466
-0.820902172719137,-2.5925801436053675,-1.274604622517721,-0.8037369886981409,-1.5967190901385706,-3.1433737913714808
-0.8208544890033167,-2.593095127736227,-1.2733443419085901,-0.8043363730060022,-1.5966113249408167,-3.1433616320239466
-0.8208664099322718,-2.59367019334902,-1.2720845381366175,-0.8050077597247522,-1.5968030134784144,-3.1433497110949915
-0.8208544890033167,-2.5941856543170374,-1.2708247343646448,-0.8057029883014124,-1.5966714064227503,-3.1433380285846155
-0.8208187262164515,-2.5953834692584437,-1.2683642546283167,-0.8071420828448694,-1.5967791716205042,-3.143409792576925
-0.8208063284503382,-2.5959227720843714,-1.2670329252826136,-0.8077533880816858,-1.5965994040118616,-3.143385712300436
-0.8208063284503382,-2.5965941588031214,-1.2658088842975062,-0.808425251637594,-1.5967429319964808,-3.143409792576925
-0.8208063284503382,-2.597156826649801,-1.2645490805255335,-0.8090723196612757,-1.5966833273517054,-3.143409792576925
-0.820770565663473,-2.598426644002096,-1.2620051542865198,-0.8104875723468226,-1.5967429319964808,-3.143409792576925
-0.8207224051104944,-2.5990737120257776,-1.2606971899615687,-0.8111708799945276,-1.5966113249408167,-3.1434336344348353
-0.8207104841815394,-2.5997207800494593,-1.259425465260641,-0.8118184248553675,-1.596755329762594,-3.143385712300436
-0.8207104841815394,-2.600260082875387,-1.2581895033465784,-0.8125498930560511,-1.5967190901385706,-3.143409792576925
-0.8207104841815394,-2.6014822165118616,-1.2556574980365198,-0.8139408270465296,-1.5967310110675257,-3.1434336344348353
-0.8206985632525843,-2.6020692030536097,-1.254385773335592,-0.8146360556231897,-1.5966833273517054,-3.1434696356402796
-0.820650879536764,-2.6026199499713343,-1.253101650868551,-0.8153193632708948,-1.5967429319964808,-3.1434815565692347
-0.8206389586078089,-2.6032431761371058,-1.2517579237567347,-0.8160989920245569,-1.5966594854937952,-3.1434455553637903
-0.8205788771258753,-2.604381863270895,-1.2491896788226526,-0.8174660841571253,-1.5967190901385706,-3.1434455553637903
-0.8205788771258753,-2.6049931685077112,-1.2478941122638147,-0.8181493918048304,-1.5966714064227503,-3.1434455553637903
-0.8205788771258753,-2.605567757283346,-1.2466700712787073,-0.8187969366656702,-1.5967791716205042,-3.1434577147113245
-0.8205907980548304,-2.6061552206622522,-1.2454102675067347,-0.8194921652423304,-1.596647087727682,-3.14342171350588
-0.8205426375018519,-2.6073530356036585,-1.242854420338766,-0.8208707014666956,-1.5967071692096155,-3.143409792576925
-0.8205307165728968,-2.6079400221454065,-1.2415345350848597,-0.8215425650226038,-1.5966351667987269,-3.1434934774981897
-0.8205307165728968,-2.608539406453268,-1.2402623335467737,-0.8222263495074671,-1.5967672506915491,-3.1434577147113245
-0.8205426375018519,-2.609138313923971,-1.239002529774801,-0.8228853384601038,-1.5966232458697718,-3.1434934774981897
-0.8204591909991663,-2.6103127638446253,-1.236410919819967,-0.8243244330035608,-1.5966594854937952,-3.1434815565692347
-0.8204711119281214,-2.6108997503863733,-1.2351143995868128,-0.8249958197223108,-1.5967071692096155,-3.143517557774679
-0.8204830328570765,-2.611462418233053,-1.2339027563678187,-0.8256791273700159,-1.5967910925494593,-3.143517557774679
-0.820446793233053,-2.6120737234698694,-1.2326667944537562,-0.8263867537127894,-1.5965994040118616,-3.143505636845724
-0.8204229513751429,-2.6132124106036585,-1.2301467100726526,-0.8278372923480433,-1.5966952482806605,-3.1435774008380335
-0.8204110304461878,-2.613775078450338,-1.228898827229635,-0.828472916279928,-1.5966232458697718,-3.143517557774679
-0.8203991095172327,-2.6143625418292444,-1.2276509443866175,-0.8291447798358362,-1.5968030134784144,-3.143529478703634
-0.8203871885882776,-2.6148417631732386,-1.2263911406146448,-0.8298042456256312,-1.5966714064227503,-3.1435774008380335
-0.8203390280352991,-2.6159079710589808,-1.2238953749286097,-0.8312185446368616,-1.5967672506915491,-3.1435774008380335
-0.8203032652484339,-2.6164115110980433,-1.2226718107806605,-0.8318784872638147,-1.5966952482806605,-3.1435893217669886
-0.820315186177389,-2.6169384161578577,-1.2214115301715296,-0.8325737158404749,-1.596863094960348,-3.1435654799090784
-0.820327107106344,-2.6174777189837855,-1.220175568257467,-0.83325702348818,-1.5967190901385706,-3.1435774008380335
-0.8202794233905237,-2.618580166493551,-1.2177041212665003,-0.8346717993365687,-1.5968149344073694,-3.1435654799090784
-0.8203032652484339,-2.6191189924823206,-1.2164800802813929,-0.8352835814105433,-1.5966232458697718,-3.1435774008380335
-0.8202670256244105,-2.6196582953082483,-1.2152202765094202,-0.8359549681292933,-1.5968511740313929,-3.1435774008380335
-0.8202794233905237,-2.620173756276266,-1.213923756276266,-0.8366983572589319,-1.5967672506915491,-3.1435893217669886
-0.82019550005068,-2.621347729359762,-1.211332146321432,-0.8380172888385218,-1.596863094960348,-3.1436613241778772
-0.82019550005068,-2.621898953114645,-1.2100604216205042,-0.8387249151812952,-1.5966952482806605,-3.143613402043478
-0.8201835791217249,-2.6224501768695276,-1.2088120619403284,-0.8394082228290003,-1.5967429319964808,-3.143613402043478
-0.8202074209796351,-2.6230252424823206,-1.207588020955221,-0.8401158491717737,-1.5967791716205042,-3.143625322972433
-0.8201234976397913,-2.6241872946368616,-1.2049725691424769,-0.8413627783404749,-1.5968511740313929,-3.143613402043478
-0.8201234976397913,-2.6247504393206995,-1.203724209462301,-0.8421061674701136,-1.5967190901385706,-3.143637482319967
-0.8201115767108362,-2.6253135840045374,-1.202416721974508,-0.84271747270693,-1.5967429319964808,-3.1436613241778772
-0.8200872580157679,-2.62586480775942,-1.2011807600604456,-0.8433774153338831,-1.5968988577472132,-3.1437092463122767
-0.8200634161578577,-2.6270273367511194,-1.1986363569842737,-0.8447077910052698,-1.5968392531024378,-3.1437211672412317
-0.8200634161578577,-2.6275303999530237,-1.1973641554461878,-0.8454273382769983,-1.5968511740313929,-3.1436854044543665
-0.8200514952289026,-2.628129784260885,-1.1961043516742151,-0.8460748831378382,-1.5967190901385706,-3.143637482319967
-0.8200157324420374,-2.6286566893206995,-1.194904629384176,-0.8468063513385218,-1.596875015889303,-3.1436613241778772
-0.8200157324420374,-2.629878822957174,-1.1924451033221644,-0.8481734434710901,-1.596755329762594,-3.143733326588766
-0.8199675718890589,-2.6304896513568323,-1.1911967436419886,-0.8488805929767054,-1.596886936818258,-3.1436854044543665
-0.8200038115130823,-2.6310651938067835,-1.189948860798971,-0.8494804541217249,-1.5967791716205042,-3.143733326588766
-0.819956127797262,-2.631688419972555,-1.1887367407428187,-0.8502114454852503,-1.5968392531024378,-3.1436613241778772
-0.8199198881732386,-2.6328862349139612,-1.1862290541278284,-0.8515546957599085,-1.5967429319964808,-3.143733326588766
-0.8199198881732386,-2.6335094610797327,-1.1849568525897425,-0.8522737661944788,-1.5969226996051233,-3.143745247517721
-0.8199079672442835,-2.6340726057635706,-1.183708969746725,-0.852945629750387,-1.5968268553363245,-3.143733326588766
-0.8198602835284632,-2.634660069142477,-1.1824849287616175,-0.8536289373980921,-1.5968392531024378,-3.1437812487231653
-0.8198483625995081,-2.6358936468707483,-1.1799410025226038,-0.8550074736224573,-1.5967672506915491,-3.143733326588766
-0.8198240439044397,-2.63651687303652,-1.1786091963397425,-0.8557513395892542,-1.5968392531024378,-3.1438050905810755
-0.8198722044574183,-2.6370800177203577,-1.1772893110858362,-0.8563984076129358,-1.5968988577472132,-3.143769089375631
-0.8198240439044397,-2.637606922780172,-1.1760409514056605,-0.8571661154376429,-1.5967429319964808,-3.143769089375631
-0.8198121229754847,-2.6387932936297815,-1.1734488646136683,-0.858520809804098,-1.5967910925494593,-3.1438050905810755
-0.8197882811175745,-2.639392677937643,-1.1721771399127405,-0.8592761198626917,-1.5967910925494593,-3.1437812487231653
-0.8197281996356409,-2.639967743550436,-1.1709049383746546,-0.8599117437945765,-1.5969350973712366,-3.1437931696521204
-0.819740120564596,-2.6404946486102503,-1.169657055531637,-0.8606074492083948,-1.5967791716205042,-3.1438172499286097
-0.8197281996356409,-2.6416690985309046,-1.1671374479876917,-0.8619502226458948,-1.5969350973712366,-3.1437812487231653
-0.819740120564596,-2.6422084013568323,-1.1658414045916956,-0.8626816908465784,-1.5967791716205042,-3.1438172499286097
-0.8197281996356409,-2.6427958647357386,-1.1646173636065882,-0.8633292357074183,-1.5969589392291468,-3.1438172499286097
-0.8197043577777308,-2.643346611653463,-1.1633575598346155,-0.8640244642840784,-1.5968268553363245,-3.14384109178652
-0.8196442762957972,-2.644508663808004,-1.160837475453512,-0.8654153982745569,-1.5969470183001917,-3.1438291708575647
-0.8196561972247522,-2.645047966633932,-1.1595771948443812,-0.8661468664752405,-1.5968268553363245,-3.14384109178652
-0.8196442762957972,-2.64561111131777,-1.1584737936602991,-0.8667824904071253,-1.5969107786761683,-3.1438172499286097
-0.8196323553668421,-2.646210018788473,-1.1571772734271448,-0.8674901167498987,-1.596875015889303,-3.14384109178652
-0.8195846716510218,-2.647348705922262,-1.1546815077411097,-0.8688328901873987,-1.5969470183001917,-3.14384109178652
-0.8195484320269983,-2.647899929677145,-1.153433624898092,-0.8696120421039026,-1.5968511740313929,-3.143853012715475
-0.8195484320269983,-2.6484625975238245,-1.1521976629840296,-0.8702119032489222,-1.596875015889303,-3.143865172063009
-0.8195245901690882,-2.648989979420797,-1.150961701069967,-0.8708832899676722,-1.5969350973712366,-3.143865172063009
-0.8195126692401331,-2.6501763502704065,-1.148393456135885,-0.8722384611712855,-1.5969470183001917,-3.1438890139209192
-0.8195245901690882,-2.650644127522604,-1.1471336523639124,-0.8729336897479456,-1.5968511740313929,-3.143877092991964
-0.819488827382223,-2.6512067953692835,-1.145909611378805,-0.8735569159137171,-1.5968030134784144,-3.1438291708575647
-0.8194645086871546,-2.651734177266256,-1.1446498076068323,-0.8742283026324671,-1.597006622944967,-3.1439009348498743
-0.8194406668292444,-2.6528247038470667,-1.1420934836017054,-0.8755596319781702,-1.5969107786761683,-3.1439130941974085
-0.8194287459002894,-2.6533635298358362,-1.1408336798297327,-0.876314942036764,-1.5969470183001917,-3.1439009348498743
-0.8194406668292444,-2.653914276753561,-1.139561955128805,-0.876986328755514,-1.5967791716205042,-3.1439245382892054
-0.8194287459002894,-2.6544058958636683,-1.1383498350726526,-0.8776457945453089,-1.5969470183001917,-3.1439366976367396
-0.8194049040423792,-2.655496422444479,-1.1357458273517054,-0.8790367285357874,-1.596886936818258,-3.1439486185656946
-0.8193929831134241,-2.6560357252704065,-1.1344741026507776,-0.8796723524676722,-1.596982781087057,-3.1439009348498743
-0.8193567434894007,-2.6566107908831995,-1.1332381407367151,-0.8803918997394007,-1.5968511740313929,-3.1439605394946497
-0.8193448225604456,-2.6572096983539026,-1.1320017019854944,-0.8810632864581507,-1.5969589392291468,-3.1439245382892054
-0.8193090597735804,-2.6583483854876917,-1.1295059362994593,-0.8823583761798304,-1.596875015889303,-3.1439605394946497
-0.8193329016314905,-2.658947292958395,-1.1282218138324183,-0.883089844380514,-1.596994702016012,-3.144020382558004
-0.8193448225604456,-2.659558121358053,-1.1269977728473108,-0.8837607542621058,-1.5969589392291468,-3.143996540700094
-0.819284741078512,-2.6601813475238245,-1.125726048146383,-0.8844082991229456,-1.5968988577472132,-3.1439486185656946
-0.8192728201495569,-2.661367718373434,-1.1233018080340784,-0.885775391255514,-1.596863094960348,-3.143972460423605
-0.8192608992206019,-2.6620028654681605,-1.1220415274249476,-0.8865307013141077,-1.5969589392291468,-3.143972460423605
-0.8192489782916468,-2.6626017729388636,-1.120781723652975,-0.8871544043170374,-1.5969708601581019,-3.1440444628344935
-0.8192132155047815,-2.6631653944598597,-1.1195700804339808,-0.8878977934466761,-1.596863094960348,-3.144020382558004
-0.8191888968097132,-2.6643274466144007,-1.1170256773578089,-0.8892524878131312,-1.5969350973712366,-3.143984619771139
-0.8192370573626917,-2.664938275014059,-1.1157539526568812,-0.8899605909930628,-1.596886936818258,-3.143972460423605
-0.8191769758807581,-2.6654656569110315,-1.1144817511187952,-0.8906553427325647,-1.5970190207110804,-3.144008461629049
-0.8191168943988245,-2.666065041218893,-1.1131861845599573,-0.8913629690753382,-1.5968988577472132,-3.144020382558004
-0.8191769758807581,-2.667215649281637,-1.110605541859762,-0.8927057425128382,-1.596982781087057,-3.143984619771139
-0.8191049734698694,-2.667814079915182,-1.109321419392721,-0.8934252897845667,-1.596863094960348,-3.1440563837634485
-0.8190930525409144,-2.66840106645693,-1.1081097761737269,-0.8940728346454065,-1.5970190207110804,-3.1440444628344935
-0.8190811316119593,-2.6689284483539026,-1.1068738142596644,-0.8947680632220667,-1.5969226996051233,-3.1440685431109827
-0.819045368825094,-2.670138661061422,-1.1042936483966272,-0.8960993925677698,-1.5970547834979456,-3.1440685431109827
-0.8190692106830042,-2.6707375685321253,-1.1030696074115198,-0.8968780676471155,-1.5969107786761683,-3.144080464039938
-0.8190210501300257,-2.6713250319110315,-1.1017497221576136,-0.8975499312030237,-1.5969589392291468,-3.1440685431109827
-0.819033447896139,-2.671972099934713,-1.100501839314596,-0.8982098738299769,-1.5969708601581019,-3.144104305897848
-0.8189852873431605,-2.6731460730182093,-1.098017994557516,-0.8995884100543421,-1.5970190207110804,-3.144092384968893
-0.8189614454852503,-2.673781220112936,-1.0967815558062952,-0.9003079573260706,-1.596875015889303,-3.144092384968893
-0.8189371267901819,-2.6743205229388636,-1.0955336729632776,-0.901015583668844,-1.596994702016012,-3.144092384968893
-0.8189733664142054,-2.674919907246725,-1.0942614714251917,-0.9016745726214808,-1.5969589392291468,-3.144080464039938
-0.8189132849322718,-2.676105801259176,-1.0917895475970667,-0.9030059019671839,-1.596994702016012,-3.144080464039938
-0.8189252058612269,-2.6766813437091272,-1.0904935042010706,-0.9036648909198206,-1.5968988577472132,-3.144092384968893
-0.8189013640033167,-2.6771724859820765,-1.089233700429098,-0.904360596333639,-1.5969589392291468,-3.144104305897848
-0.8188775221454065,-2.677699867879049,-1.087961498891012,-0.9049723784076136,-1.596982781087057,-3.1440685431109827
