youngblood1998/my_ws/src/ur5_platform/ur5_platform_manipulation/wzq/test4_14_9.csv
j0,j1,j2,j3,j4,j5
-0.8224003950702112,-2.5178659597979944,-1.4398940245257776,-0.7136428991900843,-1.5964315573321741,-3.142895046864645
-0.822364632283346,-2.5178540388690394,-1.4398821035968226,-0.7136548201190394,-1.5964315573321741,-3.1429069677936
-0.8223765532123011,-2.5178421179400843,-1.4398463408099573,-0.7136428991900843,-1.5964434782611292,-3.1428831259356897
-0.8224003950702112,-2.5178659597979944,-1.4398701826678675,-0.7136667410479944,-1.596419636403219,-3.142895046864645
-0.8223884741412562,-2.5178540388690394,-1.4398701826678675,-0.7136667410479944,-1.5964434782611292,-3.1428712050067347
-0.8223765532123011,-2.5178540388690394,-1.4398940245257776,-0.7136309782611292,-1.5964553991900843,-3.1429069677936
-0.8223884741412562,-2.5178540388690394,-1.4398701826678675,-0.7136667410479944,-1.5964434782611292,-3.1429069677936
-0.8224123159991663,-2.5178659597979944,-1.4399059454547327,-0.7136667410479944,-1.5964434782611292,-3.1428476015674036
-0.8223527113543909,-2.5178659597979944,-1.4398821035968226,-0.7136667410479944,-1.596419636403219,-3.142895046864645
-0.8223884741412562,-2.5178778807269495,-1.4398940245257776,-0.7136786619769495,-1.5963957945453089,-3.142895046864645
-0.8224242369281214,-2.5178421179400843,-1.4398701826678675,-0.7136786619769495,-1.5964434782611292,-3.142895046864645
-0.8224003950702112,-2.5178659597979944,-1.4399059454547327,-0.7136548201190394,-1.5964315573321741,-3.1429069677936
-0.8223765532123011,-2.5178421179400843,-1.4398940245257776,-0.7136905829059046,-1.596407715474264,-3.1429069677936
-0.822364632283346,-2.5178421179400843,-1.4399178663836878,-0.7136667410479944,-1.5964315573321741,-3.142895046864645
-0.8224003950702112,-2.5178540388690394,-1.4398821035968226,-0.7136548201190394,-1.5964434782611292,-3.142895046864645
-0.8223765532123011,-2.5178421179400843,-1.4399059454547327,-0.7136548201190394,-1.596419636403219,-3.142895046864645
-0.8223765532123011,-2.5178540388690394,-1.4399059454547327,-0.7136548201190394,-1.5964434782611292,-3.142895046864645
-0.8223765532123011,-2.5178540388690394,-1.4398701826678675,-0.7136548201190394,-1.5964553991900843,-3.142931048070089
-0.8224003950702112,-2.5178659597979944,-1.4398940245257776,-0.7136786619769495,-1.5964553991900843,-3.1428712050067347
-0.8224361578570765,-2.5178540388690394,-1.4398577849017542,-0.7136309782611292,-1.5964315573321741,-3.1428354422198694
-0.8223765532123011,-2.5178659597979944,-1.4399297873126429,-0.7136667410479944,-1.596419636403219,-3.1428712050067347
-0.8224003950702112,-2.5178659597979944,-1.4399059454547327,-0.7136905829059046,-1.5964315573321741,-3.1428831259356897
-0.8223765532123011,-2.5178421179400843,-1.4398577849017542,-0.7136786619769495,-1.5964434782611292,-3.1428831259356897
-0.822364632283346,-2.5178540388690394,-1.4398940245257776,-0.7136667410479944,-1.5964434782611292,-3.1428831259356897
-0.8224003950702112,-2.5178778807269495,-1.4399178663836878,-0.7136786619769495,-1.5964315573321741,-3.1428595224963587
-0.822364632283346,-2.5178421179400843,-1.4398940245257776,-0.7136667410479944,-1.5964434782611292,-3.142895046864645
-0.822364632283346,-2.5178421179400843,-1.4398577849017542,-0.7136548201190394,-1.5964434782611292,-3.1428595224963587
-0.8224003950702112,-2.5178778807269495,-1.4398821035968226,-0.7136667410479944,-1.5964434782611292,-3.142931048070089
-0.822364632283346,-2.5178898016559046,-1.4398701826678675,-0.7136548201190394,-1.5964315573321741,-3.1429069677936
-0.8223884741412562,-2.5178778807269495,-1.4398821035968226,-0.7136667410479944,-1.596407715474264,-3.1428831259356897
-0.8223527113543909,-2.5178540388690394,-1.4398940245257776,-0.7136428991900843,-1.5964434782611292,-3.142895046864645
-0.8223884741412562,-2.5178659597979944,-1.4399178663836878,-0.7136428991900843,-1.596419636403219,-3.1428831259356897
-0.8223527113543909,-2.5178421179400843,-1.4398940245257776,-0.7136428991900843,-1.5964315573321741,-3.142895046864645
-0.8223884741412562,-2.5178540388690394,-1.4398821035968226,-0.7137025038348597,-1.5964315573321741,-3.142895046864645
-0.822364632283346,-2.5178659597979944,-1.4399660269366663,-0.7136905829059046,-1.5964315573321741,-3.1428595224963587
-0.8224003950702112,-2.5178659597979944,-1.4399059454547327,-0.7136190573321741,-1.5963957945453089,-3.1429069677936
-0.8224003950702112,-2.5178540388690394,-1.4399059454547327,-0.7136548201190394,-1.596407715474264,-3.1429069677936
-0.8223884741412562,-2.5178659597979944,-1.4398940245257776,-0.7136667410479944,-1.5964315573321741,-3.1428595224963587
-0.8223765532123011,-2.5178659597979944,-1.4398821035968226,-0.7136309782611292,-1.5964315573321741,-3.1429069677936
-0.8224242369281214,-2.5178421179400843,-1.4398940245257776,-0.7136428991900843,-1.5964553991900843,-3.1428712050067347
-0.8224123159991663,-2.5178898016559046,-1.4398701826678675,-0.7136786619769495,-1.5964315573321741,-3.142919127141134
-0.8223884741412562,-2.5178540388690394,-1.4398821035968226,-0.7136667410479944,-1.596419636403219,-3.1429429689990442
-0.8224003950702112,-2.5178540388690394,-1.4398701826678675,-0.7136548201190394,-1.5964315573321741,-3.1428476015674036
-0.8223884741412562,-2.517830197011129,-1.4398940245257776,-0.7136190573321741,-1.5964315573321741,-3.1428595224963587
-0.822364632283346,-2.5178778807269495,-1.4398940245257776,-0.7136667410479944,-1.5964315573321741,-3.1429069677936
-0.8223765532123011,-2.5178540388690394,-1.4398701826678675,-0.7136667410479944,-1.5963957945453089,-3.142895046864645
-0.8224123159991663,-2.5178540388690394,-1.4398940245257776,-0.7136667410479944,-1.5964434782611292,-3.1428831259356897
-0.8223765532123011,-2.5178540388690394,-1.4399178663836878,-0.7136667410479944,-1.5964315573321741,-3.1428831259356897
-0.8224003950702112,-2.5178659597979944,-1.4398940245257776,-0.7136548201190394,-1.596407715474264,-3.1428831259356897
-0.8223765532123011,-2.5178540388690394,-1.4398701826678675,-0.7136905829059046,-1.5964434782611292,-3.1428712050067347
-0.8223884741412562,-2.5178540388690394,-1.4398701826678675,-0.7136667410479944,-1.596419636403219,-3.1428831259356897
-0.8223765532123011,-2.5178540388690394,-1.4398821035968226,-0.7136667410479944,-1.5964673201190394,-3.1428831259356897
-0.8224003950702112,-2.517830197011129,-1.4399178663836878,-0.7136667410479944,-1.5964673201190394,-3.1429069677936
-0.8224123159991663,-2.5178778807269495,-1.4398821035968226,-0.7136905829059046,-1.5964434782611292,-3.142895046864645
-0.8223884741412562,-2.5178540388690394,-1.4399059454547327,-0.7136548201190394,-1.5963957945453089,-3.1429069677936
-0.8223884741412562,-2.5178540388690394,-1.4398463408099573,-0.7136667410479944,-1.5964434782611292,-3.1428476015674036
-0.8224003950702112,-2.5178778807269495,-1.4399059454547327,-0.7136667410479944,-1.5963957945453089,-3.142919127141134
-0.8223527113543909,-2.5178778807269495,-1.4399178663836878,-0.7136190573321741,-1.596407715474264,-3.142895046864645
-0.8223765532123011,-2.5178659597979944,-1.4398821035968226,-0.7136548201190394,-1.596419636403219,-3.142895046864645
-0.8224242369281214,-2.5178540388690394,-1.4398577849017542,-0.7136667410479944,-1.5964315573321741,-3.1429069677936
-0.8223884741412562,-2.5178659597979944,-1.439833943043844,-0.7136428991900843,-1.596407715474264,-3.142895046864645
-0.8223765532123011,-2.5178659597979944,-1.4398821035968226,-0.7136667410479944,-1.5964434782611292,-3.1429429689990442
-0.8223765532123011,-2.5178540388690394,-1.4399059454547327,-0.7136309782611292,-1.5964315573321741,-3.1428712050067347
-0.822364632283346,-2.5178778807269495,-1.4398701826678675,-0.7136786619769495,-1.596419636403219,-3.1428595224963587
-0.8223884741412562,-2.5178540388690394,-1.4399059454547327,-0.7137025038348597,-1.5964434782611292,-3.1429069677936
-0.8224123159991663,-2.5178778807269495,-1.4399059454547327,-0.7136548201190394,-1.5964553991900843,-3.1429069677936
-0.8224361578570765,-2.5178540388690394,-1.4398701826678675,-0.7136309782611292,-1.596407715474264,-3.1428831259356897
-0.8224003950702112,-2.5178540388690394,-1.4398821035968226,-0.7136667410479944,-1.596419636403219,-3.142895046864645
-0.8224123159991663,-2.5178540388690394,-1.4398940245257776,-0.7136667410479944,-1.5964553991900843,-3.142919127141134
-0.8223765532123011,-2.5178421179400843,-1.4398701826678675,-0.7136667410479944,-1.5964434782611292,-3.1429429689990442
-0.8223765532123011,-2.5178778807269495,-1.4399059454547327,-0.7136309782611292,-1.5963957945453089,-3.142931048070089
-0.8224242369281214,-2.5178421179400843,-1.4399059454547327,-0.7136786619769495,-1.5964315573321741,-3.1429069677936
-0.8223884741412562,-2.5178540388690394,-1.4398940245257776,-0.7136309782611292,-1.5964434782611292,-3.1428831259356897
-0.8224003950702112,-2.517818276082174,-1.4399297873126429,-0.7136548201190394,-1.5963957945453089,-3.1428831259356897
-0.8223884741412562,-2.5178778807269495,-1.439833943043844,-0.7136786619769495,-1.596407715474264,-3.1429069677936
-0.8223884741412562,-2.5178540388690394,-1.4398940245257776,-0.7136548201190394,-1.5964553991900843,-3.1429069677936
-0.8223884741412562,-2.5178421179400843,-1.4398940245257776,-0.7136905829059046,-1.5964315573321741,-3.1428831259356897
-0.8224123159991663,-2.5178540388690394,-1.4399059454547327,-0.7136786619769495,-1.5964434782611292,-3.142895046864645
-0.8224123159991663,-2.5178898016559046,-1.4398940245257776,-0.7136309782611292,-1.596419636403219,-3.142895046864645
-0.8223765532123011,-2.5178778807269495,-1.4398463408099573,-0.7136667410479944,-1.5964315573321741,-3.1428712050067347
-0.822364632283346,-2.5178421179400843,-1.4398821035968226,-0.7136548201190394,-1.5964315573321741,-3.142895046864645
-0.8223884741412562,-2.517818276082174,-1.4398701826678675,-0.7136548201190394,-1.5964315573321741,-3.1429069677936
-0.8224123159991663,-2.5178540388690394,-1.4398701826678675,-0.7136309782611292,-1.5964315573321741,-3.1428712050067347
-0.8224003950702112,-2.5178540388690394,-1.4398940245257776,-0.7136548201190394,-1.5963957945453089,-3.142919127141134
-0.8223884741412562,-2.5178421179400843,-1.4398821035968226,-0.7136548201190394,-1.5964315573321741,-3.142895046864645
-0.8223765532123011,-2.5178540388690394,-1.4398940245257776,-0.7136428991900843,-1.5964434782611292,-3.142919127141134
-0.8223765532123011,-2.5178540388690394,-1.4398940245257776,-0.7136667410479944,-1.5964315573321741,-3.142919127141134
-0.8223527113543909,-2.517830197011129,-1.4398701826678675,-0.7136309782611292,-1.5964434782611292,-3.142895046864645
-0.8224003950702112,-2.5178659597979944,-1.4398821035968226,-0.7136548201190394,-1.5964434782611292,-3.1428831259356897
-0.8224123159991663,-2.5178540388690394,-1.4398940245257776,-0.7136428991900843,-1.5964315573321741,-3.1428712050067347
-0.8224003950702112,-2.5178540388690394,-1.4398821035968226,-0.7136548201190394,-1.5964553991900843,-3.1429069677936
-0.8224242369281214,-2.517818276082174,-1.4398821035968226,-0.7136548201190394,-1.596419636403219,-3.142895046864645
-0.8223884741412562,-2.5178778807269495,-1.4398577849017542,-0.7136786619769495,-1.596407715474264,-3.1428831259356897
-0.8224123159991663,-2.5178659597979944,-1.4399178663836878,-0.7136548201190394,-1.596407715474264,-3.1429069677936
-0.8224123159991663,-2.5178778807269495,-1.4398940245257776,-0.7136548201190394,-1.596407715474264,-3.1428712050067347
-0.8224123159991663,-2.5178540388690394,-1.4399059454547327,-0.7136548201190394,-1.5964553991900843,-3.142895046864645
-0.8224003950702112,-2.5178659597979944,-1.4399178663836878,-0.7136548201190394,-1.5964315573321741,-3.1429069677936
-0.8223403135882776,-2.5178421179400843,-1.4398940245257776,-0.7136786619769495,-1.5964315573321741,-3.1429069677936
-0.822364632283346,-2.5178778807269495,-1.4399059454547327,-0.7136548201190394,-1.5964315573321741,-3.1429069677936
-0.8224123159991663,-2.5178778807269495,-1.4398577849017542,-0.7136428991900843,-1.5964315573321741,-3.1428712050067347
-0.822364632283346,-2.517830197011129,-1.4398940245257776,-0.7136428991900843,-1.596407715474264,-3.1428595224963587
-0.8223884741412562,-2.517830197011129,-1.4398821035968226,-0.7136548201190394,-1.5964434782611292,-3.1429069677936
-0.8223884741412562,-2.5178778807269495,-1.4398821035968226,-0.7136428991900843,-1.5964673201190394,-3.142919127141134
-0.8223527113543909,-2.5178659597979944,-1.4399297873126429,-0.7136309782611292,-1.5964553991900843,-3.142919127141134
-0.8223884741412562,-2.5178778807269495,-1.4398577849017542,-0.7136548201190394,-1.5964434782611292,-3.1428595224963587
-0.8223884741412562,-2.5178659597979944,-1.4399059454547327,-0.7136548201190394,-1.5964315573321741,-3.1428595224963587
-0.8224003950702112,-2.5178421179400843,-1.4398701826678675,-0.7136309782611292,-1.5964553991900843,-3.142919127141134
-0.8224003950702112,-2.517818276082174,-1.4399059454547327,-0.7136667410479944,-1.5964553991900843,-3.1429069677936
-0.8223527113543909,-2.5178540388690394,-1.4399178663836878,-0.7136667410479944,-1.5964315573321741,-3.1428712050067347
-0.8223765532123011,-2.5178659597979944,-1.4398821035968226,-0.7136667410479944,-1.596407715474264,-3.1428831259356897
-0.8224123159991663,-2.5178778807269495,-1.4398940245257776,-0.7136548201190394,-1.5964434782611292,-3.1428712050067347
-0.8224003950702112,-2.5178659597979944,-1.4398577849017542,-0.7136548201190394,-1.596407715474264,-3.142895046864645
-0.8223765532123011,-2.5178540388690394,-1.4398701826678675,-0.7136667410479944,-1.596407715474264,-3.142895046864645
-0.8223765532123011,-2.5178659597979944,-1.4399059454547327,-0.7136309782611292,-1.5964315573321741,-3.1428595224963587
-0.8223884741412562,-2.5178421179400843,-1.4399178663836878,-0.7136905829059046,-1.5964434782611292,-3.1428831259356897
-0.8223884741412562,-2.5178421179400843,-1.4398577849017542,-0.7136428991900843,-1.596419636403219,-3.1429069677936
-0.8223527113543909,-2.5178540388690394,-1.4398821035968226,-0.7136548201190394,-1.596407715474264,-3.1428595224963587
-0.8224242369281214,-2.5178659597979944,-1.4398701826678675,-0.7136786619769495,-1.5964315573321741,-3.142895046864645
-0.8223765532123011,-2.5178778807269495,-1.4398463408099573,-0.7136786619769495,-1.596407715474264,-3.142895046864645
-0.8224123159991663,-2.5178659597979944,-1.4398821035968226,-0.7136548201190394,-1.596407715474264,-3.142919127141134
-0.8224123159991663,-2.5178540388690394,-1.4398821035968226,-0.7136786619769495,-1.5963957945453089,-3.1428712050067347
-0.822364632283346,-2.5178421179400843,-1.4398701826678675,-0.7136786619769495,-1.596419636403219,-3.142895046864645
-0.8224123159991663,-2.517818276082174,-1.4398940245257776,-0.7136548201190394,-1.5964434782611292,-3.1428595224963587
-0.8223884741412562,-2.5178659597979944,-1.4398577849017542,-0.7136428991900843,-1.596407715474264,-3.1428712050067347
-0.822364632283346,-2.5178540388690394,-1.4398940245257776,-0.7136309782611292,-1.5963957945453089,-3.1429069677936
-0.8223765532123011,-2.5178421179400843,-1.4399178663836878,-0.7136905829059046,-1.5964315573321741,-3.142895046864645
-0.8223765532123011,-2.517830197011129,-1.4398701826678675,-0.7136667410479944,-1.5964673201190394,-3.1429069677936
-0.8223765532123011,-2.5178421179400843,-1.4398940245257776,-0.7136667410479944,-1.5964434782611292,-3.1428831259356897
-0.8223884741412562,-2.5178421179400843,-1.4398821035968226,-0.7136548201190394,-1.596407715474264,-3.1429069677936
-0.822364632283346,-2.5178540388690394,-1.4398821035968226,-0.7136548201190394,-1.596419636403219,-3.142895046864645
-0.8223884741412562,-2.5178540388690394,-1.4398701826678675,-0.7136548201190394,-1.596407715474264,-3.142895046864645
-0.822364632283346,-2.5178540388690394,-1.4399059454547327,-0.7136905829059046,-1.596419636403219,-3.142895046864645
-0.8224003950702112,-2.5178421179400843,-1.4398821035968226,-0.7136548201190394,-1.596419636403219,-3.142895046864645
-0.8224003950702112,-2.5178659597979944,-1.4398701826678675,-0.7136905829059046,-1.5963957945453089,-3.142895046864645
-0.8223884741412562,-2.5178659597979944,-1.4399059454547327,-0.7136667410479944,-1.5964434782611292,-3.1429429689990442
-0.8223884741412562,-2.5178421179400843,-1.439833943043844,-0.7136786619769495,-1.5964315573321741,-3.1428595224963587
-0.8223884741412562,-2.5178778807269495,-1.4399059454547327,-0.7136548201190394,-1.596407715474264,-3.1429069677936
-0.8223884741412562,-2.5178540388690394,-1.4398821035968226,-0.7136548201190394,-1.5964315573321741,-3.142919127141134
-0.8223765532123011,-2.5178778807269495,-1.4398821035968226,-0.7136548201190394,-1.5964315573321741,-3.1428831259356897
-0.8223765532123011,-2.5178659597979944,-1.4399059454547327,-0.7136309782611292,-1.5964315573321741,-3.142919127141134
-0.822364632283346,-2.5178659597979944,-1.4398821035968226,-0.7136548201190394,-1.5964315573321741,-3.142895046864645
-0.8224242369281214,-2.5178778807269495,-1.4398821035968226,-0.7136309782611292,-1.5964315573321741,-3.1428712050067347
-0.8224003950702112,-2.5178540388690394,-1.4398940245257776,-0.7136667410479944,-1.5964553991900843,-3.1429069677936
-0.8223765532123011,-2.5178898016559046,-1.4399059454547327,-0.7136667410479944,-1.596419636403219,-3.1428831259356897
-0.8223884741412562,-2.5178540388690394,-1.4398940245257776,-0.7136428991900843,-1.5964315573321741,-3.1429069677936
-0.8224242369281214,-2.5178540388690394,-1.4398577849017542,-0.7136309782611292,-1.596419636403219,-3.1429069677936
-0.8224242369281214,-2.5178540388690394,-1.4398940245257776,-0.7136905829059046,-1.5964673201190394,-3.1428831259356897
-0.8224003950702112,-2.5178421179400843,-1.4398940245257776,-0.7136548201190394,-1.596419636403219,-3.1428831259356897
-0.8223884741412562,-2.5178540388690394,-1.4399297873126429,-0.7136905829059046,-1.596419636403219,-3.1428831259356897
-0.8223527113543909,-2.5178540388690394,-1.4398577849017542,-0.7136309782611292,-1.5964315573321741,-3.1428831259356897
-0.8223765532123011,-2.517830197011129,-1.4398940245257776,-0.7136548201190394,-1.5964315573321741,-3.1428831259356897
-0.8224242369281214,-2.5178540388690394,-1.4398701826678675,-0.7136548201190394,-1.596407715474264,-3.142919127141134
-0.822364632283346,-2.5178540388690394,-1.4398940245257776,-0.7136786619769495,-1.596419636403219,-3.1429069677936
-0.822364632283346,-2.5178659597979944,-1.4399059454547327,-0.713607136403219,-1.596407715474264,-3.142895046864645
-0.8224003950702112,-2.5178540388690394,-1.4398940245257776,-0.7136309782611292,-1.5964315573321741,-3.1428595224963587
-0.8223884741412562,-2.5178659597979944,-1.4399178663836878,-0.7136428991900843,-1.5964315573321741,-3.1429069677936
-0.8223884741412562,-2.5178659597979944,-1.4399178663836878,-0.7136667410479944,-1.5964315573321741,-3.1428595224963587
-0.8223884741412562,-2.5178540388690394,-1.4399059454547327,-0.7136786619769495,-1.596407715474264,-3.1428831259356897
-0.822364632283346,-2.5178659597979944,-1.4399059454547327,-0.7136309782611292,-1.5964315573321741,-3.1428712050067347
-0.8224003950702112,-2.5178659597979944,-1.4399178663836878,-0.7136548201190394,-1.5963957945453089,-3.1428831259356897
-0.8224242369281214,-2.517830197011129,-1.4399178663836878,-0.7136786619769495,-1.5964315573321741,-3.1428712050067347
-0.8223765532123011,-2.5178540388690394,-1.4398940245257776,-0.7136667410479944,-1.5963957945453089,-3.1428831259356897
-0.8223765532123011,-2.5178659597979944,-1.4398577849017542,-0.7136905829059046,-1.5964315573321741,-3.1428712050067347
-0.8224123159991663,-2.5178778807269495,-1.4399059454547327,-0.7136548201190394,-1.5964434782611292,-3.1428831259356897
-0.8223765532123011,-2.5178778807269495,-1.4399059454547327,-0.7136786619769495,-1.596419636403219,-3.1428712050067347
-0.8224123159991663,-2.5178540388690394,-1.4398821035968226,-0.7136309782611292,-1.5964553991900843,-3.1428712050067347
-0.8224003950702112,-2.5178659597979944,-1.4399059454547327,-0.7136786619769495,-1.5964315573321741,-3.1429069677936
-0.8223884741412562,-2.5178659597979944,-1.4398821035968226,-0.7136786619769495,-1.596419636403219,-3.1428831259356897
-0.8224003950702112,-2.5178540388690394,-1.4398940245257776,-0.7136548201190394,-1.5964553991900843,-3.1428831259356897
-0.822364632283346,-2.5178540388690394,-1.4399178663836878,-0.7136428991900843,-1.596419636403219,-3.1428831259356897
-0.822364632283346,-2.5178659597979944,-1.4398701826678675,-0.7136428991900843,-1.5964315573321741,-3.1428712050067347
-0.8223765532123011,-2.5178659597979944,-1.4398821035968226,-0.7136428991900843,-1.5964434782611292,-3.1428831259356897
-0.8223884741412562,-2.5178540388690394,-1.4398940245257776,-0.7136905829059046,-1.5964434782611292,-3.1429069677936
-0.8223765532123011,-2.5178421179400843,-1.4399541060077112,-0.7136428991900843,-1.5964315573321741,-3.1428712050067347
-0.8224003950702112,-2.5178421179400843,-1.4398940245257776,-0.7136667410479944,-1.596407715474264,-3.1428831259356897
-0.8224003950702112,-2.5178540388690394,-1.4399178663836878,-0.7136428991900843,-1.5964315573321741,-3.142895046864645
-0.8224003950702112,-2.5178778807269495,-1.4398821035968226,-0.7136786619769495,-1.5964434782611292,-3.1428595224963587
-0.8223884741412562,-2.5178659597979944,-1.4398940245257776,-0.7136309782611292,-1.5964315573321741,-3.1428712050067347
-0.8224003950702112,-2.5178659597979944,-1.4399297873126429,-0.7136428991900843,-1.5964315573321741,-3.1429069677936
-0.8224003950702112,-2.517818276082174,-1.4398821035968226,-0.7136667410479944,-1.5964553991900843,-3.1428712050067347
-0.8224123159991663,-2.5178540388690394,-1.4399059454547327,-0.7136309782611292,-1.5964434782611292,-3.142919127141134
-0.822364632283346,-2.5178778807269495,-1.4398940245257776,-0.7136309782611292,-1.5964315573321741,-3.1428712050067347
-0.8224003950702112,-2.5178778807269495,-1.4398940245257776,-0.7136548201190394,-1.596419636403219,-3.1428712050067347
-0.8223884741412562,-2.5178421179400843,-1.4398463408099573,-0.7136786619769495,-1.5964553991900843,-3.1428712050067347
-0.8223884741412562,-2.5178421179400843,-1.4398701826678675,-0.7136190573321741,-1.5964553991900843,-3.1428712050067347
-0.8223884741412562,-2.5178540388690394,-1.4398701826678675,-0.7136786619769495,-1.5963957945453089,-3.1428595224963587
-0.8223765532123011,-2.5178540388690394,-1.4398701826678675,-0.7136548201190394,-1.5964434782611292,-3.1428354422198694
-0.8223765532123011,-2.5178778807269495,-1.4398463408099573,-0.7136667410479944,-1.5964315573321741,-3.142895046864645
-0.8223884741412562,-2.5178540388690394,-1.439822022114889,-0.7136548201190394,-1.5964434782611292,-3.1429069677936
-0.8224242369281214,-2.5178421179400843,-1.4398821035968226,-0.7136428991900843,-1.5964315573321741,-3.1429069677936
-0.8223765532123011,-2.5178421179400843,-1.4398701826678675,-0.7136428991900843,-1.5964315573321741,-3.1428595224963587
-0.8223884741412562,-2.5178540388690394,-1.4398821035968226,-0.7136548201190394,-1.5964315573321741,-3.1429069677936
-0.8224003950702112,-2.5178659597979944,-1.4398940245257776,-0.7136667410479944,-1.5964553991900843,-3.1428712050067347
-0.8224361578570765,-2.5178540388690394,-1.439833943043844,-0.7136905829059046,-1.5964673201190394,-3.142895046864645
-0.8224003950702112,-2.517830197011129,-1.4399178663836878,-0.7136905829059046,-1.5964434782611292,-3.1429069677936
-0.8224242369281214,-2.5178540388690394,-1.4398821035968226,-0.7136548201190394,-1.5964434782611292,-3.1428712050067347
-0.8223765532123011,-2.5178540388690394,-1.4398940245257776,-0.7136667410479944,-1.5964434782611292,-3.142919127141134
-0.8223884741412562,-2.5178540388690394,-1.4398701826678675,-0.7136548201190394,-1.5964315573321741,-3.1428712050067347
-0.8224242369281214,-2.5178659597979944,-1.4399297873126429,-0.7136309782611292,-1.596419636403219,-3.1428831259356897
-0.8224003950702112,-2.5178540388690394,-1.4398940245257776,-0.7136667410479944,-1.5964553991900843,-3.142895046864645
-0.8223527113543909,-2.5178659597979944,-1.4398463408099573,-0.7136428991900843,-1.596419636403219,-3.1428712050067347
-0.822364632283346,-2.5178540388690394,-1.4398577849017542,-0.7136548201190394,-1.596419636403219,-3.1428831259356897
-0.8224003950702112,-2.5178659597979944,-1.4398940245257776,-0.7136548201190394,-1.596407715474264,-3.1428831259356897
-0.8223884741412562,-2.5178659597979944,-1.4398577849017542,-0.7136548201190394,-1.5964315573321741,-3.142895046864645
-0.8223884741412562,-2.5178540388690394,-1.4399059454547327,-0.7136428991900843,-1.5964315573321741,-3.142919127141134
-0.8223884741412562,-2.5178540388690394,-1.4399178663836878,-0.7136548201190394,-1.5964434782611292,-3.1429069677936
-0.8224003950702112,-2.5178659597979944,-1.4399178663836878,-0.7136667410479944,-1.5964315573321741,-3.142919127141134
-0.822364632283346,-2.5178540388690394,-1.4398821035968226,-0.7136667410479944,-1.5964673201190394,-3.142919127141134
-0.822364632283346,-2.5178540388690394,-1.4399059454547327,-0.7136428991900843,-1.5964434782611292,-3.1428595224963587
-0.8223884741412562,-2.5178540388690394,-1.4398577849017542,-0.7136667410479944,-1.596407715474264,-3.142895046864645
-0.8224003950702112,-2.5178540388690394,-1.4398701826678675,-0.7136190573321741,-1.5964434782611292,-3.142895046864645
-0.8223765532123011,-2.5178778807269495,-1.4398577849017542,-0.7136786619769495,-1.596407715474264,-3.1428595224963587
-0.8223884741412562,-2.5178540388690394,-1.4398577849017542,-0.7136667410479944,-1.5964315573321741,-3.1428831259356897
-0.8224242369281214,-2.5178540388690394,-1.4398821035968226,-0.7136428991900843,-1.5964434782611292,-3.142895046864645
-0.8223884741412562,-2.5178778807269495,-1.439941708241598,-0.7136548201190394,-1.5964315573321741,-3.142919127141134
-0.822364632283346,-2.517830197011129,-1.4398821035968226,-0.7136905829059046,-1.596407715474264,-3.1428712050067347
-0.8224242369281214,-2.517818276082174,-1.4398940245257776,-0.7136667410479944,-1.5964315573321741,-3.142919127141134
-0.8224123159991663,-2.5178778807269495,-1.4399059454547327,-0.7136786619769495,-1.5964315573321741,-3.1428831259356897
-0.8224123159991663,-2.5178659597979944,-1.4399059454547327,-0.7136309782611292,-1.596419636403219,-3.1428712050067347
-0.8223765532123011,-2.5178540388690394,-1.4399059454547327,-0.7136548201190394,-1.5963957945453089,-3.142919127141134
-0.8223527113543909,-2.5178540388690394,-1.4399059454547327,-0.7136786619769495,-1.5964315573321741,-3.1428712050067347
-0.8223884741412562,-2.5178540388690394,-1.4398940245257776,-0.7136667410479944,-1.5964434782611292,-3.142895046864645
-0.8223765532123011,-2.5178778807269495,-1.439833943043844,-0.7136905829059046,-1.5964315573321741,-3.142895046864645
-0.8224003950702112,-2.5178659597979944,-1.4398821035968226,-0.7136667410479944,-1.596407715474264,-3.142931048070089
-0.8223884741412562,-2.5178659597979944,-1.4398701826678675,-0.7136786619769495,-1.596407715474264,-3.142919127141134
-0.8224003950702112,-2.5178659597979944,-1.4398701826678675,-0.7136786619769495,-1.5964434782611292,-3.1429069677936
-0.8224003950702112,-2.5178659597979944,-1.4398577849017542,-0.7136667410479944,-1.5964673201190394,-3.142895046864645
-0.8223884741412562,-2.5178540388690394,-1.4398940245257776,-0.7136667410479944,-1.5964434782611292,-3.1428831259356897
-0.8223884741412562,-2.5178540388690394,-1.4399178663836878,-0.7136905829059046,-1.5964673201190394,-3.1428831259356897
-0.8223765532123011,-2.5178421179400843,-1.4398940245257776,-0.7136667410479944,-1.596407715474264,-3.142895046864645
-0.8224003950702112,-2.5178540388690394,-1.4398940245257776,-0.7136905829059046,-1.5964434782611292,-3.142919127141134
-0.8223765532123011,-2.5178898016559046,-1.4398701826678675,-0.7136548201190394,-1.5963957945453089,-3.142895046864645
-0.8224123159991663,-2.5178778807269495,-1.4399059454547327,-0.7136548201190394,-1.5964434782611292,-3.1428831259356897
-0.8223884741412562,-2.5178659597979944,-1.4399059454547327,-0.7136667410479944,-1.5964315573321741,-3.142919127141134
-0.8224123159991663,-2.5178540388690394,-1.4399059454547327,-0.7136548201190394,-1.5964315573321741,-3.142919127141134
-0.822364632283346,-2.5178540388690394,-1.4398940245257776,-0.7136428991900843,-1.5963957945453089,-3.142895046864645
-0.8224003950702112,-2.5178540388690394,-1.4398821035968226,-0.7136428991900843,-1.596407715474264,-3.1429069677936
-0.822364632283346,-2.5178898016559046,-1.4398821035968226,-0.7136428991900843,-1.5964315573321741,-3.1428712050067347
-0.8223884741412562,-2.5178540388690394,-1.4399059454547327,-0.7136548201190394,-1.5964673201190394,-3.1429069677936
-0.8223765532123011,-2.5178659597979944,-1.4399178663836878,-0.7136428991900843,-1.5964553991900843,-3.1429069677936
-0.8223884741412562,-2.517830197011129,-1.4398940245257776,-0.7136667410479944,-1.5964434782611292,-3.1428831259356897
-0.8223884741412562,-2.5178421179400843,-1.4398701826678675,-0.7136428991900843,-1.5964553991900843,-3.1428831259356897
-0.8224242369281214,-2.5178659597979944,-1.4398940245257776,-0.7136786619769495,-1.596407715474264,-3.1429069677936
-0.8224123159991663,-2.5178540388690394,-1.4398821035968226,-0.7137025038348597,-1.5964434782611292,-3.1428712050067347
-0.8224003950702112,-2.5178421179400843,-1.4399178663836878,-0.7136905829059046,-1.5964553991900843,-3.142895046864645
-0.8224123159991663,-2.5178778807269495,-1.4398701826678675,-0.7136548201190394,-1.5964315573321741,-3.142919127141134
-0.8224242369281214,-2.517818276082174,-1.4399297873126429,-0.7136428991900843,-1.5964434782611292,-3.1429069677936
-0.8223765532123011,-2.5178540388690394,-1.4398701826678675,-0.7136428991900843,-1.596419636403219,-3.1428595224963587
-0.8224123159991663,-2.5178421179400843,-1.4398940245257776,-0.7136428991900843,-1.5964315573321741,-3.142895046864645
-0.8224361578570765,-2.5178540388690394,-1.4398940245257776,-0.7136667410479944,-1.596419636403219,-3.142895046864645
-0.8224242369281214,-2.5178540388690394,-1.4398821035968226,-0.7136905829059046,-1.5964434782611292,-3.1428831259356897
-0.8223765532123011,-2.5178659597979944,-1.4399059454547327,-0.7136786619769495,-1.5964553991900843,-3.1428712050067347
-0.8224123159991663,-2.5178540388690394,-1.4398821035968226,-0.7136667410479944,-1.5963957945453089,-3.1429069677936
-0.8224123159991663,-2.5178659597979944,-1.4398940245257776,-0.7136309782611292,-1.596419636403219,-3.1428831259356897
-0.822364632283346,-2.5178778807269495,-1.4399178663836878,-0.7136548201190394,-1.5964434782611292,-3.1428712050067347
-0.8223884741412562,-2.5178421179400843,-1.4398701826678675,-0.7136667410479944,-1.596407715474264,-3.1428712050067347
-0.8223765532123011,-2.5178540388690394,-1.4399059454547327,-0.7136428991900843,-1.596419636403219,-3.142931048070089
-0.8223884741412562,-2.517830197011129,-1.4398940245257776,-0.7136548201190394,-1.596407715474264,-3.142919127141134
-0.8223884741412562,-2.5178540388690394,-1.4398821035968226,-0.7136667410479944,-1.5964315573321741,-3.1428831259356897
-0.8223884741412562,-2.5178778807269495,-1.4398821035968226,-0.7136190573321741,-1.5964315573321741,-3.142895046864645
-0.8224123159991663,-2.5178421179400843,-1.4398701826678675,-0.7136548201190394,-1.5964553991900843,-3.1428712050067347
-0.8223884741412562,-2.5178659597979944,-1.4398940245257776,-0.7136548201190394,-1.5964315573321741,-3.142895046864645
-0.8224242369281214,-2.5178540388690394,-1.4399059454547327,-0.7136190573321741,-1.596419636403219,-3.1428595224963587
-0.8224123159991663,-2.5178659597979944,-1.4398701826678675,-0.7136667410479944,-1.5963957945453089,-3.1428712050067347
-0.8224003950702112,-2.5178540388690394,-1.4398821035968226,-0.7136548201190394,-1.596407715474264,-3.1428712050067347
-0.8224003950702112,-2.5178421179400843,-1.4399059454547327,-0.7136667410479944,-1.5964673201190394,-3.1428831259356897
-0.822364632283346,-2.5178778807269495,-1.4398821035968226,-0.7136786619769495,-1.5964315573321741,-3.1428831259356897
-0.8224123159991663,-2.5178540388690394,-1.4398821035968226,-0.7136428991900843,-1.5964315573321741,-3.142895046864645
-0.8223884741412562,-2.5178421179400843,-1.4398821035968226,-0.7136667410479944,-1.596407715474264,-3.1428595224963587
-0.8223765532123011,-2.517830197011129,-1.4398940245257776,-0.7136548201190394,-1.596419636403219,-3.1428831259356897
-0.8223884741412562,-2.5178540388690394,-1.4399059454547327,-0.7136428991900843,-1.5964315573321741,-3.142919127141134
-0.8223884741412562,-2.517830197011129,-1.4399059454547327,-0.7136309782611292,-1.5964553991900843,-3.1428831259356897
-0.8223884741412562,-2.5178659597979944,-1.4398821035968226,-0.7136548201190394,-1.5964553991900843,-3.1429069677936
-0.8224003950702112,-2.5178540388690394,-1.4399178663836878,-0.7136548201190394,-1.596407715474264,-3.142931048070089
-0.8223527113543909,-2.5178421179400843,-1.4398701826678675,-0.7136786619769495,-1.596419636403219,-3.142919127141134
-0.8223765532123011,-2.5178421179400843,-1.4398940245257776,-0.7136428991900843,-1.5964315573321741,-3.142895046864645
-0.8223884741412562,-2.5178540388690394,-1.4398821035968226,-0.7136548201190394,-1.596407715474264,-3.1429069677936
-0.8224003950702112,-2.5178421179400843,-1.4398701826678675,-0.7136548201190394,-1.5964315573321741,-3.142895046864645
-0.8223765532123011,-2.5178659597979944,-1.4398940245257776,-0.7136786619769495,-1.5964673201190394,-3.1428831259356897
-0.8223765532123011,-2.5178659597979944,-1.4399178663836878,-0.7136428991900843,-1.596419636403219,-3.1429069677936
-0.822364632283346,-2.5178778807269495,-1.4398821035968226,-0.7136428991900843,-1.596407715474264,-3.1428831259356897
-0.822364632283346,-2.5178778807269495,-1.4398701826678675,-0.7136548201190394,-1.5964315573321741,-3.1428595224963587
-0.8224123159991663,-2.5178659597979944,-1.4399178663836878,-0.7136548201190394,-1.596407715474264,-3.1428712050067347
-0.8223765532123011,-2.5178778807269495,-1.4399297873126429,-0.7136548201190394,-1.5964315573321741,-3.1428712050067347
-0.8224003950702112,-2.5178659597979944,-1.4399059454547327,-0.7136548201190394,-1.5964315573321741,-3.142895046864645
-0.8224003950702112,-2.5178421179400843,-1.4398821035968226,-0.7136667410479944,-1.596407715474264,-3.1428831259356897
-0.8223884741412562,-2.5178778807269495,-1.4398940245257776,-0.7136548201190394,-1.5964315573321741,-3.142895046864645
-0.8223884741412562,-2.5178898016559046,-1.4398940245257776,-0.7136309782611292,-1.5964315573321741,-3.1428712050067347
-0.8223884741412562,-2.5178540388690394,-1.4399297873126429,-0.7136905829059046,-1.5964315573321741,-3.142895046864645
-0.8223884741412562,-2.5178659597979944,-1.4399178663836878,-0.7136548201190394,-1.5963957945453089,-3.1428354422198694
-0.8223765532123011,-2.5178659597979944,-1.4398701826678675,-0.7136309782611292,-1.5964553991900843,-3.1429069677936
-0.8224123159991663,-2.5178540388690394,-1.4398821035968226,-0.7136548201190394,-1.5964553991900843,-3.1428712050067347
-0.8223765532123011,-2.5179136435138147,-1.4398821035968226,-0.7136548201190394,-1.5963957945453089,-3.1428595224963587
-0.8223884741412562,-2.5178659597979944,-1.4398701826678675,-0.7136905829059046,-1.596419636403219,-3.1428831259356897
-0.8224003950702112,-2.5178421179400843,-1.4398701826678675,-0.7136548201190394,-1.596407715474264,-3.1428712050067347
-0.8223884741412562,-2.5178540388690394,-1.4399059454547327,-0.7136548201190394,-1.596419636403219,-3.1428712050067347
-0.8223403135882776,-2.5178778807269495,-1.4398821035968226,-0.7136428991900843,-1.596419636403219,-3.1428831259356897
-0.8223527113543909,-2.5178421179400843,-1.4398821035968226,-0.7136548201190394,-1.5964553991900843,-3.142895046864645
-0.8224123159991663,-2.517830197011129,-1.4398940245257776,-0.7136667410479944,-1.5964434782611292,-3.142895046864645
-0.8224003950702112,-2.5178778807269495,-1.4399059454547327,-0.7136548201190394,-1.596419636403219,-3.1428831259356897
-0.8223884741412562,-2.5178540388690394,-1.4399178663836878,-0.7136786619769495,-1.596407715474264,-3.1428831259356897
-0.8224123159991663,-2.517830197011129,-1.4398821035968226,-0.7136548201190394,-1.5964315573321741,-3.1428595224963587
-0.8223765532123011,-2.5178778807269495,-1.4398701826678675,-0.7136786619769495,-1.5964434782611292,-3.1428712050067347
-0.8224003950702112,-2.5178778807269495,-1.4398940245257776,-0.7136667410479944,-1.5964553991900843,-3.1429069677936
-0.8223884741412562,-2.5178540388690394,-1.4399059454547327,-0.7136428991900843,-1.5964553991900843,-3.1428712050067347
-0.8224003950702112,-2.5178421179400843,-1.4399059454547327,-0.7136905829059046,-1.5964434782611292,-3.1428476015674036
-0.8223884741412562,-2.5178540388690394,-1.4398940245257776,-0.7136667410479944,-1.5964434782611292,-3.1428595224963587
-0.8223884741412562,-2.5178778807269495,-1.4398940245257776,-0.7136786619769495,-1.5963957945453089,-3.1429069677936
-0.8224003950702112,-2.5178659597979944,-1.4399178663836878,-0.7136309782611292,-1.5964315573321741,-3.1428831259356897
-0.8223884741412562,-2.5178540388690394,-1.4398577849017542,-0.7136428991900843,-1.596407715474264,-3.142895046864645
-0.8223884741412562,-2.5178898016559046,-1.4399059454547327,-0.7136548201190394,-1.596419636403219,-3.1428712050067347
-0.8224003950702112,-2.5178421179400843,-1.4398701826678675,-0.7136548201190394,-1.5964673201190394,-3.142919127141134
-0.8224485556231897,-2.5178421179400843,-1.4399178663836878,-0.7136548201190394,-1.5964315573321741,-3.142919127141134
-0.8224123159991663,-2.5178421179400843,-1.4398577849017542,-0.7136548201190394,-1.5964434782611292,-3.1428595224963587
-0.8223765532123011,-2.517830197011129,-1.4398940245257776,-0.7136428991900843,-1.5964315573321741,-3.1428712050067347
-0.8224003950702112,-2.517830197011129,-1.4398701826678675,-0.7136428991900843,-1.5963957945453089,-3.1429069677936
-0.8224123159991663,-2.5178778807269495,-1.4399178663836878,-0.7136667410479944,-1.596419636403219,-3.142919127141134
-0.8223765532123011,-2.5178540388690394,-1.4399297873126429,-0.7136309782611292,-1.596419636403219,-3.1429069677936
-0.8223765532123011,-2.517818276082174,-1.4398821035968226,-0.7136667410479944,-1.5964315573321741,-3.1429069677936
-0.8224123159991663,-2.5178421179400843,-1.4398577849017542,-0.7136786619769495,-1.5964315573321741,-3.1428831259356897
-0.8223884741412562,-2.5178540388690394,-1.4398463408099573,-0.7136667410479944,-1.596407715474264,-3.142895046864645
-0.8223765532123011,-2.5178540388690394,-1.4398821035968226,-0.7136548201190394,-1.5964315573321741,-3.1428712050067347
-0.822364632283346,-2.5178898016559046,-1.4399178663836878,-0.7136905829059046,-1.596407715474264,-3.142895046864645
-0.8223765532123011,-2.5178778807269495,-1.4398940245257776,-0.7137025038348597,-1.5964315573321741,-3.1428595224963587
-0.8224361578570765,-2.517818276082174,-1.4399178663836878,-0.7136667410479944,-1.5963957945453089,-3.142931048070089
-0.8223527113543909,-2.5178659597979944,-1.4399178663836878,-0.7136786619769495,-1.5964315573321741,-3.1428476015674036
-0.822364632283346,-2.5178421179400843,-1.4398940245257776,-0.7136667410479944,-1.596407715474264,-3.1428831259356897
-0.8223884741412562,-2.5178540388690394,-1.4398940245257776,-0.7136667410479944,-1.596419636403219,-3.1429069677936
-0.8223765532123011,-2.5178659597979944,-1.4398577849017542,-0.7136667410479944,-1.5964315573321741,-3.1428831259356897
-0.8223765532123011,-2.5178659597979944,-1.4399059454547327,-0.7136786619769495,-1.596419636403219,-3.142895046864645
-0.822364632283346,-2.5178778807269495,-1.4398821035968226,-0.7136667410479944,-1.5964315573321741,-3.1428712050067347
-0.8224003950702112,-2.5178540388690394,-1.4398940245257776,-0.7136667410479944,-1.596407715474264,-3.1429429689990442
-0.8223527113543909,-2.5178421179400843,-1.4398940245257776,-0.7136667410479944,-1.596407715474264,-3.1429069677936
-0.8224003950702112,-2.517830197011129,-1.4398821035968226,-0.7136548201190394,-1.596407715474264,-3.1429069677936
-0.8223765532123011,-2.5178659597979944,-1.4398821035968226,-0.7136428991900843,-1.5964797178851526,-3.142895046864645
-0.8223884741412562,-2.5178778807269495,-1.4398821035968226,-0.7136548201190394,-1.596419636403219,-3.1428831259356897
-0.822364632283346,-2.517818276082174,-1.4398940245257776,-0.713714901600973,-1.5964797178851526,-3.1428476015674036
-0.8223884741412562,-2.5178659597979944,-1.4399178663836878,-0.7137025038348597,-1.596407715474264,-3.1429069677936
-0.8223765532123011,-2.5178540388690394,-1.4398821035968226,-0.7136428991900843,-1.5964553991900843,-3.142895046864645
-0.8224123159991663,-2.5178540388690394,-1.4398701826678675,-0.7136548201190394,-1.5964916388141077,-3.1428712050067347
-0.8223884741412562,-2.5178540388690394,-1.4399059454547327,-0.7136786619769495,-1.5964553991900843,-3.142919127141134
-0.8224003950702112,-2.5178778807269495,-1.4398821035968226,-0.7136548201190394,-1.596407715474264,-3.1428712050067347
-0.8223884741412562,-2.5178778807269495,-1.4398821035968226,-0.7136786619769495,-1.596407715474264,-3.1428712050067347
-0.8223765532123011,-2.5178540388690394,-1.4399059454547327,-0.7136309782611292,-1.5964434782611292,-3.1428712050067347
-0.8223884741412562,-2.5178778807269495,-1.4399059454547327,-0.7136548201190394,-1.596419636403219,-3.142895046864645
-0.8223765532123011,-2.5178421179400843,-1.4398940245257776,-0.7136548201190394,-1.5963957945453089,-3.142895046864645
-0.8223765532123011,-2.5178540388690394,-1.4398940245257776,-0.7136309782611292,-1.596419636403219,-3.1428476015674036
-0.8223884741412562,-2.5178778807269495,-1.4398701826678675,-0.7136548201190394,-1.5964315573321741,-3.1428476015674036
-0.8224003950702112,-2.5178540388690394,-1.4399297873126429,-0.7136786619769495,-1.5964315573321741,-3.1428831259356897
-0.8223765532123011,-2.5178540388690394,-1.4399178663836878,-0.7136548201190394,-1.596407715474264,-3.142895046864645
-0.8224003950702112,-2.517806355153219,-1.4398940245257776,-0.7136309782611292,-1.5964315573321741,-3.1428595224963587
-0.8224123159991663,-2.5178540388690394,-1.4398701826678675,-0.7136190573321741,-1.5964434782611292,-3.142919127141134
-0.8223884741412562,-2.5178659597979944,-1.4399059454547327,-0.7136428991900843,-1.5964673201190394,-3.1429069677936
-0.8224242369281214,-2.5178778807269495,-1.4398701826678675,-0.7136548201190394,-1.596407715474264,-3.1429069677936
-0.8224123159991663,-2.5178659597979944,-1.4398940245257776,-0.7136667410479944,-1.596419636403219,-3.1428595224963587
-0.8223527113543909,-2.5178659597979944,-1.4398940245257776,-0.7136309782611292,-1.5964434782611292,-3.1428476015674036
-0.8224123159991663,-2.5178540388690394,-1.439941708241598,-0.7136548201190394,-1.5964434782611292,-3.142931048070089
-0.8223527113543909,-2.5178659597979944,-1.4399059454547327,-0.7137025038348597,-1.596419636403219,-3.1428831259356897
-0.8224242369281214,-2.5178778807269495,-1.4399178663836878,-0.7136548201190394,-1.596419636403219,-3.142895046864645
-0.8223884741412562,-2.5178659597979944,-1.4398940245257776,-0.7136667410479944,-1.5964315573321741,-3.1428595224963587
-0.8224123159991663,-2.5178540388690394,-1.4398577849017542,-0.7136667410479944,-1.5964315573321741,-3.142895046864645
-0.8223765532123011,-2.5178659597979944,-1.4398701826678675,-0.7136786619769495,-1.5964315573321741,-3.142895046864645
-0.8224123159991663,-2.517818276082174,-1.4399059454547327,-0.7136548201190394,-1.5964315573321741,-3.1429069677936
-0.8223527113543909,-2.5178421179400843,-1.4398940245257776,-0.7136548201190394,-1.5964315573321741,-3.142895046864645
-0.8224123159991663,-2.5178659597979944,-1.4398463408099573,-0.7136667410479944,-1.5964553991900843,-3.1428712050067347
-0.8224003950702112,-2.5178421179400843,-1.4398577849017542,-0.7136548201190394,-1.596419636403219,-3.1428476015674036
-0.8224003950702112,-2.5178778807269495,-1.4398940245257776,-0.7136548201190394,-1.5964434782611292,-3.1428712050067347
-0.8224123159991663,-2.5178540388690394,-1.4398701826678675,-0.7136667410479944,-1.5964553991900843,-3.1428831259356897
-0.8224003950702112,-2.5178778807269495,-1.4398821035968226,-0.7136905829059046,-1.5964434782611292,-3.1428831259356897
-0.822364632283346,-2.5178540388690394,-1.4398940245257776,-0.7136548201190394,-1.5964315573321741,-3.1428712050067347
-0.8223884741412562,-2.5178421179400843,-1.4399059454547327,-0.7136309782611292,-1.5964434782611292,-3.1428476015674036
-0.8223884741412562,-2.5178659597979944,-1.4398821035968226,-0.7136905829059046,-1.5964434782611292,-3.1428712050067347
-0.822364632283346,-2.5178540388690394,-1.4398821035968226,-0.7136667410479944,-1.5964315573321741,-3.142919127141134
-0.8223884741412562,-2.5178659597979944,-1.4398701826678675,-0.7136548201190394,-1.5964315573321741,-3.142895046864645
-0.822364632283346,-2.517830197011129,-1.4398463408099573,-0.7136428991900843,-1.5964434782611292,-3.1429069677936
-0.8223884741412562,-2.5178421179400843,-1.4399178663836878,-0.7136428991900843,-1.5964673201190394,-3.1429069677936
-0.8223765532123011,-2.5178540388690394,-1.4399178663836878,-0.7136428991900843,-1.5964315573321741,-3.1429069677936
-0.8224123159991663,-2.5178659597979944,-1.4398940245257776,-0.7136786619769495,-1.5964553991900843,-3.1429429689990442
-0.8223884741412562,-2.5178421179400843,-1.4399059454547327,-0.7136548201190394,-1.5964315573321741,-3.142895046864645
-0.822364632283346,-2.5178659597979944,-1.4398821035968226,-0.7136548201190394,-1.596407715474264,-3.1429069677936
-0.8223884741412562,-2.5178540388690394,-1.4398701826678675,-0.7136548201190394,-1.596419636403219,-3.1428712050067347
-0.8224123159991663,-2.5178659597979944,-1.4398821035968226,-0.7136667410479944,-1.5964315573321741,-3.1428831259356897
-0.8224003950702112,-2.5178659597979944,-1.4399178663836878,-0.7136667410479944,-1.5964315573321741,-3.1429069677936
-0.8223884741412562,-2.5179136435138147,-1.439941708241598,-0.7136667410479944,-1.5964315573321741,-3.1428712050067347
-0.8224123159991663,-2.5178421179400843,-1.4398701826678675,-0.7136428991900843,-1.5964315573321741,-3.142931048070089
-0.8224003950702112,-2.5178540388690394,-1.4398701826678675,-0.7136548201190394,-1.596419636403219,-3.142895046864645
-0.822364632283346,-2.5178659597979944,-1.4398577849017542,-0.7136548201190394,-1.596419636403219,-3.1428712050067347
-0.8223884741412562,-2.5178540388690394,-1.4399059454547327,-0.7136667410479944,-1.5964315573321741,-3.142895046864645
-0.8223527113543909,-2.5178659597979944,-1.4398940245257776,-0.7136190573321741,-1.596407715474264,-3.1429069677936
-0.8224003950702112,-2.5178659597979944,-1.4398821035968226,-0.7136667410479944,-1.5964434782611292,-3.142895046864645
-0.8224242369281214,-2.5178659597979944,-1.4398701826678675,-0.7136190573321741,-1.596407715474264,-3.1428595224963587
-0.822364632283346,-2.5178421179400843,-1.4399178663836878,-0.7136786619769495,-1.5964315573321741,-3.142895046864645
-0.8224123159991663,-2.5178659597979944,-1.4398701826678675,-0.7136428991900843,-1.5964434782611292,-3.1428595224963587
-0.8224003950702112,-2.5178540388690394,-1.4398940245257776,-0.7136309782611292,-1.5964434782611292,-3.1428831259356897
-0.8224123159991663,-2.5178540388690394,-1.4398463408099573,-0.7136667410479944,-1.5963957945453089,-3.142895046864645
-0.8224242369281214,-2.5178659597979944,-1.4398940245257776,-0.7136548201190394,-1.5964315573321741,-3.1428831259356897
-0.822364632283346,-2.5178659597979944,-1.4398701826678675,-0.7136667410479944,-1.596419636403219,-3.1428831259356897
-0.8223527113543909,-2.5178540388690394,-1.4398940245257776,-0.7136548201190394,-1.5964315573321741,-3.1428476015674036
-0.8223884741412562,-2.5178540388690394,-1.4398940245257776,-0.7136190573321741,-1.5964434782611292,-3.142895046864645
-0.822364632283346,-2.5178540388690394,-1.4399059454547327,-0.7136667410479944,-1.5964434782611292,-3.142919127141134
-0.8224123159991663,-2.5178659597979944,-1.439833943043844,-0.7136309782611292,-1.596407715474264,-3.1428831259356897
-0.8223884741412562,-2.5178778807269495,-1.4398577849017542,-0.7136548201190394,-1.5964315573321741,-3.1428595224963587
-0.8223884741412562,-2.5178898016559046,-1.4398940245257776,-0.7136548201190394,-1.596407715474264,-3.142919127141134
-0.8223765532123011,-2.5178778807269495,-1.4398940245257776,-0.7136667410479944,-1.596419636403219,-3.142895046864645
-0.822364632283346,-2.5178540388690394,-1.4398701826678675,-0.7136548201190394,-1.5964434782611292,-3.1429069677936
-0.8223765532123011,-2.5178540388690394,-1.4398821035968226,-0.7136548201190394,-1.5964434782611292,-3.142895046864645
-0.8224361578570765,-2.5178421179400843,-1.4399297873126429,-0.7136428991900843,-1.5964434782611292,-3.142895046864645
-0.8224003950702112,-2.5178540388690394,-1.4398940245257776,-0.7136309782611292,-1.5964315573321741,-3.1428712050067347
-0.8224361578570765,-2.5178540388690394,-1.4398940245257776,-0.7136309782611292,-1.596419636403219,-3.142919127141134
-0.8223884741412562,-2.5178540388690394,-1.4398940245257776,-0.7136548201190394,-1.5964553991900843,-3.1428712050067347
-0.8224003950702112,-2.5178540388690394,-1.4398940245257776,-0.7136548201190394,-1.596407715474264,-3.1428831259356897
-0.8224242369281214,-2.5178540388690394,-1.4399059454547327,-0.7136667410479944,-1.5964315573321741,-3.1429429689990442
-0.822364632283346,-2.5178659597979944,-1.4398940245257776,-0.7136786619769495,-1.5964315573321741,-3.1428831259356897
-0.8223884741412562,-2.5178898016559046,-1.4398821035968226,-0.7136667410479944,-1.5964315573321741,-3.1428712050067347
-0.8223884741412562,-2.5178659597979944,-1.4398701826678675,-0.7136667410479944,-1.596419636403219,-3.142919127141134
-0.8224003950702112,-2.517830197011129,-1.4399059454547327,-0.7136548201190394,-1.5964315573321741,-3.1428831259356897
-0.8223765532123011,-2.5178778807269495,-1.4398701826678675,-0.7136667410479944,-1.596407715474264,-3.142895046864645
-0.8224242369281214,-2.5178540388690394,-1.4398463408099573,-0.7136428991900843,-1.5964434782611292,-3.1428831259356897
-0.822364632283346,-2.5178659597979944,-1.4398940245257776,-0.7136428991900843,-1.596419636403219,-3.142895046864645
-0.8224123159991663,-2.5178778807269495,-1.4398577849017542,-0.7136667410479944,-1.5964434782611292,-3.1428831259356897
-0.8224003950702112,-2.5178540388690394,-1.4398701826678675,-0.7136309782611292,-1.596419636403219,-3.1428831259356897
-0.8223884741412562,-2.5178540388690394,-1.4398940245257776,-0.7136190573321741,-1.5963957945453089,-3.1428712050067347
-0.8223765532123011,-2.5179017225848597,-1.4398577849017542,-0.7136309782611292,-1.5964315573321741,-3.142895046864645
-0.8223765532123011,-2.5178659597979944,-1.4398821035968226,-0.7136428991900843,-1.596419636403219,-3.1428595224963587
-0.8223765532123011,-2.5178659597979944,-1.4398821035968226,-0.7136786619769495,-1.5964434782611292,-3.142895046864645
-0.822364632283346,-2.5178778807269495,-1.4398821035968226,-0.7136667410479944,-1.5963957945453089,-3.1428831259356897
-0.8224123159991663,-2.5178421179400843,-1.4398701826678675,-0.7136309782611292,-1.5964553991900843,-3.1429069677936
-0.8223765532123011,-2.5178540388690394,-1.4398701826678675,-0.7136667410479944,-1.5964434782611292,-3.1428712050067347
-0.8223765532123011,-2.5178898016559046,-1.4398940245257776,-0.7136667410479944,-1.596419636403219,-3.142895046864645
-0.8223884741412562,-2.5178540388690394,-1.4398577849017542,-0.7136786619769495,-1.596419636403219,-3.1428712050067347
-0.8223765532123011,-2.517830197011129,-1.4398701826678675,-0.7136548201190394,-1.596419636403219,-3.1428712050067347
-0.8223765532123011,-2.517818276082174,-1.4398577849017542,-0.7136548201190394,-1.5964553991900843,-3.142895046864645
-0.822364632283346,-2.5178540388690394,-1.4398701826678675,-0.7136667410479944,-1.5964434782611292,-3.1428831259356897
-0.822364632283346,-2.5178540388690394,-1.4398701826678675,-0.7136667410479944,-1.5964434782611292,-3.1428831259356897
-0.8223403135882776,-2.5178778807269495,-1.4399297873126429,-0.7136786619769495,-1.596419636403219,-3.1428354422198694
-0.8223884741412562,-2.5178540388690394,-1.4398940245257776,-0.7136786619769495,-1.5963957945453089,-3.1429069677936
-0.8223884741412562,-2.5178540388690394,-1.4398821035968226,-0.7136548201190394,-1.5964315573321741,-3.1428831259356897
-0.8223884741412562,-2.5178659597979944,-1.4398701826678675,-0.7136548201190394,-1.5964315573321741,-3.142895046864645
-0.8223765532123011,-2.5178778807269495,-1.4398821035968226,-0.7136667410479944,-1.5964315573321741,-3.1429069677936
-0.8223884741412562,-2.517830197011129,-1.4398940245257776,-0.713714901600973,-1.596419636403219,-3.1428595224963587
-0.8224003950702112,-2.5178540388690394,-1.4398701826678675,-0.7136667410479944,-1.596419636403219,-3.1428595224963587
-0.822364632283346,-2.5178540388690394,-1.4398940245257776,-0.7136428991900843,-1.5964315573321741,-3.1428595224963587
-0.8224003950702112,-2.5178659597979944,-1.4398701826678675,-0.7136428991900843,-1.5964434782611292,-3.1428831259356897
-0.8224123159991663,-2.5178540388690394,-1.4398577849017542,-0.7136667410479944,-1.5964434782611292,-3.1428831259356897
-0.8223527113543909,-2.5178540388690394,-1.4399178663836878,-0.7136428991900843,-1.5964434782611292,-3.1428595224963587
-0.8224003950702112,-2.5178659597979944,-1.4398577849017542,-0.7136190573321741,-1.5963957945453089,-3.1428831259356897
-0.8223884741412562,-2.5178540388690394,-1.4398940245257776,-0.7136905829059046,-1.5964673201190394,-3.1429069677936
-0.8223527113543909,-2.5178421179400843,-1.4399178663836878,-0.7136548201190394,-1.596407715474264,-3.1428831259356897
-0.8223765532123011,-2.5178659597979944,-1.4398940245257776,-0.7136548201190394,-1.596407715474264,-3.142895046864645
-0.8223765532123011,-2.5178540388690394,-1.4398701826678675,-0.7136548201190394,-1.5964315573321741,-3.1428595224963587
-0.8223884741412562,-2.517830197011129,-1.4398577849017542,-0.7136905829059046,-1.5964315573321741,-3.142895046864645
-0.8224003950702112,-2.5178540388690394,-1.4399178663836878,-0.7136548201190394,-1.596407715474264,-3.142895046864645
-0.8224123159991663,-2.5178540388690394,-1.4398940245257776,-0.7136548201190394,-1.596419636403219,-3.1428831259356897
-0.8224123159991663,-2.5178778807269495,-1.4399059454547327,-0.7136548201190394,-1.5964315573321741,-3.142919127141134
-0.8224242369281214,-2.517818276082174,-1.4399297873126429,-0.7136428991900843,-1.5964315573321741,-3.1428831259356897
-0.8223765532123011,-2.5178421179400843,-1.4398940245257776,-0.7136548201190394,-1.5964315573321741,-3.1429069677936
-0.8224003950702112,-2.5178659597979944,-1.4398940245257776,-0.7136786619769495,-1.5964315573321741,-3.1428712050067347
-0.8224123159991663,-2.5178659597979944,-1.4399059454547327,-0.7136548201190394,-1.596407715474264,-3.1428712050067347
-0.8223765532123011,-2.5178898016559046,-1.4398821035968226,-0.7136667410479944,-1.5964315573321741,-3.142919127141134
-0.8224123159991663,-2.517830197011129,-1.4398940245257776,-0.7137025038348597,-1.5964315573321741,-3.1428712050067347
-0.8223765532123011,-2.5178421179400843,-1.4399059454547327,-0.7136786619769495,-1.596419636403219,-3.1428712050067347
-0.8223527113543909,-2.5178898016559046,-1.4398821035968226,-0.7136905829059046,-1.5964315573321741,-3.142895046864645
-0.822364632283346,-2.517830197011129,-1.4398940245257776,-0.7136548201190394,-1.596407715474264,-3.142919127141134
-0.822364632283346,-2.5178659597979944,-1.4398940245257776,-0.7136428991900843,-1.596419636403219,-3.142895046864645
-0.8223765532123011,-2.5178659597979944,-1.4399059454547327,-0.7136428991900843,-1.596419636403219,-3.142919127141134
-0.8224242369281214,-2.5178778807269495,-1.4398940245257776,-0.7136786619769495,-1.5964553991900843,-3.142895046864645
-0.8224123159991663,-2.5178540388690394,-1.4398940245257776,-0.7136428991900843,-1.5964797178851526,-3.1429069677936
-0.8224003950702112,-2.5178659597979944,-1.4398701826678675,-0.7136548201190394,-1.5964797178851526,-3.1429069677936
-0.8224003950702112,-2.5178778807269495,-1.4399178663836878,-0.7136548201190394,-1.5964673201190394,-3.142895046864645
-0.8224003950702112,-2.517818276082174,-1.4399297873126429,-0.7136428991900843,-1.5964315573321741,-3.1428595224963587
-0.8223765532123011,-2.5178659597979944,-1.4398701826678675,-0.7136786619769495,-1.5964434782611292,-3.1429069677936
-0.8224003950702112,-2.5178540388690394,-1.4398821035968226,-0.7136786619769495,-1.596419636403219,-3.1428595224963587
-0.822364632283346,-2.5178898016559046,-1.4398940245257776,-0.7136786619769495,-1.596407715474264,-3.1428831259356897
-0.8224123159991663,-2.5178540388690394,-1.4398577849017542,-0.7136667410479944,-1.5964434782611292,-3.142919127141134
-0.8224003950702112,-2.5178778807269495,-1.4398577849017542,-0.7136667410479944,-1.596419636403219,-3.1428831259356897
-0.8223884741412562,-2.5179017225848597,-1.4398821035968226,-0.7136548201190394,-1.5964434782611292,-3.1428712050067347
-0.8224003950702112,-2.5178659597979944,-1.4398701826678675,-0.7136905829059046,-1.5964553991900843,-3.142931048070089
-0.8223884741412562,-2.5178540388690394,-1.4399541060077112,-0.7136667410479944,-1.596419636403219,-3.1428712050067347
-0.822364632283346,-2.517830197011129,-1.4398940245257776,-0.7136428991900843,-1.5964315573321741,-3.1429069677936
-0.8223765532123011,-2.5178540388690394,-1.4398940245257776,-0.7136667410479944,-1.5964315573321741,-3.1429069677936
-0.8223884741412562,-2.5178778807269495,-1.4398940245257776,-0.7136786619769495,-1.5964315573321741,-3.1428595224963587
-0.8223884741412562,-2.5178659597979944,-1.4399059454547327,-0.7136548201190394,-1.596419636403219,-3.1429069677936
-0.8224003950702112,-2.5178659597979944,-1.4398940245257776,-0.7136667410479944,-1.5964673201190394,-3.142931048070089
-0.822364632283346,-2.517818276082174,-1.4398821035968226,-0.7136548201190394,-1.5964315573321741,-3.142895046864645
-0.8223765532123011,-2.5178421179400843,-1.4398821035968226,-0.7136667410479944,-1.596419636403219,-3.142895046864645
-0.8223765532123011,-2.5178778807269495,-1.4398577849017542,-0.7136548201190394,-1.596407715474264,-3.142895046864645
-0.8224003950702112,-2.5178778807269495,-1.4398701826678675,-0.7136667410479944,-1.5964434782611292,-3.142895046864645
-0.8223765532123011,-2.5178659597979944,-1.4398940245257776,-0.7136548201190394,-1.5964315573321741,-3.142919127141134
-0.8224003950702112,-2.5178540388690394,-1.4398821035968226,-0.7136548201190394,-1.5964797178851526,-3.1428831259356897
-0.8224003950702112,-2.5178659597979944,-1.4398821035968226,-0.7136548201190394,-1.5964315573321741,-3.1429069677936
-0.822364632283346,-2.5178421179400843,-1.4399178663836878,-0.7136548201190394,-1.5964315573321741,-3.1428831259356897
-0.8223765532123011,-2.5178778807269495,-1.4398821035968226,-0.7136309782611292,-1.596419636403219,-3.142895046864645
-0.8223765532123011,-2.5178421179400843,-1.4399059454547327,-0.7136428991900843,-1.5964315573321741,-3.142895046864645
-0.8224003950702112,-2.5178540388690394,-1.4399059454547327,-0.7136667410479944,-1.5964673201190394,-3.1428712050067347
-0.8223765532123011,-2.5178540388690394,-1.4399059454547327,-0.7136309782611292,-1.5964434782611292,-3.1429069677936
-0.8224003950702112,-2.5178540388690394,-1.4398821035968226,-0.7136548201190394,-1.5963714758502405,-3.1429069677936
-0.8223403135882776,-2.5178540388690394,-1.4398577849017542,-0.7136428991900843,-1.596419636403219,-3.1428712050067347
-0.8223884741412562,-2.5178421179400843,-1.4398940245257776,-0.7136548201190394,-1.5964315573321741,-3.142895046864645
-0.8224123159991663,-2.5178540388690394,-1.4398701826678675,-0.7136548201190394,-1.5964673201190394,-3.1429069677936
-0.8224003950702112,-2.5178540388690394,-1.4399059454547327,-0.7136786619769495,-1.5964315573321741,-3.1428595224963587
-0.8224003950702112,-2.5178778807269495,-1.4398940245257776,-0.7136786619769495,-1.596419636403219,-3.142895046864645
-0.8223884741412562,-2.5178421179400843,-1.4398821035968226,-0.7136548201190394,-1.5964315573321741,-3.142895046864645
-0.8223765532123011,-2.5178778807269495,-1.4398821035968226,-0.7136309782611292,-1.5963957945453089,-3.142895046864645
-0.8223884741412562,-2.5178659597979944,-1.4398940245257776,-0.7136548201190394,-1.596419636403219,-3.142919127141134
-0.8224123159991663,-2.517830197011129,-1.4398821035968226,-0.7136667410479944,-1.596407715474264,-3.142895046864645
-0.8223884741412562,-2.5178540388690394,-1.4398701826678675,-0.7136309782611292,-1.596419636403219,-3.142895046864645
-0.8223765532123011,-2.5178659597979944,-1.4398940245257776,-0.7136428991900843,-1.5964673201190394,-3.1428831259356897
-0.8223527113543909,-2.5178540388690394,-1.4399059454547327,-0.7136548201190394,-1.596419636403219,-3.1429069677936
-0.8224242369281214,-2.517830197011129,-1.4398701826678675,-0.7136667410479944,-1.5964315573321741,-3.1428595224963587
-0.822364632283346,-2.5178778807269495,-1.4398940245257776,-0.7136548201190394,-1.5964315573321741,-3.1428831259356897
-0.8224123159991663,-2.5178778807269495,-1.4398940245257776,-0.7136667410479944,-1.5964553991900843,-3.1428831259356897
-0.8223403135882776,-2.5178421179400843,-1.4398577849017542,-0.7136548201190394,-1.5964315573321741,-3.142895046864645
-0.8223765532123011,-2.5178898016559046,-1.4398821035968226,-0.7136905829059046,-1.5964434782611292,-3.142895046864645
-0.8223765532123011,-2.5178778807269495,-1.4398940245257776,-0.7136190573321741,-1.5964673201190394,-3.1428712050067347
-0.8224003950702112,-2.5178659597979944,-1.4398821035968226,-0.7136548201190394,-1.596419636403219,-3.1428476015674036
-0.8223765532123011,-2.5178540388690394,-1.4398701826678675,-0.7136667410479944,-1.5964315573321741,-3.1428712050067347
-0.8224003950702112,-2.5178540388690394,-1.4399059454547327,-0.7136786619769495,-1.596407715474264,-3.1429069677936
-0.822364632283346,-2.5178659597979944,-1.4398577849017542,-0.7136548201190394,-1.5964434782611292,-3.1428712050067347
-0.8223765532123011,-2.5178421179400843,-1.4399297873126429,-0.7136667410479944,-1.5964315573321741,-3.1428831259356897
-0.8224003950702112,-2.5178659597979944,-1.4398940245257776,-0.7136667410479944,-1.596419636403219,-3.142919127141134
-0.8223884741412562,-2.5178540388690394,-1.4399059454547327,-0.7136309782611292,-1.5964434782611292,-3.1429069677936
-0.8224123159991663,-2.5178540388690394,-1.4398940245257776,-0.7136667410479944,-1.5964315573321741,-3.1428831259356897
-0.8224003950702112,-2.517830197011129,-1.4399178663836878,-0.7136548201190394,-1.596419636403219,-3.142919127141134
-0.8223527113543909,-2.5178421179400843,-1.4398701826678675,-0.7136428991900843,-1.5964673201190394,-3.1428831259356897
-0.8223884741412562,-2.5178540388690394,-1.4399059454547327,-0.7136548201190394,-1.596419636403219,-3.142895046864645
-0.8224003950702112,-2.5178540388690394,-1.4398701826678675,-0.7136309782611292,-1.596419636403219,-3.1429069677936
-0.8223765532123011,-2.5178540388690394,-1.4398577849017542,-0.7136786619769495,-1.5964434782611292,-3.1428712050067347
-0.822364632283346,-2.517830197011129,-1.4399297873126429,-0.7136428991900843,-1.5964315573321741,-3.1428595224963587
-0.8223884741412562,-2.5178659597979944,-1.4398940245257776,-0.7136428991900843,-1.5964434782611292,-3.1428712050067347
-0.8224003950702112,-2.5178421179400843,-1.4398821035968226,-0.713607136403219,-1.5964434782611292,-3.1428712050067347
-0.8223884741412562,-2.5178540388690394,-1.4398821035968226,-0.7136309782611292,-1.5964315573321741,-3.1428831259356897
-0.8223884741412562,-2.5178778807269495,-1.4399178663836878,-0.7136667410479944,-1.5963838736163538,-3.142895046864645
-0.822364632283346,-2.5178540388690394,-1.439833943043844,-0.7136667410479944,-1.5964553991900843,-3.142895046864645
-0.822364632283346,-2.5178778807269495,-1.4398701826678675,-0.7136428991900843,-1.5964315573321741,-3.142895046864645
-0.822364632283346,-2.5178778807269495,-1.4399178663836878,-0.7136548201190394,-1.596407715474264,-3.142895046864645
-0.822364632283346,-2.5178540388690394,-1.4398821035968226,-0.7136667410479944,-1.5964434782611292,-3.142895046864645
-0.8223765532123011,-2.5178421179400843,-1.4398940245257776,-0.7136667410479944,-1.5964553991900843,-3.142919127141134
-0.8223884741412562,-2.5179017225848597,-1.4399059454547327,-0.7136548201190394,-1.5964434782611292,-3.1428831259356897
-0.8224003950702112,-2.5178659597979944,-1.4399059454547327,-0.7136548201190394,-1.596419636403219,-3.1428831259356897
-0.822364632283346,-2.5178540388690394,-1.4398940245257776,-0.713714901600973,-1.5964315573321741,-3.1428712050067347
-0.8223765532123011,-2.5178421179400843,-1.4398940245257776,-0.7136667410479944,-1.596407715474264,-3.142895046864645
-0.8223765532123011,-2.5178540388690394,-1.4398940245257776,-0.7136667410479944,-1.596419636403219,-3.142895046864645
-0.8224123159991663,-2.5178421179400843,-1.4398940245257776,-0.7136786619769495,-1.596419636403219,-3.142895046864645
-0.8224003950702112,-2.5178778807269495,-1.4398577849017542,-0.7136428991900843,-1.5964434782611292,-3.142895046864645
-0.8223527113543909,-2.5178540388690394,-1.4398701826678675,-0.7136309782611292,-1.5964315573321741,-3.1428831259356897
-0.8224123159991663,-2.5178421179400843,-1.4398463408099573,-0.7136309782611292,-1.5963957945453089,-3.1429069677936
-0.8223884741412562,-2.5178540388690394,-1.4399178663836878,-0.7136548201190394,-1.5964434782611292,-3.1428831259356897
-0.8224003950702112,-2.5178421179400843,-1.4398701826678675,-0.7136667410479944,-1.5964434782611292,-3.1428595224963587
-0.8223765532123011,-2.5178778807269495,-1.4398821035968226,-0.7136667410479944,-1.5964315573321741,-3.142895046864645
-0.822364632283346,-2.5178540388690394,-1.4399059454547327,-0.7136786619769495,-1.596419636403219,-3.1428712050067347
-0.822364632283346,-2.5178778807269495,-1.4398940245257776,-0.7136428991900843,-1.596419636403219,-3.1428235212909144
-0.822364632283346,-2.5178778807269495,-1.4399059454547327,-0.7136786619769495,-1.5964315573321741,-3.1428831259356897
-0.8223765532123011,-2.5178540388690394,-1.4399297873126429,-0.7136428991900843,-1.596407715474264,-3.1428831259356897
-0.8223884741412562,-2.5178659597979944,-1.4399297873126429,-0.7136667410479944,-1.5964434782611292,-3.1428831259356897
-0.822364632283346,-2.5178778807269495,-1.4398940245257776,-0.7136309782611292,-1.5964673201190394,-3.1428712050067347
-0.8223403135882776,-2.5178778807269495,-1.4398940245257776,-0.7136548201190394,-1.5964434782611292,-3.142895046864645
-0.8224003950702112,-2.5178540388690394,-1.4398821035968226,-0.7136548201190394,-1.5964434782611292,-3.1428712050067347
-0.8223765532123011,-2.5178540388690394,-1.4398821035968226,-0.7136786619769495,-1.596419636403219,-3.1428712050067347
-0.8224003950702112,-2.5178778807269495,-1.4398701826678675,-0.7136548201190394,-1.5963957945453089,-3.1428712050067347
-0.822364632283346,-2.5178540388690394,-1.4399059454547327,-0.7136548201190394,-1.5964315573321741,-3.1428476015674036
-0.8223527113543909,-2.5178421179400843,-1.4399059454547327,-0.7136309782611292,-1.5963957945453089,-3.1428831259356897
-0.8223765532123011,-2.5178659597979944,-1.4398821035968226,-0.7136667410479944,-1.5964315573321741,-3.1429069677936
-0.8224003950702112,-2.5178540388690394,-1.4398577849017542,-0.7136667410479944,-1.5963957945453089,-3.1428712050067347
-0.8223765532123011,-2.5178778807269495,-1.4398940245257776,-0.7136667410479944,-1.5964553991900843,-3.1428595224963587
-0.8224003950702112,-2.5178540388690394,-1.4399059454547327,-0.7136667410479944,-1.596419636403219,-3.1428831259356897
-0.8223765532123011,-2.517818276082174,-1.4398821035968226,-0.7136667410479944,-1.5964315573321741,-3.142895046864645
-0.8224242369281214,-2.5178540388690394,-1.4398940245257776,-0.7136667410479944,-1.5964673201190394,-3.1428831259356897
-0.822364632283346,-2.5178540388690394,-1.4398940245257776,-0.7136786619769495,-1.5964315573321741,-3.1428712050067347
-0.8223527113543909,-2.5178659597979944,-1.4398701826678675,-0.7136786619769495,-1.5964315573321741,-3.1428831259356897
-0.8224003950702112,-2.5178421179400843,-1.4399059454547327,-0.7136786619769495,-1.5964434782611292,-3.1428831259356897
-0.8223765532123011,-2.517830197011129,-1.4398701826678675,-0.7136548201190394,-1.5964315573321741,-3.142895046864645
-0.8223884741412562,-2.5178540388690394,-1.4399059454547327,-0.7136548201190394,-1.5964315573321741,-3.1428831259356897
-0.8223403135882776,-2.5178540388690394,-1.4399059454547327,-0.7136548201190394,-1.5964673201190394,-3.1429069677936
-0.8223884741412562,-2.5178540388690394,-1.4398940245257776,-0.7136786619769495,-1.5964553991900843,-3.1428831259356897
-0.8224003950702112,-2.5178540388690394,-1.4398821035968226,-0.7136667410479944,-1.596419636403219,-3.1428712050067347
-0.8223765532123011,-2.5178540388690394,-1.439833943043844,-0.7136905829059046,-1.596419636403219,-3.1428595224963587
-0.8224003950702112,-2.5178659597979944,-1.4398577849017542,-0.7136428991900843,-1.596407715474264,-3.1428831259356897
-0.8223765532123011,-2.5178778807269495,-1.4398940245257776,-0.7136428991900843,-1.596419636403219,-3.142931048070089
-0.8224123159991663,-2.5178659597979944,-1.4398940245257776,-0.7136667410479944,-1.5964315573321741,-3.1428712050067347
-0.8223403135882776,-2.5178659597979944,-1.4398821035968226,-0.7136548201190394,-1.5964553991900843,-3.1428712050067347
-0.8223765532123011,-2.5178540388690394,-1.4398940245257776,-0.7136428991900843,-1.5964315573321741,-3.1428712050067347
-0.8223765532123011,-2.5178540388690394,-1.4399178663836878,-0.7136786619769495,-1.596419636403219,-3.142919127141134
-0.8223884741412562,-2.5178659597979944,-1.4398701826678675,-0.7136667410479944,-1.5964797178851526,-3.142919127141134
-0.8223765532123011,-2.5178778807269495,-1.4399059454547327,-0.7136548201190394,-1.5964434782611292,-3.1429069677936
-0.8223045508014124,-2.5178540388690394,-1.4398821035968226,-0.7136667410479944,-1.5964315573321741,-3.142895046864645
-0.8221729437457483,-2.5178659597979944,-1.4398821035968226,-0.7136548201190394,-1.5964315573321741,-3.143062416707174
-0.8220890204059046,-2.5178778807269495,-1.4398821035968226,-0.7136667410479944,-1.5964315573321741,-3.143134419118063
-0.8219450155841272,-2.517818276082174,-1.4398821035968226,-0.7136548201190394,-1.5964315573321741,-3.143290106450216
-0.8218491713153284,-2.5178540388690394,-1.4398821035968226,-0.7136548201190394,-1.596407715474264,-3.143397633229391
-0.8214901129352015,-2.517818276082174,-1.4399898687945765,-0.7135828177081507,-1.5964434782611292,-3.143637482319967
-0.8212502638446253,-2.517806355153219,-1.4400017897235315,-0.7135470549212855,-1.5964434782611292,-3.14384109178652
-0.8210466543780726,-2.5177581946002405,-1.4400017897235315,-0.7135589758502405,-1.5964434782611292,-3.1440325419055384
-0.8207586447345179,-2.5177343527423304,-1.4400256315814417,-0.7135351339923304,-1.5964553991900843,-3.14430815378298
-0.82019550005068,-2.51771051088442,-1.4402058760272425,-0.7135351339923304,-1.5964434782611292,-3.1449549833880823
-0.8198841253863733,-2.5176623503314417,-1.440242115651266,-0.7134512106524866,-1.5964673201190394,-3.1453381220446985
-0.8195727507220667,-2.5176265875445765,-1.4403260389911097,-0.7134268919574183,-1.5965035597430628,-3.1456852594958704
-0.8192489782916468,-2.5176027456866663,-1.4404099623309534,-0.713391129170553,-1.5964673201190394,-3.1460207144366663
-0.818481747304098,-2.517566506062643,-1.4405658880816858,-0.713379208241598,-1.5964797178851526,-3.146798912678854
-0.8180864492999476,-2.5175188223468226,-1.440697971974508,-0.7133191267596644,-1.596551243458883,-3.1472299734698694
-0.8176792303668421,-2.517482582722799,-1.440793816243307,-0.7133310476886194,-1.5965755621539515,-3.147541586552755
-0.8172715345965784,-2.517482582722799,-1.4408181349383753,-0.7132952849017542,-1.596527401600973,-3.14799672762026
-0.8164570967303675,-2.5173986593829554,-1.4409974257098597,-0.7131508032428187,-1.596539322529928,-3.148787323628561
-0.8160017172442835,-2.51736289659609,-1.441141430531637,-0.7131508032428187,-1.5965874830829065,-3.149158302937643
-0.8155577818499964,-2.517350975667135,-1.4412496725665491,-0.7130907217608851,-1.5965994040118616,-3.1495655218707483
-0.8151028792010706,-2.5173028151141565,-1.4413097540484827,-0.7130067984210413,-1.5966113249408167,-3.1499725023852747
-0.8141678015338343,-2.517230812703268,-1.4415496031390589,-0.7129710356341761,-1.5967310110675257,-3.1508589426623743
-0.8137367407428187,-2.5171592871295374,-1.4416454474078577,-0.712959114705221,-1.5966594854937952,-3.1512540022479456
-0.8132689634906214,-2.517123047505514,-1.4417417685138147,-0.7128389517413538,-1.596755329762594,-3.151745144520895
-0.8127778212176722,-2.517111126576559,-1.4418614546405237,-0.7128270308123987,-1.5967672506915491,-3.1521762053119105
-0.8119271437274378,-2.517003361378805,-1.4420774618731897,-0.7127674261676233,-1.5968030134784144,-3.153050247822897
-0.8114841620074671,-2.5169437567340296,-1.4421613852130335,-0.7127192656146448,-1.5967910925494593,-3.153529230748312
-0.8110283056842249,-2.516883675252096,-1.4423177878009241,-0.7126715818988245,-1.5967672506915491,-3.1539602915393274
-0.8105371634112757,-2.5168359915362757,-1.442413632069723,-0.7126715818988245,-1.5968988577472132,-3.154391352330343
-0.8096264044391077,-2.516763989125387,-1.4425933996783655,-0.7125275770770472,-1.596886936818258,-3.155337397252218
-0.8092311064349573,-2.5167039076434534,-1.4427374045001429,-0.7125514189349573,-1.597006622944967,-3.155780855809347
-0.808716122304098,-2.5167039076434534,-1.4428451696978968,-0.7125514189349573,-1.596886936818258,-3.1561997572528284
-0.8082364241229456,-2.516632382069723,-1.4430254141436976,-0.7124555746661585,-1.596994702016012,-3.1567028204547327
-0.8072178999530237,-2.5165122191058558,-1.443193260823385,-0.7124317328082483,-1.5969107786761683,-3.1577206293689173
-0.8067024389850062,-2.5165002981769007,-1.4433491865741175,-0.7123959700213831,-1.597102467213766,-3.158163849507467
-0.8062117735492151,-2.516428295766012,-1.4434331099139612,-0.7122996489154261,-1.597102467213766,-3.158642832432882
-0.8057077566729944,-2.516428295766012,-1.4435532728778284,-0.7122157255755823,-1.5970190207110804,-3.1591816584216517
-0.804605786000387,-2.516296688710348,-1.4437812010394495,-0.7121799627887171,-1.5970667044269007,-3.1602354685412806
-0.8040545622455042,-2.516308609639303,-1.4439008871661585,-0.712048355733053,-1.5971387068377894,-3.160738770161764
-0.8034914175616663,-2.5161646048175257,-1.4440572897540491,-0.7120602766620081,-1.597210709248678,-3.161349360142843
-0.8029521147357386,-2.5161526838885706,-1.4442132155047815,-0.7120960394488733,-1.5971148649798792,-3.1618881861316126
-0.8017657438861292,-2.5159972349749964,-1.4444168249713343,-0.7119038740741175,-1.597198788319723,-3.162977997456686
-0.8012383619891565,-2.515972916279928,-1.4445250670062464,-0.7119157950030726,-1.597198788319723,-3.163576904927389
-0.80060321489443,-2.5159013907061976,-1.4446690718280237,-0.7118199507342737,-1.597330395375387,-3.1641278902636927
-0.800028149281637,-2.515841309224264,-1.4448249975787562,-0.71173602739443,-1.5972345511065882,-3.164666239415304
-0.7987940947162073,-2.51573354402651,-1.4450529257403772,-0.7116521040545862,-1.5974262396441858,-3.1658878962146204
-0.798194710408346,-2.5156615416156214,-1.445221249257223,-0.7115324179278772,-1.5972703138934534,-3.166522804890768
-0.7975118795977991,-2.5156496206866663,-1.4453166166888636,-0.7115681807147425,-1.597462002431051,-3.1671574751483362
-0.7968886534320276,-2.5155418554889124,-1.4454968611346644,-0.7115085760699671,-1.597438160573141,-3.1678038279162806
-0.795534912739889,-2.51540977159609,-1.445772949849264,-0.7112925688373011,-1.5975702444659632,-3.1691814104663294
-0.7948153654681605,-2.5153377691852015,-1.4459527174579065,-0.711280647908346,-1.597462002431051,-3.1699000040637415
-0.7941206137286585,-2.515290085469381,-1.4460604826556605,-0.7110765616046351,-1.5975220839129847,-3.1705942789660853
-0.7933414618121546,-2.5151823202716272,-1.4462288061725062,-0.7111247221576136,-1.597666088734762,-3.1713250319110315
-0.7918079535113733,-2.5150745550738733,-1.4465888182269495,-0.710944954548971,-1.5976899305926722,-3.1728339830981653
-0.7909930388080042,-2.514918629323141,-1.4467204252826136,-0.7108967939959925,-1.5977500120746058,-3.173636500035421
-0.7901900450335901,-2.5148590246783655,-1.4469965139972132,-0.7107890287982386,-1.5977018515216272,-3.174450699483053
-0.7893393675433558,-2.514798943196432,-1.4471162001239222,-0.7107651869403284,-1.59790546098818,-3.175253216420309
-0.7875421682940882,-2.5145958105670374,-1.4475486914264124,-0.7106087843524378,-1.5979536215411585,-3.177049700413839
-0.7866433302508753,-2.5144875685321253,-1.4476922194110315,-0.7106087843524378,-1.5979417006122034,-3.1779118219958704
-0.7856491247760218,-2.514439884816305,-1.447944466267721,-0.7105491797076624,-1.5980494658099573,-3.1787856260882776
-0.7846902052508753,-2.514332119618551,-1.4481123129474085,-0.7104051748858851,-1.598133389149801,-3.1797080675708216
-0.782689396535055,-2.5141881147967737,-1.4485800901996058,-0.7103450934039515,-1.5983012358294886,-3.181648079548971
-0.7817662397967737,-2.5140565077411097,-1.4487603346454065,-0.710273567830221,-1.5981810728656214,-3.182606045399801
-0.7807834784137171,-2.513984505330221,-1.4489997068988245,-0.7102492491351526,-1.5983970800982874,-3.1836238543139856
-0.7797530333148401,-2.513888661061422,-1.4492524305926722,-0.7101176420794886,-1.5983732382403772,-3.1845701376544397
-0.7777164618121546,-2.5137088934527796,-1.449695889149801,-0.7100938002215784,-1.598588768635885,-3.1866419951068323
-0.7767093817340296,-2.513624970112936,-1.4499600569354456,-0.7098897139178675,-1.5985048452960413,-3.187660042439596
-0.7756913344012659,-2.513529125844137,-1.4501164595233362,-0.7098777929889124,-1.5986846129046839,-3.1887016932116907
-0.7747085730182093,-2.513421360646383,-1.4504035154925745,-0.7097461859332483,-1.5987203756915491,-3.1897316614734095
-0.7726114431964319,-2.5132773558246058,-1.4509199301349085,-0.709517780934469,-1.5988410154925745,-3.191815439854757
-0.7715328375445765,-2.513157669697897,-1.4511235396014612,-0.7093141714679163,-1.5987566153155726,-3.192833487187521
-0.7705147902118128,-2.513073746358053,-1.4513395468341272,-0.7092903296100062,-1.5988767782794397,-3.193935219441549
-0.7694361845599573,-2.512953583394186,-1.4515917936908167,-0.7090867201434534,-1.59890062013735,-3.194893185292379
-0.7673991362201136,-2.5127862135516565,-1.4520114103900355,-0.708954159413473,-1.5990803877459925,-3.1969414393054407
-0.7663925329791468,-2.512702290211813,-1.4522512594806116,-0.708846394215719,-1.5989964644061487,-3.197911326085226
-0.7653263250934046,-2.512630287800924,-1.4525273481952112,-0.7087867895709437,-1.5991643110858362,-3.199012819920675
-0.7642477194415491,-2.51252252260317,-1.452707592641012,-0.7086189428912562,-1.5991523901568812,-3.199946705495016
-0.7620671431170862,-2.512343231831686,-1.4532111326800745,-0.7085230986224573,-1.5994160811053675,-3.202090326939718
-0.7609766165362757,-2.512247387562887,-1.4534390608416956,-0.7084630171405237,-1.5992963949786585,-3.203120295201437
-0.7598741690265101,-2.512115780507223,-1.45367938676943,-0.7083671728717249,-1.5995000044452112,-3.204222027455465
-0.7588074843036097,-2.512019936238424,-1.453918759022848,-0.7082112471209925,-1.5994518438922327,-3.2051923910724085
-0.7566507498370569,-2.5118640104876917,-1.4544346968280237,-0.7080071608172815,-1.59959584871401,-3.2073476950274866
-0.7555244604693812,-2.511756245289938,-1.454663101826803,-0.7079833189593714,-1.5995596090899866,-3.2084859053241175
-0.7543862501727503,-2.511684242879049,-1.4548910299884241,-0.7078636328326624,-1.5997875372516077,-3.2095633188830774
-0.7532957235919397,-2.5116122404681605,-1.455214802418844,-0.7076595465289515,-1.5997393766986292,-3.2106412092791956
-0.7509473005877894,-2.511360470448629,-1.4556706587420862,-0.7074440161334437,-1.599931542073385,-3.212928597127096
-0.7497852484332483,-2.511205021535055,-1.4559829870807093,-0.7074440161334437,-1.5998595396624964,-3.214006487523214
-0.7486103216754358,-2.5110729376422327,-1.456198517476217,-0.7073119322406214,-1.6000869909869593,-3.215156141911642
-0.7474363485919397,-2.510977093373434,-1.4564746061908167,-0.7072642485248011,-1.6000154654132288,-3.216317955647604
-0.7450521628009241,-2.510761562977926,-1.457026783620016,-0.7069881598102015,-1.6002190748797815,-3.218605343495504
-0.7437937895404261,-2.510629479085104,-1.4573262373553675,-0.7069404760943812,-1.6000869909869593,-3.2198148409472864
-0.7425597349749964,-2.510533634816305,-1.4575308004962366,-0.7067959944354456,-1.6002190748797815,-3.220964495335714
-0.7413376013385218,-2.510425869618551,-1.4578660170184534,-0.7067959944354456,-1.6003149191485804,-3.2221620718585413
-0.7387974897967737,-2.510186497365133,-1.4583824316607874,-0.706604305897848,-1.6003387610064905,-3.2246533075915735
-0.7375152746783655,-2.510078732167379,-1.4586461226092737,-0.7065203825580042,-1.6003988424884241,-3.2259464899646204
-0.7361372152911585,-2.5099108854876917,-1.4589698950396937,-0.7063167730914515,-1.6003268400775355,-3.22718054453005
-0.7348187605487269,-2.5097911993609827,-1.4592459837542933,-0.7062810103045862,-1.6004827658282679,-3.2284980455981653
-0.7321470419513147,-2.5095518271075647,-1.4598339239703577,-0.7060650030719202,-1.600518528615133,-3.2310848871814173
-0.7308529059039515,-2.5094321409808558,-1.4600737730609339,-0.705825153981344,-1.600626293812887,-3.2323899904834192
-0.7295225302325647,-2.5093358198748987,-1.4603379408465784,-0.7057769934283655,-1.6005666891681116,-3.233743492756979
-0.7282169500934046,-2.5091922918902796,-1.4605897108661097,-0.7055733839618128,-1.6007221380816858,-3.235084597264425
-0.7256405989276331,-2.5089286009417933,-1.4611895720111292,-0.7053816954242151,-1.6007464567767542,-3.2376115957843226
-0.7243107000934046,-2.5088208357440394,-1.4614775816546839,-0.7051900068866175,-1.6009858290301722,-3.238976780568258
-0.722968880330221,-2.508652989064352,-1.461801830922262,-0.7051299254046839,-1.600961987172262,-3.240234438573019
-0.7216385046588343,-2.508557144795553,-1.4620536009417933,-0.7049382368670862,-1.6010220686541956,-3.2414918581592005
-0.7190144697772425,-2.5082696119891565,-1.462677303944723,-0.7047098318683069,-1.6012018362628382,-3.2440066973315638
-0.7177446524249476,-2.5081737677203577,-1.462905232106344,-0.7046855131732386,-1.6013696829425257,-3.2452643553363245
-0.7164862791644495,-2.508066002522604,-1.4632170836078089,-0.7045419851886194,-1.6013334433185022,-3.246533457432882
-0.7152159849749964,-2.507946316395895,-1.4634574095355433,-0.7044099012957972,-1.6015012899981897,-3.2477672735797327
-0.7126882711993616,-2.5077064673053187,-1.464008633290426,-0.704146687184469,-1.6016691366778772,-3.250294033681051
-0.7114060560809534,-2.5075629393206995,-1.464309040700094,-0.7040384451495569,-1.6015613714801233,-3.251551691685812
-0.7101481596576136,-2.507502857838766,-1.4645727316485804,-0.7038829962359827,-1.6017168203936976,-3.252749268208639
-0.7088897863971155,-2.5073469320880335,-1.464860741292135,-0.7038710753070276,-1.6017287413226526,-3.25403076807131
-0.706421200429098,-2.5071433226214808,-1.465388600026266,-0.7036550680743616,-1.601957146321432,-3.2564621607409876
-0.7052353064166468,-2.507023636494772,-1.4657004515277308,-0.703583065663473,-1.6019333044635218,-3.257695738469259
-0.7039769331561487,-2.506939713154928,-1.4659283796893519,-0.7034271399127405,-1.6021369139300745,-3.2588334719287317
-0.702742878590719,-2.5068562666522425,-1.466240708027975,-0.7034509817706507,-1.602076832448141,-3.26005465189089
-0.7002862135516565,-2.5066164175616663,-1.4667447249041956,-0.703247372304098,-1.6023405233966272,-3.262426201497213
-0.6990402380572718,-2.5065086523639124,-1.4670560995685022,-0.703139607106344,-1.6023762861834925,-3.2636356989489954
-0.6977823416339319,-2.5064128080951136,-1.4673202673541468,-0.7029717604266565,-1.60254413286318,-3.2648215929614466
-0.6965606848346155,-2.5062926451312464,-1.4675963560687464,-0.7029836813556116,-1.6024845282184046,-3.2660067717181605
-0.6941879431353968,-2.5060771147357386,-1.4681718985186976,-0.7027438322650355,-1.6026642958270472,-3.2683780829059046
-0.6929896513568323,-2.50600511232485,-1.468412224446432,-0.7024558226214808,-1.6025922934161585,-3.2695518175708216
-0.691803280507223,-2.505885903035299,-1.4686878363238733,-0.7024200598346155,-1.6028679052936,-3.270785156880514
-0.6905930677997034,-2.505765740071432,-1.4689520041095179,-0.7022636572467249,-1.602772061024801,-3.271958891545431
-0.6882088820086878,-2.5056102911578577,-1.4694436232196253,-0.7020481268512171,-1.6029875914203089,-3.2742705980883997
-0.6870463530169886,-2.5054782072650355,-1.4696958700763147,-0.7019284407245081,-1.60289174715151,-3.2754083315478724
-0.6858843008624476,-2.5053585211383265,-1.4699471632586878,-0.7018445173846644,-1.6031315962420862,-3.2764981428729456
-0.6847460905658167,-2.5052745977984827,-1.4702118078814905,-0.7016528288470667,-1.6030357519732874,-3.2776358763324183
-0.6824935118304651,-2.50507098833193,-1.4706795851336878,-0.7014969030963343,-1.6032751242267054,-3.2797916571246546
-0.6813791433917444,-2.5049870649920862,-1.4709675947772425,-0.7014730612384241,-1.6031912008868616,-3.2808573881732386
-0.6803010145770472,-2.5049269835101526,-1.4712079207049769,-0.701364819203512,-1.6033590475665491,-3.281959358845846
-0.6792462507831019,-2.504831139241354,-1.4714115301715296,-0.7012689749347132,-1.6033113638507288,-3.28300124803652
-0.677065674458639,-2.5045793692218226,-1.4719155470477503,-0.7010410467730921,-1.6035030523883265,-3.285013024006979
-0.676035229359762,-2.5044835249530237,-1.4721429983722132,-0.7009690443622034,-1.6033590475665491,-3.286078993474142
-0.6749571005450647,-2.50437575975527,-1.4723227659808558,-0.7008255163775843,-1.6035149733172815,-3.2870848814593714
-0.673962418233053,-2.504267994557516,-1.4725874106036585,-0.7007773558246058,-1.6035030523883265,-3.2881749312030237
-0.6719134489642542,-2.5041125456439417,-1.4730432669269007,-0.7005613485919397,-1.6036947409259241,-3.290091339741842
-0.6709311644183558,-2.5039923826800745,-1.4731867949115198,-0.7005255858050745,-1.60356313387026,-3.2910972277270716
-0.6699488798724573,-2.5038846174823206,-1.4734628836261194,-0.7003815809832972,-1.6037305037127894,-3.2921152750598353
-0.6689298788653772,-2.5037768522845667,-1.4736912886248987,-0.700357739125387,-1.6037305037127894,-3.293037239705221
-0.667037312184469,-2.5035975615130823,-1.474074665700094,-0.7000940481769007,-1.6038864294635218,-3.2949536482440394
-0.666114632283346,-2.5034897963153284,-1.474278752003805,-0.7001178900348108,-1.6038625876056116,-3.29586369196047
-0.665191952382223,-2.50344163576235,-1.4744704405414026,-0.6999738852130335,-1.6038387457477015,-3.2967260519610804
-0.664257828389303,-2.503345791493551,-1.4746750036822718,-0.6999738852130335,-1.6039822737323206,-3.2976601759540003
-0.6624839941607874,-2.5031779448138636,-1.4750707785235804,-0.6997817198382776,-1.604006592427389,-3.2994330565081995
-0.661621395741598,-2.5030821005450647,-1.4753106276141565,-0.6997817198382776,-1.6041024366961878,-3.300319019948141
-0.66071063676943,-2.503022019063131,-1.4754546324359339,-0.6997459570514124,-1.604018513356344,-3.301145378743307
-0.659884277974264,-2.5029261747943323,-1.4756940046893519,-0.6995781103717249,-1.6041982809649866,-3.301959816609518
-0.6581347624408167,-2.5028064886676233,-1.4760306517230433,-0.69959003130068,-1.6041858831988733,-3.30361253419985
-0.6572359243976038,-2.5027225653277796,-1.476222340260641,-0.6994345823871058,-1.6043179670916956,-3.3044987360583704
-0.656445328389303,-2.502638641987936,-1.4764259497271937,-0.6994345823871058,-1.6041982809649866,-3.3053012529956263
-0.6555827299701136,-2.502554718648092,-1.4766061941729944,-0.6993625799762171,-1.6043060461627405,-3.306127373372213
-0.6539652983294886,-2.502446953450338,-1.4769662062274378,-0.6991828123675745,-1.6043298880206507,-3.307732168828146
-0.6531866232501429,-2.5023511091815394,-1.4771822134601038,-0.6990268866168421,-1.6044495741473597,-3.3085346857654017
-0.6523597876178187,-2.5022552649127405,-1.4773619810687464,-0.6989672819720667,-1.6044257322894495,-3.309373203908102
-0.6514609495746058,-2.502207104359762,-1.4775779883014124,-0.6988590399371546,-1.6045096556292933,-3.3101637999164026
-0.6499035994159144,-2.502051655446188,-1.4779260794269007,-0.6986911932574671,-1.604485813771383,-3.3117685953723353
-0.6491244474994105,-2.5020154158221644,-1.4780696074115198,-0.6986077467547815,-1.6046536604510706,-3.312570873891012
-0.648358170186178,-2.5019314924823206,-1.4782374540912073,-0.6985114256488245,-1.6046293417560022,-3.3133254686938685
-0.6476152578936976,-2.501871887837545,-1.4784300963031214,-0.6985114256488245,-1.6046293417560022,-3.31409198442568
-0.6461175123797815,-2.501740280781881,-1.478729550038473,-0.6983550230609339,-1.604701344166891,-3.3155649344073694
-0.6453746000873011,-2.5016921202289026,-1.4789336363421839,-0.698366943989889,-1.6048453489886683,-3.3162477652179163
-0.6447275320636194,-2.5016682783709925,-1.4790657202350062,-0.6983073393451136,-1.604821507130758,-3.316953961049215
-0.6440566221820276,-2.5015605131732386,-1.4792216459857386,-0.6981990973102015,-1.604821507130758,-3.3175888697253626
-0.6427748839007776,-2.5015247503863733,-1.4794977347003382,-0.6982234160052698,-1.6048572699176233,-3.3188467661487024
-0.6421754995929163,-2.5014527479754847,-1.4796775023089808,-0.6981032530414026,-1.605025593434469,-3.3194456736194056
-0.6415646711932581,-2.501404587422506,-1.4797852675067347,-0.6980913321124476,-1.6049535910235804,-3.319984499608175
-0.6410129706012171,-2.5013449827777308,-1.479929272328512,-0.6980674902545374,-1.6050851980792444,-3.3205114046679896
-0.6399109999286097,-2.501249138508932,-1.4801457563983362,-0.6979234854327601,-1.6050971190081995,-3.3215532938586634
-0.6394198576556605,-2.5011895338641565,-1.4802535215960901,-0.6978758017169397,-1.605276886616842,-3.3220322767840784
-0.638916317616598,-2.501165215169088,-1.4803732077227991,-0.697911564503805,-1.605145279561178,-3.3225112597094935
-0.6384132544146937,-2.501117531453268,-1.4804452101336878,-0.6978157202350062,-1.6053250471698206,-3.323038164769308
-0.6374791304217737,-2.501045529042379,-1.4806731382953089,-0.6976960341082972,-1.6053250471698206,-3.3238168398486536
-0.6370237509356897,-2.5009854475604456,-1.4807451407061976,-0.6976359526263636,-1.6053608099566858,-3.3242598215686243
-0.6365802923785608,-2.5009735266314905,-1.4808533827411097,-0.69757587114443,-1.6053012053119105,-3.3247388044940394
-0.6361606756793421,-2.50090200105776,-1.4809373060809534,-0.6974681059466761,-1.605480972920553,-3.3251579443561
-0.635322395955221,-2.5008657614337366,-1.481117073689596,-0.6974442640887659,-1.6055648962603968,-3.3259969393359583
-0.6349147001849573,-2.5008299986468714,-1.4812372366534632,-0.6973722616778772,-1.6055048147784632,-3.326428000126974
-0.6345556418048304,-2.500793759022848,-1.4813569227801722,-0.6973841826068323,-1.6055648962603968,-3.326823059712545
-0.6341360251056116,-2.5007341543780726,-1.4813931624041956,-0.6973484198199671,-1.6056607405291956,-3.3271945158587855
-0.6333449522601526,-2.500685993825094,-1.4815967718707483,-0.6972878615008753,-1.6056845823871058,-3.3280447165118616
-0.6329382101642054,-2.5006139914142054,-1.4817169348346155,-0.6972282568560999,-1.6055768171893519,-3.328463617955343
-0.6325305143939417,-2.500542465840475,-1.4818251768695276,-0.697120491658346,-1.605732266102926,-3.3288353125201624
-0.6321352163897913,-2.5005300680743616,-1.481861416493551,-0.6971085707293909,-1.6057685057269495,-3.329254213963644
-0.6312726179706019,-2.5004704634295862,-1.4820769468890589,-0.6970484892474573,-1.6058405081378382,-3.3300684134112757
-0.630841080342428,-2.5004223028766077,-1.4821847120868128,-0.6969884077655237,-1.605708424245016,-3.3304041067706507
-0.6304338614093226,-2.500434223805563,-1.4822567144977015,-0.6970365683185022,-1.6058042685138147,-3.330823008214132
-0.630050007496969,-2.5003746191607874,-1.4823530356036585,-0.6970003286944788,-1.6058161894427698,-3.3312061468707483
-0.629211727772848,-2.5002787748919886,-1.4824965635882776,-0.6968806425677698,-1.6059001127826136,-3.332080666218893
-0.6288045088397425,-2.50023061433901,-1.4825690428363245,-0.6968687216388147,-1.6057923475848597,-3.3324878851519983
-0.628397289906637,-2.500218693410055,-1.4826529661761683,-0.6968205610858362,-1.6058643499957483,-3.3328588644610804
-0.6280134359942835,-2.5001829306231897,-1.4827607313739222,-0.6968568007098597,-1.6059721151935022,-3.3333264032946985
-0.6272109190570276,-2.500099007283346,-1.4829166571246546,-0.6967609564410608,-1.6059721151935022,-3.3340569178210657
-0.6268757025348108,-2.5000270048724573,-1.4830010573016565,-0.6967008749591272,-1.605936352406637,-3.3343804518329065
-0.6265161673175257,-2.499990765248434,-1.4830849806415003,-0.6967008749591272,-1.605924431477682,-3.334679667149679
-0.6261447111712855,-2.499990765248434,-1.483072582875387,-0.6966770331012171,-1.606067959462301,-3.335062805806295
-0.625521485005514,-2.4999311606036585,-1.4832285086261194,-0.6966050306903284,-1.606067959462301,-3.3356497923480433
-0.625185791646139,-2.4999192396747034,-1.483300511037008,-0.6966169516192835,-1.6059959570514124,-3.3359254042254847
-0.6249225775348108,-2.499894920979635,-1.4833481947528284,-0.6966050306903284,-1.6060078779803675,-3.336236540471212
-0.6246231237994593,-2.4998472372638147,-1.4834325949298304,-0.6965811888324183,-1.6061041990863245,-3.336452309285299
-0.6241081396685999,-2.4998109976397913,-1.4835165182696741,-0.6965211073504847,-1.606056038533346,-3.337027136479513
-0.623904053364889,-2.499787155781881,-1.4835646788226526,-0.6964610258685511,-1.6061280409442347,-3.337254587803976
-0.6237123648272913,-2.499763313923971,-1.4835284391986292,-0.6964734236346644,-1.6059840361224573,-3.3374221960650843
-0.6235325972186487,-2.499751392995016,-1.483577076588766,-0.696449104939596,-1.60618764558901,-3.3375781218158167
-0.6231616179095667,-2.4997275511371058,-1.483696762715475,-0.696449104939596,-1.6061041990863245,-3.3379252592669886
-0.622969929371969,-2.4997032324420374,-1.4836848417865198,-0.6964014212237757,-1.60618764558901,-3.3380330244647425
-0.6228740851031702,-2.4996913115130823,-1.483720604573385,-0.6963895002948206,-1.606067959462301,-3.338200632725851
-0.6227296034442347,-2.499667469655172,-1.4837687651263636,-0.6963289419757288,-1.6062238852130335,-3.338344399129049
-0.6225140730487269,-2.499619785939352,-1.483828369771139,-0.696352783833639,-1.6061041990863245,-3.338536087666647
-0.622406307850973,-2.499631706868307,-1.483828369771139,-0.6963170210467737,-1.606283966694967,-3.338715378438131
-0.6223819891559046,-2.499631706868307,-1.4838045279132288,-0.696352783833639,-1.6060918013202112,-3.338703457509176
-0.622298542653219,-2.499655548726217,-1.483840290700094,-0.6963170210467737,-1.6062119642840784,-3.338811461125509
-0.6222623030291956,-2.499607865010397,-1.483840290700094,-0.696352783833639,-1.6061161200152796,-3.338931147252218
-0.6222503821002405,-2.4995959440814417,-1.4838765303241175,-0.6962812582599085,-1.6062596479998987,-3.3388593832599085
-0.6222623030291956,-2.499619785939352,-1.4838526884662073,-0.6962693373309534,-1.6060798803912562,-3.338943068181173
-0.6222861448871058,-2.499619785939352,-1.4838884512530726,-0.6962450186358851,-1.6061041990863245,-3.338799301777975
-0.6223104635821741,-2.499607865010397,-1.4838646093951624,-0.6962931791888636,-1.6061399618731897,-3.3388593832599085
-0.6223462263690394,-2.499619785939352,-1.4838765303241175,-0.6962450186358851,-1.6061041990863245,-3.338811461125509
-0.6223104635821741,-2.499607865010397,-1.4838765303241175,-0.6962450186358851,-1.6061041990863245,-3.338823382054464
-0.6222861448871058,-2.4995959440814417,-1.4838526884662073,-0.6962569395648401,-1.6061280409442347,-3.3388472239123743
-0.622298542653219,-2.4995959440814417,-1.4838765303241175,-0.6961973349200647,-1.6061399618731897,-3.338811461125509
-0.6222861448871058,-2.4995959440814417,-1.4838646093951624,-0.69623309770693,-1.6061280409442347,-3.338799301777975
-0.6222742239581507,-2.4995959440814417,-1.4838884512530726,-0.6962211767779749,-1.6061161200152796,-3.3388593832599085
-0.6222861448871058,-2.499607865010397,-1.4838646093951624,-0.69623309770693,-1.6061280409442347,-3.3388353029834192
-0.6222861448871058,-2.4995959440814417,-1.4838884512530726,-0.6962211767779749,-1.6061280409442347,-3.3388472239123743
-0.6223104635821741,-2.4995959440814417,-1.4839242140399378,-0.6961854139911097,-1.6061161200152796,-3.338799301777975
-0.6223343054400843,-2.499547783528463,-1.4838646093951624,-0.6961854139911097,-1.6060918013202112,-3.3388353029834192
-0.6223223845111292,-2.4995721022235315,-1.4838646093951624,-0.69623309770693,-1.6061161200152796,-3.3388472239123743
-0.6222861448871058,-2.4995721022235315,-1.4838765303241175,-0.6962092558490198,-1.6061161200152796,-3.338823382054464
-0.6222742239581507,-2.4995721022235315,-1.4838884512530726,-0.6962211767779749,-1.6061399618731897,-3.3388353029834192
-0.622298542653219,-2.499547783528463,-1.4838884512530726,-0.6961854139911097,-1.6061638037311,-3.3388713041888636
-0.6223104635821741,-2.499547783528463,-1.4839242140399378,-0.6961973349200647,-1.6061518828021448,-3.338811461125509
-0.6223104635821741,-2.499547783528463,-1.4839122931109827,-0.6962092558490198,-1.6061518828021448,-3.3388593832599085
-0.6222742239581507,-2.499547783528463,-1.483936611806051,-0.6962092558490198,-1.606175724660055,-3.3388713041888636
-0.6222503821002405,-2.4995597044574183,-1.4839242140399378,-0.6961973349200647,-1.6061399618731897,-3.3388353029834192
-0.6223104635821741,-2.499547783528463,-1.483936611806051,-0.6962092558490198,-1.6062119642840784,-3.3388593832599085
-0.6223104635821741,-2.4995597044574183,-1.4839242140399378,-0.6961854139911097,-1.6061518828021448,-3.338811461125509
-0.6223223845111292,-2.4995597044574183,-1.4838765303241175,-0.69623309770693,-1.6061280409442347,-3.338811461125509
-0.6223943869220179,-2.4995597044574183,-1.4838765303241175,-0.6962092558490198,-1.606175724660055,-3.33878738084902
-0.6224301497088831,-2.4995840231524866,-1.4838526884662073,-0.6962211767779749,-1.6061518828021448,-3.3387394587146204
-0.6225741545306605,-2.4995959440814417,-1.4837563673602503,-0.6962931791888636,-1.6061518828021448,-3.3386319319354456
-0.6226337591754358,-2.4995840231524866,-1.48370868364443,-0.6962931791888636,-1.6061638037311,-3.3385120073901575
-0.622753922139303,-2.499607865010397,-1.4836247603045862,-0.6963170210467737,-1.6061280409442347,-3.3383923212634485
-0.6228621641742151,-2.499631706868307,-1.4835284391986292,-0.6963895002948206,-1.6061399618731897,-3.33832031885256
-0.6231730620013636,-2.499667469655172,-1.48338491121401,-0.6964371840106409,-1.6061399618731897,-3.3380571047412317
-0.6233409086810511,-2.499643627797262,-1.4833124319659632,-0.6965449492083948,-1.606175724660055,-3.3377814928637903
-0.6235688368426722,-2.499667469655172,-1.4832046667682093,-0.6964734236346644,-1.6060918013202112,-3.3376734892474573
-0.6237362066852015,-2.499751392995016,-1.4830969015704554,-0.6965330282794397,-1.6061518828021448,-3.3374462763415735
-0.6242273489581507,-2.4997990767108362,-1.4827969709979456,-0.6966169516192835,-1.6061161200152796,-3.3369911352740687
-0.6244791189776819,-2.499894920979635,-1.4826648871051233,-0.6967247168170374,-1.6061280409442347,-3.336691681538717
-0.6247189680682581,-2.4999073187457483,-1.4824846426593226,-0.696784798298971,-1.6061161200152796,-3.336416308079855
-0.6250303427325647,-2.499978844319479,-1.4823530356036585,-0.6968086401568812,-1.6060798803912562,-3.336080853139059
-0.6256893316852015,-2.500122849141256,-1.48198110262026,-0.6969884077655237,-1.6061041990863245,-3.3354104200946253
-0.6260369459735315,-2.500194851552145,-1.4818251768695276,-0.6970723311053675,-1.606056038533346,-3.3350868860827845
-0.6264203230487269,-2.5003026167498987,-1.4816692511187952,-0.6972163359271448,-1.606044117604391,-3.3347037474261683
-0.6268394629107874,-2.5003626982318323,-1.481440846120016,-0.697240177785055,-1.6059959570514124,-3.3342846075641077
-0.6276300589190882,-2.500590149556295,-1.4810574690448206,-0.6974323431598108,-1.605948273335592,-3.3335300127612513
-0.6280730406390589,-2.500697914754049,-1.4808772245990198,-0.6976121107684534,-1.6059601942645472,-3.3330865542041224
