youngblood1998/my_ws/src/ur5_platform/ur5_platform_manipulation/wzq/test4_13_3.csv
j0,j1,j2,j3,j4,j5
-0.8189013640033167,-2.797711197529928,-0.8192809263812464,-1.058033291493551,-1.6006744543658655,-3.1488707701312464
-0.8188656012164515,-2.7979028860675257,-0.8187525908099573,-1.0582497755633753,-1.6006506125079554,-3.1488707701312464
-0.8188894430743616,-2.7981069723712366,-0.8183329741107386,-1.0585129896747034,-1.6006506125079554,-3.1488707701312464
-0.8188656012164515,-2.798262421284811,-0.8179128805743616,-1.0587051550494593,-1.6006863752948206,-3.1488707701312464
-0.818829361592428,-2.7984545866595667,-0.8174927870379847,-1.058920685444967,-1.600638214741842,-3.148822847996847
-0.8188412825213831,-2.798742119465963,-0.8167246023761194,-1.0594361464129847,-1.6006506125079554,-3.1488946119891565
-0.8188656012164515,-2.798945728932516,-0.816352669392721,-1.0596163908587855,-1.6006625334369105,-3.148822847996847
-0.8188536802874964,-2.7991016546832483,-0.8159926573382776,-1.0597479979144495,-1.6006625334369105,-3.1488588492022913
-0.8188536802874964,-2.799197498952047,-0.815704647694723,-1.0599520842181605,-1.600638214741842,-3.1488946119891565
-0.8188412825213831,-2.7994492689715784,-0.8150327841388147,-1.0602753798114222,-1.6006863752948206,-3.1488707701312464
-0.8188536802874964,-2.7996047178851526,-0.814768139516012,-1.060359303151266,-1.6006744543658655,-3.148918692265646
-0.8188536802874964,-2.7997005621539515,-0.814432446156637,-1.060587231312887,-1.6006863752948206,-3.1488707701312464
-0.8189252058612269,-2.7998326460467737,-0.8141801992999476,-1.0606830755816858,-1.6006982962237757,-3.1488946119891565
-0.8188656012164515,-2.8000600973712366,-0.8137248198138636,-1.061019245778219,-1.6007464567767542,-3.1488946119891565
-0.8188536802874964,-2.8001797834979456,-0.8134368101703089,-1.0611031691180628,-1.6007464567767542,-3.148942534123556
-0.818829361592428,-2.8002756277667444,-0.8132684866534632,-1.0612834135638636,-1.6007221380816858,-3.1488946119891565
-0.818817440663473,-2.800347630177633,-0.8130767981158655,-1.061343018208639,-1.6007702986346644,-3.1489067713366907
-0.818829361592428,-2.8004911581622522,-0.812716309224264,-1.0614507834063929,-1.6007464567767542,-3.1488946119891565
-0.8188536802874964,-2.800563160573141,-0.8125723044024866,-1.0616186300860804,-1.6007941404925745,-3.148918692265646
-0.8188055197345179,-2.800598923360006,-0.8124282995807093,-1.0615947882281702,-1.6007702986346644,-3.1488707701312464
-0.8188412825213831,-2.800635639821188,-0.8122723738299769,-1.0617149511920374,-1.6007822195636194,-3.148930613194601
-0.8188055197345179,-2.8007195631610315,-0.8120806852923792,-1.0619185606585901,-1.600734059010641,-3.148942534123556
-0.8188055197345179,-2.8007195631610315,-0.8119962851153772,-1.061690632496969,-1.6007221380816858,-3.148942534123556
-0.8187935988055628,-2.8007434050189417,-0.8119481245623987,-1.0619185606585901,-1.6007464567767542,-3.148942534123556
-0.818817440663473,-2.800755325947897,-0.8118522802935999,-1.061763111745016,-1.6007822195636194,-3.1489067713366907
-0.8188412825213831,-2.800779167805807,-0.8118885199176233,-1.0619185606585901,-1.6007583777057093,-3.148918692265646
-0.8187816778766077,-2.800779167805807,-0.8119362036334437,-1.0618107954608362,-1.6007221380816858,-3.148966614400045
-0.8187935988055628,-2.800755325947897,-0.811960522328512,-1.0617507139789026,-1.6007464567767542,-3.148942534123556
-0.8188656012164515,-2.800779167805807,-0.8119362036334437,-1.061763111745016,-1.600734059010641,-3.148930613194601
-0.8188656012164515,-2.800767246876852,-0.811960522328512,-1.0617745558368128,-1.600734059010641,-3.1488826910602015
-0.818829361592428,-2.8007434050189417,-0.8119242827044886,-1.0617507139789026,-1.6007464567767542,-3.148942534123556
-0.818817440663473,-2.800767246876852,-0.8119242827044886,-1.0617507139789026,-1.6007464567767542,-3.148918692265646
-0.818817440663473,-2.800791088734762,-0.811960522328512,-1.0617387930499476,-1.6007221380816858,-3.148918692265646
-0.8188055197345179,-2.800755325947897,-0.8119481245623987,-1.0617745558368128,-1.6007941404925745,-3.14895469347109
-0.8188412825213831,-2.8007434050189417,-0.8119123617755335,-1.0617507139789026,-1.6007583777057093,-3.148942534123556
-0.8187935988055628,-2.8007434050189417,-0.8119123617755335,-1.0617745558368128,-1.6007583777057093,-3.148930613194601
-0.8188412825213831,-2.800755325947897,-0.8119123617755335,-1.061786953602926,-1.6007464567767542,-3.148942534123556
-0.8188055197345179,-2.800767246876852,-0.8119724432574671,-1.0617988745318812,-1.6007822195636194,-3.148966614400045
-0.818817440663473,-2.800779167805807,-0.8119362036334437,-1.0618227163897913,-1.6007583777057093,-3.148918692265646
-0.8187816778766077,-2.800755325947897,-0.8119362036334437,-1.0618470350848597,-1.6007102171527308,-3.148930613194601
-0.818817440663473,-2.8007434050189417,-0.8118885199176233,-1.06189471880068,-1.600734059010641,-3.148966614400045
-0.818817440663473,-2.800779167805807,-0.8119123617755335,-1.0619786421405237,-1.6007464567767542,-3.148942534123556
-0.8187935988055628,-2.8007434050189417,-0.8119123617755335,-1.0619309584247034,-1.600734059010641,-3.148918692265646
-0.8188055197345179,-2.8007314840899866,-0.8119481245623987,-1.0619548002826136,-1.6007464567767542,-3.14895469347109
-0.818817440663473,-2.800767246876852,-0.8119962851153772,-1.0620024839984339,-1.600734059010641,-3.148942534123556
-0.818817440663473,-2.8007434050189417,-0.8119962851153772,-1.062014404927389,-1.6007583777057093,-3.14895469347109
-0.8187697569476526,-2.800767246876852,-0.8119724432574671,-1.0620864073382776,-1.6007464567767542,-3.148930613194601
-0.818829361592428,-2.800791088734762,-0.8119123617755335,-1.0620625654803675,-1.600734059010641,-3.148930613194601
-0.818829361592428,-2.800767246876852,-0.8119481245623987,-1.0620983282672327,-1.6007583777057093,-3.148930613194601
-0.818817440663473,-2.800755325947897,-0.811960522328512,-1.062122646962301,-1.600734059010641,-3.148918692265646
-0.8187816778766077,-2.8007434050189417,-0.8119004408465784,-1.0620983282672327,-1.6007583777057093,-3.148966614400045
-0.818817440663473,-2.800755325947897,-0.8119481245623987,-1.0621464888202112,-1.600734059010641,-3.14895469347109
-0.8188412825213831,-2.8007434050189417,-0.8119362036334437,-1.0620625654803675,-1.6007221380816858,-3.1489785353290003
-0.8187935988055628,-2.800767246876852,-0.8119242827044886,-1.0621102491961878,-1.6007702986346644,-3.148966614400045
-0.8187935988055628,-2.800779167805807,-0.8119123617755335,-1.0620625654803675,-1.6007464567767542,-3.148942534123556
-0.818817440663473,-2.800767246876852,-0.8119004408465784,-1.0620983282672327,-1.6007221380816858,-3.14895469347109
-0.818817440663473,-2.800755325947897,-0.8119242827044886,-1.0621102491961878,-1.6007702986346644,-3.148942534123556
-0.8188536802874964,-2.800755325947897,-0.8119481245623987,-1.0621102491961878,-1.6007583777057093,-3.14895469347109
-0.818829361592428,-2.800779167805807,-0.8119724432574671,-1.0621102491961878,-1.6007221380816858,-3.148918692265646
-0.8187697569476526,-2.800779167805807,-0.8119481245623987,-1.0621102491961878,-1.6007702986346644,-3.148930613194601
-0.818829361592428,-2.800755325947897,-0.8119362036334437,-1.0621102491961878,-1.6007822195636194,-3.148942534123556
-0.8188055197345179,-2.800779167805807,-0.8119362036334437,-1.0621102491961878,-1.600734059010641,-3.148930613194601
-0.818817440663473,-2.800755325947897,-0.8119481245623987,-1.0621102491961878,-1.600734059010641,-3.148930613194601
-0.818817440663473,-2.800755325947897,-0.8119242827044886,-1.0620625654803675,-1.6007464567767542,-3.148918692265646
-0.8187935988055628,-2.800755325947897,-0.8119962851153772,-1.0620387236224573,-1.6007221380816858,-3.148918692265646
-0.818817440663473,-2.8007071653949183,-0.8121164480792444,-1.0619424025165003,-1.6007221380816858,-3.1489785353290003
-0.8187935988055628,-2.800659481679098,-0.812164608632223,-1.061882797871725,-1.6007464567767542,-3.148918692265646
-0.818817440663473,-2.8006113211261194,-0.8123081366168421,-1.0618470350848597,-1.600734059010641,-3.148918692265646
-0.818829361592428,-2.8005154768573206,-0.8124044577227991,-1.0616667906390589,-1.6007464567767542,-3.148966614400045
-0.8187697569476526,-2.800359551106588,-0.8128121534930628,-1.0614751021014612,-1.6007702986346644,-3.148942534123556
-0.8188055197345179,-2.800239864979879,-0.8130524794207972,-1.0615347067462366,-1.600734059010641,-3.1489906946765345
-0.818829361592428,-2.800119702016012,-0.8132804075824183,-1.0612471739398401,-1.6007221380816858,-3.1488946119891565
-0.818829361592428,-2.7999637762652796,-0.813568417225973,-1.0613072554217737,-1.6007822195636194,-3.14895469347109
-0.8187935988055628,-2.7997005621539515,-0.814216438923971,-1.0609710852252405,-1.6007822195636194,-3.14895469347109
-0.818829361592428,-2.7995451132403772,-0.8146126906024378,-1.0606473127948206,-1.6007702986346644,-3.148930613194601
-0.8188055197345179,-2.7993410269366663,-0.8149970213519495,-1.0604432264911097,-1.6007221380816858,-3.148930613194601
-0.818817440663473,-2.7991493383990687,-0.8154767195331019,-1.060143772755758,-1.6007464567767542,-3.148930613194601
-0.8188412825213831,-2.7988017241107386,-0.8163645903216761,-1.0596039930926722,-1.6007583777057093,-3.14895469347109
-0.818817440663473,-2.7985623518573206,-0.8168929258929651,-1.0592926184283655,-1.6007221380816858,-3.148966614400045
-0.8188055197345179,-2.798370663319723,-0.8174088636981409,-1.059040371571676,-1.6007583777057093,-3.148918692265646
-0.818817440663473,-2.798166577016012,-0.8179486433612269,-1.0587289969073694,-1.600734059010641,-3.148930613194601
-0.8187935988055628,-2.797687355672018,-0.819005314503805,-1.0580576101886194,-1.6007583777057093,-3.148918692265646
-0.818829361592428,-2.79747182527651,-0.8196285406695765,-1.0577338377581995,-1.600734059010641,-3.1489067713366907
-0.8187935988055628,-2.7972081343280237,-0.8202531973468226,-1.0573857466327112,-1.6007464567767542,-3.1489067713366907
-0.818817440663473,-2.7969802061664026,-0.8208530584918421,-1.0569780508624476,-1.6007583777057093,-3.1489785353290003
-0.818829361592428,-2.796440903340475,-0.822028938923971,-1.0562470594989222,-1.6007464567767542,-3.1489067713366907
-0.818829361592428,-2.7961652914630335,-0.8226411978351038,-1.0559709707843226,-1.600734059010641,-3.148918692265646
-0.818829361592428,-2.795877758656637,-0.8233011404620569,-1.055659596120016,-1.6007583777057093,-3.148942534123556
-0.8188656012164515,-2.7956021467791956,-0.8239730040179651,-1.0552638212787073,-1.6007221380816858,-3.1489067713366907
-0.818829361592428,-2.795074764882223,-0.8251732031451624,-1.0544722715960901,-1.600734059010641,-3.1489067713366907
-0.8188536802874964,-2.794727150593893,-0.8258689085589808,-1.0541003386126917,-1.6007822195636194,-3.148846689854757
-0.8188656012164515,-2.7944520155536097,-0.8265054861651819,-1.0537646452533167,-1.600734059010641,-3.1488588492022913
-0.8188536802874964,-2.7941764036761683,-0.82715350786318,-1.053356949483053,-1.600734059010641,-3.1487751642810267
-0.8188775221454065,-2.7935169378863733,-0.8284972349749964,-1.0526135603534144,-1.6007583777057093,-3.1487751642810267
-0.8188412825213831,-2.793265167866842,-0.8291452566729944,-1.0522421042071741,-1.6007221380816858,-3.1487751642810267
-0.8188536802874964,-2.7929776350604456,-0.8297932783709925,-1.051894489918844,-1.600734059010641,-3.148787323628561
-0.8189013640033167,-2.792690102254049,-0.830489460621969,-1.0514262358294886,-1.600734059010641,-3.148787323628561
-0.8188894430743616,-2.7921388784991663,-0.831857983266012,-1.0506108442889612,-1.6007583777057093,-3.148787323628561
-0.8189132849322718,-2.7918270269977015,-0.8325894514666956,-1.0502150694476526,-1.6007221380816858,-3.1487513224231165
-0.8189733664142054,-2.791539971028463,-0.8332613150226038,-1.049784008656637,-1.6007221380816858,-3.1487394014941614
-0.8189371267901819,-2.7912281195269983,-0.8340657393084925,-1.04936391512026,-1.600734059010641,-3.148787323628561
-0.8189614454852503,-2.7905691305743616,-0.8355658690081995,-1.0486329237567347,-1.600734059010641,-3.148715321217672
-0.8189972082721155,-2.7902334372149866,-0.8363817373858851,-1.0481532255755823,-1.6007102171527308,-3.148691240941183
-0.8190091292010706,-2.78994590440859,-0.8371618429767054,-1.0476973692523401,-1.6007221380816858,-3.148703400288717
-0.8189614454852503,-2.789597813283102,-0.8379300276385706,-1.047241512929098,-1.6006982962237757,-3.148703400288717
-0.8189972082721155,-2.7888672987567347,-0.8395140806781214,-1.04633075395693,-1.6006744543658655,-3.1486673990832728
-0.8189852873431605,-2.7885196844684046,-0.840306584035055,-1.0458267370807093,-1.6007102171527308,-3.1486433188067835
-0.819033447896139,-2.788184467946188,-0.8411825338946741,-1.0454071203814905,-1.6007221380816858,-3.148595396672384
-0.8190572897540491,-2.787788693104879,-0.8419864813434046,-1.04492694536318,-1.6007221380816858,-3.1486075560199183
-0.8190692106830042,-2.787069622670309,-0.8436186949359339,-1.043908421193258,-1.6006982962237757,-3.148595396672384
-0.8190930525409144,-2.7866743246661585,-0.8445308844195765,-1.043452564870016,-1.6006744543658655,-3.148583475743429
-0.8191049734698694,-2.786290947590963,-0.8454301992999476,-1.0428531805621546,-1.6006982962237757,-3.148559633885519
-0.8191168943988245,-2.785931412373678,-0.8463304678546351,-1.0423372427569788,-1.6007464567767542,-3.148559633885519
-0.819153134022848,-2.7851761023150843,-0.8482030073748987,-1.0413420836078089,-1.6007221380816858,-3.148463551198141
-0.8191292921649378,-2.784804646168844,-0.8491385618792933,-1.040790859852926,-1.6006982962237757,-3.148463551198141
-0.819153134022848,-2.7843850294696253,-0.8500869909869593,-1.0402992407428187,-1.6006982962237757,-3.1484995524035853
-0.8191769758807581,-2.784013573323385,-0.851023022328512,-1.039759937916891,-1.600734059010641,-3.1484995524035853
-0.8192370573626917,-2.7831390539752405,-0.8529551664935511,-1.0386679808246058,-1.6007102171527308,-3.148463551198141
-0.8191888968097132,-2.782707993184225,-0.853915039693014,-1.038140598927633,-1.6006863752948206,-3.148451630269186
-0.8192251364337366,-2.782288376485006,-0.8549111525165003,-1.0375655333148401,-1.6006863752948206,-3.1483917872058313
-0.8192370573626917,-2.7818449179278772,-0.8559430281268519,-1.0370257536517542,-1.6006982962237757,-3.1483917872058313
-0.8192370573626917,-2.780945603047506,-0.857983414326803,-1.0358145872699183,-1.6005905310260218,-3.148308340703146
-0.8192608992206019,-2.7805145422564905,-0.8590157667743128,-1.0353110472308558,-1.6005905310260218,-3.1482842604266565
-0.8192489782916468,-2.78009540239443,-0.8600352446185511,-1.0347235838519495,-1.6006024519549769,-3.1482723394977015
-0.8193329016314905,-2.779628101979391,-0.8610437552081507,-1.0340760389911097,-1.6004827658282679,-3.1482601801501673
-0.8193090597735804,-2.7787769476519983,-0.8631075064288538,-1.0329487959491175,-1.6004465262042444,-3.1482723394977015
-0.8193567434894007,-2.778369728718893,-0.8641160170184534,-1.0323370138751429,-1.6005666891681116,-3.1482601801501673
-0.8193448225604456,-2.777914349232809,-0.8651240507708948,-1.03178579012026,-1.600386921559469,-3.148224417363302
-0.8193686644183558,-2.777482811604635,-0.8661320845233362,-1.0312579313861292,-1.600518528615133,-3.1481764952289026
-0.8193929831134241,-2.7766078154193323,-0.8681958357440394,-1.0300591627704065,-1.600494686757223,-3.148224417363302
-0.8194049040423792,-2.7761405150042933,-0.869216267262594,-1.029459301625387,-1.600506607686178,-3.1481764952289026
-0.8194168249713343,-2.775661293660299,-0.8702238241778772,-1.0288241545306605,-1.6003745237933558,-3.148248259221212
-0.8194287459002894,-2.77521783510317,-0.8712437788592737,-1.0282724539386194,-1.600518528615133,-3.1481884161578577
-0.8194406668292444,-2.7743194738971155,-0.8733323256122034,-1.027013127003805,-1.600506607686178,-3.1481404940234583
-0.819488827382223,-2.773899857197897,-0.8743885199176233,-1.026449982319967,-1.6004708448993128,-3.1481643358813685
-0.819488827382223,-2.773468319569723,-0.8753722349749964,-1.0258024374591272,-1.600518528615133,-3.1480804125415247
-0.8194764296161097,-2.773036781941549,-0.8764527479754847,-1.0251906553851526,-1.6005786100970667,-3.1480446497546595
-0.8195126692401331,-2.772102181111471,-0.8785527388202112,-1.0239079634295862,-1.6005423704730433,-3.1480446497546595
-0.8195365110980433,-2.771634880696432,-0.8796446959124964,-1.0232961813556116,-1.600386921559469,-3.1480446497546595
-0.8195965925799769,-2.7711551825152796,-0.8807128111468714,-1.022684399281637,-1.600506607686178,-3.1480324904071253
-0.8195245901690882,-2.7706759611712855,-0.8817685286151331,-1.0220254103290003,-1.600494686757223,-3.14802056947817
-0.8195365110980433,-2.769705597554342,-0.8840010801898401,-1.0208256880389612,-1.6005542914019983,-3.1480804125415247
-0.8195965925799769,-2.769226376210348,-0.8851049582110804,-1.0201666990863245,-1.6004584471331995,-3.14799672762026
-0.819620434437887,-2.768759075795309,-0.886245075856344,-1.0195429960833948,-1.6005542914019983,-3.14802056947817
-0.8196085135089319,-2.768255058919088,-0.8873494307147425,-1.0189316908465784,-1.6004465262042444,-3.147984568272726
-0.8196685949908655,-2.767309013997213,-0.8895452658282679,-1.0176366011248987,-1.6005423704730433,-3.1479607264148157
-0.8197043577777308,-2.7668173948871058,-0.8906496206866663,-1.0170367399798792,-1.6003988424884241,-3.1479488054858606
-0.8196561972247522,-2.7663500944720667,-0.8917773405658167,-1.0163777510272425,-1.6005423704730433,-3.1479488054858606
-0.8197043577777308,-2.765906635914938,-0.8928816954242151,-1.0157416502581995,-1.6003745237933558,-3.1479128042804163
-0.8196924368487757,-2.7649481932269495,-0.895125691090719,-1.0144947210894983,-1.6004465262042444,-3.1479128042804163
-0.8196685949908655,-2.764445130025045,-0.8962176481830042,-1.0139077345477503,-1.6003988424884241,-3.1478408018695276
-0.8197043577777308,-2.7639897505389612,-0.8973935286151331,-1.013223950062887,-1.6004708448993128,-3.1478527227984827
-0.8197281996356409,-2.7634618918048304,-0.8984740416156214,-1.0126002470599573,-1.6003506819354456,-3.1478048006640833
-0.819740120564596,-2.762502972279684,-0.9006579558001917,-1.011317555104391,-1.6003387610064905,-3.1478169600116175
-0.8197763601886194,-2.762035671864645,-0.9018223921405237,-1.0107539335833948,-1.6003387610064905,-3.1478048006640833
-0.8198121229754847,-2.761556927357809,-0.9029257933246058,-1.0101302305804651,-1.6004107634173792,-3.147780958806173
-0.8198002020465296,-2.761101547871725,-0.904006306325094,-1.0094588438617151,-1.600278679524557,-3.1478048006640833
-0.8198002020465296,-2.7601545492755335,-0.906165901814596,-1.0082114378558558,-1.6003387610064905,-3.147769037877218
-0.8198602835284632,-2.7596753279315394,-0.9072225729571741,-1.0075886885272425,-1.6003626028644007,-3.147769037877218
-0.8198359648333948,-2.759172264729635,-0.908398453389303,-1.0070727507220667,-1.6004708448993128,-3.147745434437887
-0.8198359648333948,-2.7587407271014612,-0.9095147291766565,-1.0063770453082483,-1.6003029982196253,-3.1476975123034876
-0.8198602835284632,-2.757805649434225,-0.9118302504168909,-1.0051901976214808,-1.6003988424884241,-3.1476615110980433
-0.8198483625995081,-2.757350269948141,-0.912886921559469,-1.0045064131366175,-1.6004465262042444,-3.1476615110980433
-0.8198240439044397,-2.756871048604147,-0.9140146414386194,-1.0038474241839808,-1.6004708448993128,-3.147613588963644
-0.8199198881732386,-2.7563679854022425,-0.9151185194598597,-1.003211800252096,-1.6003506819354456,-3.147613588963644
-0.8199322859393519,-2.7553613821612757,-0.9173272291766565,-1.0019286314593714,-1.6003506819354456,-3.147637430821554
-0.8199198881732386,-2.7548940817462366,-0.9184549490558069,-1.0012930075274866,-1.6004346052752894,-3.1475775877581995
-0.8199675718890589,-2.7544387022601526,-0.919534985219137,-1.000681225453512,-1.6004107634173792,-3.1475895086871546
-0.819979492818014,-2.7539709250079554,-0.9206512610064905,-1.0000937620746058,-1.6003506819354456,-3.1475775877581995
-0.819979492818014,-2.7530368010150355,-0.9228351751910608,-0.9988592306720179,-1.6003149191485804,-3.147541586552755
-0.8200395742999476,-2.752629105244772,-0.9239152113543909,-0.9982231299029749,-1.6003988424884241,-3.1475656668292444
-0.8200753370868128,-2.7521374861346644,-0.9250195662127894,-0.9975999037372034,-1.6003745237933558,-3.1475775877581995
-0.8200276533709925,-2.7517059485064905,-0.926063362752096,-0.9970486799823206,-1.6003149191485804,-3.147541586552755
-0.8200276533709925,-2.7507837454425257,-0.9281519095050257,-0.9957659880267542,-1.6003029982196253,-3.1474698225604456
-0.8200514952289026,-2.7503283659564417,-0.9292433897601526,-0.9951537291156214,-1.6004465262042444,-3.147409741078512
-0.8200753370868128,-2.7498610655414026,-0.9302519003497522,-0.9945300261126917,-1.6003745237933558,-3.147409741078512
-0.8200753370868128,-2.7493937651263636,-0.9312956968890589,-0.9939311186419886,-1.6004584471331995,-3.147397820149557
-0.8201115767108362,-2.748554531727926,-0.9333837668048304,-0.9927313963519495,-1.6004226843463343,-3.147397820149557
-0.8201354185687464,-2.748147789631979,-0.9344280401812952,-0.9921200911151331,-1.6004107634173792,-3.1473737398730677
-0.8201473394977015,-2.747692410145895,-0.9354718367206019,-0.991556469594137,-1.600386921559469,-3.147385899220602
-0.8201592604266565,-2.747248951588766,-0.9364798704730433,-0.9909570852862757,-1.6004584471331995,-3.147385899220602
-0.8201711813556116,-2.746397320424215,-0.9384959379779261,-0.9898060003863733,-1.600494686757223,-3.147301975880758
-0.8202074209796351,-2.745918099080221,-0.9395764509784144,-0.9892061392413538,-1.6003268400775355,-3.1473258177386683
-0.8201592604266565,-2.745463196431295,-0.9405120054828089,-0.9885590712176722,-1.6004107634173792,-3.147301975880758
-0.8201835791217249,-2.744995896016256,-0.9415925184832972,-0.9880312124835413,-1.6003988424884241,-3.1472659746753138
-0.8202312628375452,-2.7440369764911097,-0.9436562697040003,-0.98676044145693,-1.6004584471331995,-3.147290054951803
-0.8202431837665003,-2.7435577551471155,-0.9447005430804651,-0.9862564245807093,-1.6003029982196253,-3.1472061316119593
-0.8202551046954554,-2.7431262175189417,-0.94574481645693,-0.985549275075094,-1.6004584471331995,-3.14718205133547
-0.8202913443194788,-2.742659393941061,-0.9468963781939905,-0.9850099722491663,-1.6003626028644007,-3.14718205133547
-0.820327107106344,-2.7417362372027796,-0.9490926901446741,-0.9837506453143519,-1.6004107634173792,-3.1472180525409144
-0.820327107106344,-2.7412570158587855,-0.9501727263080042,-0.9831631819354456,-1.6002548376666468,-3.147158447896139
-0.820327107106344,-2.7407777945147913,-0.9513362089740198,-0.9825518766986292,-1.6004465262042444,-3.147158447896139
-0.820327107106344,-2.740274254475729,-0.9524768034564417,-0.9818323294269007,-1.600278679524557,-3.147134606038229
-0.8203991095172327,-2.7393158117877405,-0.9548051992999476,-0.9805129210101526,-1.6003626028644007,-3.1470986048327845
-0.8203633467303675,-2.738812271748678,-0.956029240285055,-0.979865852986471,-1.6002190748797815,-3.1471224466906946
-0.8204229513751429,-2.7382968107806605,-0.9572051207171839,-0.9792302290545862,-1.6003626028644007,-3.1471105257617396
-0.8203991095172327,-2.7377575079547327,-0.9584410826312464,-0.9785345236407679,-1.6003029982196253,-3.1471224466906946
-0.820446793233053,-2.7367151419269007,-0.9608529249774378,-0.9771559874164026,-1.6003745237933558,-3.14703876176943
-0.8204229513751429,-2.736176315938131,-0.9620893637286585,-0.9764726797686976,-1.6002190748797815,-3.1469906012164515
-0.820446793233053,-2.7356489340411585,-0.9633134047137659,-0.9758246580706995,-1.6003149191485804,-3.1469667593585413
-0.820446793233053,-2.735121552144186,-0.9645136038409632,-0.9750812689410608,-1.6002910772906702,-3.1469667593585413
-0.8205307165728968,-2.7340434233294886,-0.9670217672931116,-0.9736068884478968,-1.6003268400775355,-3.1469906012164515
-0.8205068747149866,-2.7334559599505823,-0.9682572523700159,-0.9729111830340784,-1.600182835255758,-3.146942679082052
-0.8205426375018519,-2.7329166571246546,-0.9694817701922815,-0.9721677939044397,-1.6001952330218714,-3.146942679082052
-0.8205187956439417,-2.732365433369772,-0.9707658926593226,-0.9713881651507776,-1.6002910772906702,-3.1468828360186976
-0.8205788771258753,-2.731143299733297,-0.9733699003802698,-0.9699252287494105,-1.6003149191485804,-3.1468589941607874
-0.8205907980548304,-2.730543915425436,-0.974677864705221,-0.9692300001727503,-1.6002548376666468,-3.146834913884298
-0.8206265608416956,-2.729992691670553,-0.9759743849383753,-0.9684746901141565,-1.6002071539508265,-3.146810833607809
-0.8206027189837855,-2.729429546986715,-0.9773181120501917,-0.9676831404315394,-1.600278679524557,-3.146798912678854
-0.8205907980548304,-2.7283032576190394,-0.979934040700094,-0.9661486784564417,-1.6003029982196253,-3.1467869917498987
-0.8206747213946741,-2.7277401129352015,-0.9812782446490687,-0.9654648939715784,-1.600182835255758,-3.1467750708209437
-0.8206389586078089,-2.7271888891803187,-0.9825986067401331,-0.964637581502096,-1.6002309958087366,-3.1467750708209437
-0.8206985632525843,-2.7266019026385706,-0.9838345686541956,-0.9639418760882776,-1.6002910772906702,-3.146691385899679
-0.8207224051104944,-2.7254751364337366,-0.9865706602679651,-0.9623587767230433,-1.6003149191485804,-3.1466196219073694
-0.8207104841815394,-2.724947754536764,-0.9878547827350062,-0.9616158644305628,-1.600170914326803,-3.1466434637652796
-0.8207348028766077,-2.724372688923971,-0.9891865889178675,-0.9608247915851038,-1.600182835255758,-3.14657169977297
-0.8207348028766077,-2.7238338629352015,-0.9904468695269983,-0.9600213209735315,-1.600278679524557,-3.1466196219073694
-0.8207586447345179,-2.7227070967303675,-0.9930747191058558,-0.9586060682879847,-1.6002548376666468,-3.14657169977297
-0.8208063284503382,-2.7221558729754847,-0.994394604359762,-0.9577673117267054,-1.600170914326803,-3.146559540425436
-0.8207944075213831,-2.721640412007467,-0.9957030455218714,-0.9569996039019983,-1.600158993397848,-3.1465476194964808
-0.8208664099322718,-2.7211015860186976,-0.9970467726336878,-0.9562318960772913,-1.6002667585956019,-3.1465356985675257
-0.8208544890033167,-2.719915215169088,-0.9995787779437464,-0.9547932783709925,-1.6003029982196253,-3.1464996973620813
-0.8208425680743616,-2.719351593648092,-1.0009473005877894,-0.9539898077594202,-1.6001470724688929,-3.1464996973620813
-0.8208306471454065,-2.718776528035299,-1.0022552649127405,-0.9532225767718714,-1.6002309958087366,-3.146475855504171
-0.8208902517901819,-2.7182133833514612,-1.0035632292376917,-0.9524310270892542,-1.600278679524557,-3.146427933369772
-0.8209145704852503,-2.71705133119692,-1.0062630812274378,-0.950968090687887,-1.600278679524557,-3.1463797728167933
-0.8209384123431605,-2.7165239492999476,-1.0075953642474573,-0.9502127806292933,-1.6001470724688929,-3.1464038530932825
-0.8209503332721155,-2.7159245649920862,-1.008951489125387,-0.9494217077838343,-1.6001952330218714,-3.146367851887838
-0.8209264914142054,-2.7153738180743616,-1.010343376790182,-0.9487016836749476,-1.6002190748797815,-3.1463919321643274
-0.8210466543780726,-2.7142470518695276,-1.0129712263690394,-0.9472029844867151,-1.6002190748797815,-3.146344010029928
-0.8210104147540491,-2.7136839071856897,-1.0143993536578577,-0.9465201536761683,-1.6000989119159144,-3.1462720076190394
-0.8210466543780726,-2.71312123933901,-1.0157797972308558,-0.9456685225116175,-1.6000869909869593,-3.1462720076190394
-0.8210104147540491,-2.7125218550311487,-1.0170276800738733,-0.9450209776507776,-1.6002190748797815,-3.146248165761129
-0.8210704962359827,-2.7113712469684046,-1.019764248524801,-0.9435103575335901,-1.6001952330218714,-3.14622408548464
-0.8210704962359827,-2.7107961813556116,-1.0211079756366175,-0.9427664915667933,-1.6000869909869593,-3.146248165761129
-0.8210943380938929,-2.7102330366717737,-1.0224040190326136,-0.9419873396502894,-1.600039307271139,-3.146236006413595
-0.8210943380938929,-2.709669891987936,-1.0237601439105433,-0.9412558714496058,-1.6001351515399378,-3.1461880842791956
-0.8211544195758265,-2.70854360262026,-1.026412312184469,-0.9396126906024378,-1.6000631491290491,-3.14610463777651
-0.8211424986468714,-2.707956139241354,-1.0277441183673304,-0.9388459364520472,-1.6000631491290491,-3.146128241215841
-0.8211663405047815,-2.707381550465719,-1.0290520826922815,-0.938174072896139,-1.5999911467181605,-3.146128241215841
-0.8211544195758265,-2.706794087086813,-1.0303600470172327,-0.9373586813556116,-1.6001351515399378,-3.14610463777651
-0.8212145010577601,-2.7055352369891565,-1.0329883734332483,-0.9358122984515589,-1.6000631491290491,-3.1460567156421106
-0.8212145010577601,-2.704960648213522,-1.034332577382223,-0.9350565115558069,-1.6000273863421839,-3.1460087935077112
-0.8212502638446253,-2.7043851057635706,-1.0356524626361292,-0.9343131224261683,-1.5999434630023401,-3.1460326353656214
-0.8212502638446253,-2.7037742773639124,-1.0369485060321253,-0.9335339705096644,-1.6000869909869593,-3.145996872578756
-0.8212383429156702,-2.7026355902301233,-1.0395644346820276,-0.9319632689105433,-1.6000154654132288,-3.145972792302267
-0.8212865034686487,-2.7020848433123987,-1.0408843199359339,-0.9312437216388147,-1.6000631491290491,-3.145972792302267
-0.8212865034686487,-2.7014735380755823,-1.0422523657428187,-0.9304164091693323,-1.5999191443072718,-3.1459248701678675
-0.8213103453265589,-2.7009342352496546,-1.0435603300677698,-0.9296968618976038,-1.600039307271139,-3.1459489504443567
-0.821322266255514,-2.6997955481158655,-1.0462248961078089,-0.9281981627093714,-1.5999553839312952,-3.145888868962423
-0.8213823477374476,-2.6992209593402308,-1.0475691000567835,-0.9274666945086878,-1.6000750700580042,-3.145888868962423
-0.8213942686664026,-2.698669735585348,-1.0488646666156214,-0.9266870657550257,-1.5998595396624964,-3.1458409468280237
-0.8213823477374476,-2.698106114064352,-1.050196949635641,-0.9259555975543421,-1.600039307271139,-3.1458290258990687
-0.821441952382223,-2.6970518271075647,-1.0528605620013636,-0.9245050589190882,-1.5998953024493616,-3.1458290258990687
-0.8214781920062464,-2.6965487639056605,-1.054061237965719,-0.92383319536318,-1.600051228200094,-3.1458409468280237
-0.821441952382223,-2.6960094610797327,-1.0553448835956019,-0.923042122517721,-1.5998833815204065,-3.145769182835714
-0.8214781920062464,-2.6954343954669397,-1.0566051642047327,-0.9223583380328577,-1.5999792257892054,-3.1457930246936243
-0.821453873311178,-2.6943557898150843,-1.059101406727926,-0.9209197203265589,-1.599823300038473,-3.1457210222827356
-0.821441952382223,-2.69382888475527,-1.0603488127337855,-0.9202244917498987,-1.6000273863421839,-3.1456731001483362
-0.8214901129352015,-2.6932175795184534,-1.0616210142718714,-0.9194930235492151,-1.5998714605914515,-3.1457091013537806
-0.8214781920062464,-2.6926901976214808,-1.0628212133990687,-0.9187615553485315,-1.5998714605914515,-3.14573318163027
-0.8215377966510218,-2.6916001478778284,-1.0652573744403284,-0.9173224608050745,-1.5998595396624964,-3.1456731001483362
-0.8215139547931116,-2.691096607838766,-1.0664814154254358,-0.9166510740863245,-1.5999673048602503,-3.145661179219381
-0.8215497175799769,-2.6905811468707483,-1.0677169005023401,-0.9159196058856409,-1.5999072233783167,-3.145637337361471
-0.8215740362750452,-2.690054241810934,-1.0689414183246058,-0.9152005354510706,-1.5998595396624964,-3.1455894152270716
-0.8216093222247522,-2.689035240803854,-1.071449104939596,-0.9138572851764124,-1.5998113791095179,-3.1456013361560267
-0.8216093222247522,-2.688472096120016,-1.0726493040667933,-0.9131258169757288,-1.5999072233783167,-3.1455894152270716
-0.8216574827777308,-2.687932793294088,-1.0738614241229456,-0.9124425093280237,-1.5998953024493616,-3.1455653349505823
-0.8216574827777308,-2.687429730092184,-1.0751813093768519,-0.9117229620562952,-1.599823300038473,-3.1455417315112513
-0.8216694037066858,-2.6863988081561487,-1.077677075062887,-0.9103801886187952,-1.5997994581805628,-3.145517889653341
-0.8216813246356409,-2.685920063649313,-1.0789855162249964,-0.9096482435809534,-1.5998953024493616,-3.1454339663134974
-0.8217051664935511,-2.68539268175234,-1.0802090803729456,-0.9088934103595179,-1.5998953024493616,-3.145409886037008
-0.8217294851886194,-2.6848891417132776,-1.0814693609820765,-0.9082096258746546,-1.5997994581805628,-3.145421806965963
-0.8217533270465296,-2.683786694203512,-1.084073845540182,-0.9068186918841761,-1.5997636953936976,-3.145397965108053
-0.8217652479754847,-2.6832597891436976,-1.0853093306170862,-0.9060633818255823,-1.599823300038473,-3.1454339663134974
-0.8217652479754847,-2.6826847235309046,-1.0865939299212855,-0.9053681532489222,-1.5999072233783167,-3.145409886037008
-0.8218010107623499,-2.6821091810809534,-1.087829891835348,-0.9046366850482386,-1.5997636953936976,-3.1453381220446985
-0.8217890898333948,-2.681006733571188,-1.090313736592428,-0.9032815138446253,-1.5997875372516077,-3.1453140417682093
-0.8218253294574183,-2.6804197470294397,-1.091609303151266,-0.9024422804461878,-1.599715534840719,-3.1453140417682093
-0.8218491713153284,-2.679868523274557,-1.0928576628314417,-0.9017584959613245,-1.5998595396624964,-3.145302120839254
-0.8218610922442835,-2.679389301930563,-1.094057861958639,-0.901015583668844,-1.5996916929828089,-3.145254198704855
-0.8218849341021937,-2.6782148520099085,-1.0966256300555628,-0.899576489125387,-1.599823300038473,-3.1452420393573206
-0.8218968550311487,-2.6776636282550257,-1.0978735128985804,-0.8987968603717249,-1.5996678511248987,-3.1452301184283655
-0.821909252797262,-2.6771367231952112,-1.0991337935077112,-0.8980539480792444,-1.5998595396624964,-3.1452181974994105
-0.8219688574420374,-2.6765854994403284,-1.1004660765277308,-0.8972743193255823,-1.5996916929828089,-3.1452420393573206
-0.8219688574420374,-2.6754587332354944,-1.102985684071676,-0.8958471457110804,-1.5997994581805628,-3.1451342741595667
-0.8219569365130823,-2.6748960653888147,-1.104245964680807,-0.8950803915606897,-1.5996196905719202,-3.1451223532306116
-0.8219931761371058,-2.6743443647967737,-1.1055415312396448,-0.894360367451803,-1.5997517744647425,-3.1451101938830774
-0.8219807783709925,-2.6738413015948694,-1.1067898909198206,-0.8936532179461878,-1.5997274557696741,-3.1450143496142786
-0.8220050970660608,-2.6727269331561487,-1.109417740498678,-0.8922622839557093,-1.5997517744647425,-3.1450863520251673
-0.8220647017108362,-2.6722000280963343,-1.1106541792498987,-0.8915308157550257,-1.5996077696429651,-3.145074431096212
-0.8220527807818812,-2.6716607252704065,-1.1119735876666468,-0.8908231894122522,-1.5996797720538538,-3.145050350819723
-0.8220766226397913,-2.671133343373434,-1.113270107899801,-0.8900201956378382,-1.5997756163226526,-3.1449549833880823
-0.8221605459796351,-2.6700065771686,-1.115730110798971,-0.8886531035052698,-1.5997393766986292,-3.1449785868274134
-0.82214862505068,-2.6694558302508753,-1.1170137564288538,-0.8879578749286097,-1.5996559301959437,-3.1449905077563685
-0.82214862505068,-2.6689165274249476,-1.1182258764850062,-0.8871906439410608,-1.59959584871401,-3.144907061253683
-0.8221605459796351,-2.6683056990252894,-1.1194737593280237,-0.886446777974264,-1.5997994581805628,-3.144907061253683
-0.8221367041217249,-2.6671913305865687,-1.1219576040851038,-0.8850563208209437,-1.599715534840719,-3.1448949019061487
-0.8221729437457483,-2.6666281859027308,-1.1232059637652796,-0.8844321409808558,-1.5996916929828089,-3.1448949019061487
-0.8221605459796351,-2.6661251227008265,-1.1244538466082972,-0.883676830922262,-1.5996435324298304,-3.1448710600482386
-0.8222206274615687,-2.665621582661764,-1.1256535688983362,-0.8829816023456019,-1.5997875372516077,-3.1448589007007044
-0.8222444693194788,-2.664567295704977,-1.1282218138324183,-0.8815544287310999,-1.599703613911764,-3.144787136708395
-0.8222563902484339,-2.6640518347369593,-1.1294339338885706,-0.8808830420123499,-1.5997636953936976,-3.1447752157794397
-0.8222807089435022,-2.663452927266256,-1.1307418982135218,-0.8801520506488245,-1.5996196905719202,-3.1447630564319056
-0.8222687880145472,-2.6629374662982386,-1.1319778601275843,-0.8793962637530726,-1.5997994581805628,-3.1447511355029505
-0.8223164717303675,-2.6618831793414515,-1.1344860235797327,-0.8779938856707972,-1.5997274557696741,-3.1447272936450403
-0.8222926298724573,-2.6613438765155237,-1.1357577482806605,-0.8772624174701136,-1.5997517744647425,-3.144715134297506
-0.8223283926593226,-2.660828415547506,-1.1370418707477015,-0.876434628163473,-1.5996196905719202,-3.1447272936450403
-0.8224003950702112,-2.6602891127215784,-1.1382659117328089,-0.8758109251605433,-1.599823300038473,-3.1446672121631067
-0.8223765532123011,-2.6592825094806116,-1.1408217589007776,-0.8743603865252894,-1.5996678511248987,-3.1446433703051966
-0.8224123159991663,-2.658719841633932,-1.1420577208148401,-0.8736527601825159,-1.5997393766986292,-3.1446312109576624
-0.8224123159991663,-2.6581924597369593,-1.1433900038348597,-0.8729098478900355,-1.5995596090899866,-3.1446672121631067
-0.8224242369281214,-2.6576412359820765,-1.1446378866778772,-0.8722503821002405,-1.5997393766986292,-3.1446312109576624
-0.8224242369281214,-2.6565268675433558,-1.147181812916891,-0.870763127003805,-1.5996077696429651,-3.1446073690997522
-0.8224242369281214,-2.655951801930563,-1.1484416166888636,-0.8699963728534144,-1.599703613911764,-3.1445234457599085
-0.8224485556231897,-2.65542442003359,-1.1496894995318812,-0.8692763487445276,-1.5995596090899866,-3.1445234457599085
-0.822484318410055,-2.654849354420797,-1.150937859212057,-0.8685687224017542,-1.5996559301959437,-3.1445234457599085
-0.8225081602679651,-2.653818432484762,-1.1534574667560022,-0.8670943419085901,-1.5995238463031214,-3.1445234457599085
-0.8225081602679651,-2.653315846120016,-1.1546815077411097,-0.8663986364947718,-1.5996916929828089,-3.1445115248309534
-0.8225324789630335,-2.6528008619891565,-1.1559293905841272,-0.8656910101519983,-1.5995119253741663,-3.144463841115133
-0.8225200811969202,-2.652273480092184,-1.1570094267474573,-0.8649480978595179,-1.5995720068561,-3.144463841115133
-0.8225801626788538,-2.65114671388735,-1.1596854368792933,-0.8635447661029261,-1.5995357672320765,-3.1444278399096888
-0.8225682417498987,-2.6506078878985804,-1.1609576384173792,-0.8627541700946253,-1.59959584871401,-3.144439999257223
-0.8226402441607874,-2.6500566641436976,-1.1621936003314417,-0.8620699087726038,-1.5996077696429651,-3.1444039980517786
-0.8225801626788538,-2.6494935194598597,-1.1634414831744593,-0.8613985220538538,-1.5995000044452112,-3.144356075917379
-0.8226283232318323,-2.648486916218893,-1.1659014860736292,-0.8599355856524866,-1.5995357672320765,-3.14433199564089
-0.8226760069476526,-2.647923771535055,-1.1671612898456019,-0.8592165152179163,-1.5995596090899866,-3.1442962328540247
-0.8226640860186976,-2.6473844687091272,-1.1685174147235315,-0.858520809804098,-1.5995720068561,-3.14430815378298
-0.8226760069476526,-2.646881405507223,-1.1698134581195276,-0.8578136602984827,-1.5994160811053675,-3.1442962328540247
-0.8226998488055628,-2.645742718373434,-1.1723211447345179,-0.8563626448260706,-1.5995000044452112,-3.1442602316485804
-0.8227360884295862,-2.6451919714557093,-1.1736052672015589,-0.8555954138385218,-1.5995357672320765,-3.144236151372091
-0.8227360884295862,-2.6446407477008265,-1.1748893896686,-0.8549359480487269,-1.5996196905719202,-3.1441522280322474
-0.8227241675006312,-2.6440895239459437,-1.1761134306537073,-0.85419208208193,-1.5994399229632776,-3.1441643873797815
-0.8227837721454065,-2.6429155508624476,-1.1786568800555628,-0.8527534643756312,-1.599583927785055,-3.1441763083087366
-0.8227837721454065,-2.6423643271075647,-1.1798933188067835,-0.8520339171039026,-1.5994399229632776,-3.1441882292376917
-0.8227956930743616,-2.641825024281637,-1.1811531225787562,-0.8513506094561976,-1.5996435324298304,-3.144212309514181
-0.8227837721454065,-2.6412857214557093,-1.1823890844928187,-0.8506196180926722,-1.5994637648211878,-3.144116465245382
-0.82282001176943,-2.640207592641012,-1.1848729292498987,-0.8491681257831019,-1.5995119253741663,-3.1441522280322474
-0.8228676954852503,-2.639656368886129,-1.1861327330218714,-0.8484614531146448,-1.5993922392474573,-3.144080464039938
-0.8229039351092737,-2.6391528288470667,-1.187272850667135,-0.8478134314166468,-1.5995119253741663,-3.1440685431109827
-0.8228676954852503,-2.6385777632342737,-1.1885212103473108,-0.8470338026629847,-1.5992963949786585,-3.1440563837634485
-0.8229039351092737,-2.637463394795553,-1.1909926573382776,-0.8455832640277308,-1.5994399229632776,-3.1440563837634485
-0.8228920141803187,-2.6369240919696253,-1.1922286192523401,-0.8448875586139124,-1.5993321577655237,-3.144020382558004
-0.8229158560382288,-2.6363967100726526,-1.1934645811664026,-0.8442285696612757,-1.5995000044452112,-3.144020382558004
-0.8229277769671839,-2.635857407246725,-1.1947248617755335,-0.8434494177447718,-1.599367920552389,-3.143996540700094
-0.8229997793780726,-2.634779755269186,-1.1973164717303675,-0.8420584837542933,-1.5995000044452112,-3.1439605394946497
-0.8229878584491175,-2.634252373372213,-1.1985881964312952,-0.8413627783404749,-1.5993440786944788,-3.1439366976367396
-0.8230355421649378,-2.633737389241354,-1.1999085585223597,-0.8406670729266565,-1.5995119253741663,-3.1439486185656946
-0.8230117003070276,-2.6332338492022913,-1.2011926809894007,-0.8399236837970179,-1.5993440786944788,-3.1439366976367396
-0.823059384022848,-2.6320837179767054,-1.2037962118731897,-0.8384845892535608,-1.599476162587301,-3.1438890139209192
-0.8230717817889612,-2.631460491810934,-1.2050684134112757,-0.8377292791949671,-1.5993559996234339,-3.143853012715475
-0.8230837027179163,-2.630921188985006,-1.2063520590411585,-0.8369982878314417,-1.5995238463031214,-3.143877092991964
-0.8230717817889612,-2.6303818861590784,-1.2076237837420862,-0.8362310568438929,-1.5993922392474573,-3.1438890139209192
-0.8231433073626917,-2.62937575975527,-1.2102044264422815,-0.8347561995135706,-1.5994280020343226,-3.143877092991964
-0.8231671492206019,-2.6287763754474085,-1.2114155928241175,-0.8340728918658655,-1.599379841481344,-3.143877092991964
-0.8232029120074671,-2.6282857100116175,-1.2126639525042933,-0.83325702348818,-1.5995000044452112,-3.143769089375631
-0.8231552282916468,-2.6277340094195765,-1.2139361540423792,-0.83258563676943,-1.599379841481344,-3.143757168446676
-0.8231790701495569,-2.626655880604879,-1.2164319197284144,-0.831146542225973,-1.5993440786944788,-3.143733326588766
-0.8232510725604456,-2.6261046568499964,-1.217679802571432,-0.8304393927203577,-1.5994041601764124,-3.1437211672412317
-0.8232148329364222,-2.6255772749530237,-1.2188919226275843,-0.8297084013568323,-1.5994518438922327,-3.1437211672412317
-0.8232148329364222,-2.6249902884112757,-1.2201274077044886,-0.8289645353900355,-1.5993321577655237,-3.1436973253833216
-0.8232510725604456,-2.6239121595965784,-1.2226594130145472,-0.8275259176837366,-1.5993922392474573,-3.1436613241778772
-0.8232868353473108,-2.623432461415426,-1.2239072958575647,-0.8268063704120081,-1.5994280020343226,-3.1435893217669886
-0.8233230749713343,-2.622941319142477,-1.2251313368426722,-0.8260749022113245,-1.599476162587301,-3.1435654799090784
-0.8233469168292444,-2.6224024931537073,-1.226403538380758,-0.8253796736346644,-1.5993083159076136,-3.1435774008380335
-0.8233588377581995,-2.6213834921466272,-1.228874985371725,-0.8239525000201624,-1.5993440786944788,-3.143529478703634
-0.8233707586871546,-2.6207969824420374,-1.230159107838766,-0.8233173529254358,-1.599367920552389,-3.143529478703634
-0.8233707586871546,-2.6202457586871546,-1.2314675490008753,-0.8225019613849085,-1.5993922392474573,-3.1434815565692347
-0.8233469168292444,-2.619718376790182,-1.232751194630758,-0.8218658606158655,-1.599236313496725,-3.1434577147113245
-0.8233826796161097,-2.618591610585348,-1.2352588812457483,-0.82043964067568,-1.5993559996234339,-3.143505636845724
-0.8234065214740198,-2.6180289427386683,-1.2365430037127894,-0.8197439352618616,-1.599236313496725,-3.1434696356402796
-0.8234065214740198,-2.6175134817706507,-1.2378142515765589,-0.8189886252032679,-1.5994041601764124,-3.1434577147113245
-0.8233946005450647,-2.6169384161578577,-1.2390502134906214,-0.8183768431292933,-1.5992000738727015,-3.143409792576925
-0.8234785238849085,-2.615919891987936,-1.2416070143329065,-0.8169143835650843,-1.5993440786944788,-3.1433616320239466
-0.8234904448138636,-2.6153691450702112,-1.2428901831256312,-0.8161829153644007,-1.5992243925677698,-3.1433497110949915
-0.8235147635089319,-2.6148417631732386,-1.2440903822528284,-0.815439526234762,-1.5993922392474573,-3.143290106450216
-0.8234785238849085,-2.6142666975604456,-1.2453625837909144,-0.8147080580340784,-1.5992000738727015,-3.143278185521261
-0.8235505262957972,-2.613152329121725,-1.2479537169085901,-0.8132689634906214,-1.599379841481344,-3.1432421843158167
-0.8235505262957972,-2.612613026295797,-1.2491057554828089,-0.8125260511981409,-1.5992243925677698,-3.1432302633868616
-0.8235624472247522,-2.6120498816119593,-1.2503779570208948,-0.8117945829974573,-1.5993321577655237,-3.1432183424579065
-0.8235862890826624,-2.6115224997149866,-1.2516616026507776,-0.8110511938678187,-1.5993083159076136,-3.1432183424579065
-0.8236468474017542,-2.6104682127581995,-1.2541454474078577,-0.8096721808062952,-1.5993440786944788,-3.1431942621814173
-0.8236349264727991,-2.6098693052874964,-1.255441967641012,-0.8089407126056116,-1.5991643110858362,-3.1432064215289515
-0.8236826101886194,-2.609354321156637,-1.2566779295550745,-0.808209244404928,-1.5993440786944788,-3.143170420323507
-0.8236587683307093,-2.608778778706686,-1.2580331007586878,-0.8074420134173792,-1.59924823442568,-3.143170420323507
-0.8236826101886194,-2.6076529661761683,-1.2605050245868128,-0.8059795538531702,-1.5992720762835901,-3.143062416707174
-0.8236945311175745,-2.6071012655841272,-1.2617772261248987,-0.8051999250995081,-1.599140469227926,-3.143062416707174
-0.8236945311175745,-2.6065261999713343,-1.2630370298968714,-0.8044560591327112,-1.5992720762835901,-3.1430745760547083
-0.8237188498126429,-2.6059873739825647,-1.2643092314349573,-0.8037732283221644,-1.5992000738727015,-3.1430745760547083
-0.8237665335284632,-2.604861084614889,-1.2668049971209925,-0.8022859732257288,-1.5992963949786585,-3.1430025736438196
-0.8237546125995081,-2.6043217817889612,-1.2680886427508753,-0.8015788237201136,-1.5991042296039026,-3.1429906527148646
-0.823742691670553,-2.6037824789630335,-1.2693608442889612,-0.8008592764483851,-1.5992720762835901,-3.1428831259356897
-0.8237903753863733,-2.6032074133502405,-1.2706683317767542,-0.8001397291766565,-1.5992000738727015,-3.1429429689990442
-0.8238385359393519,-2.6021769682513636,-1.273224178944723,-0.7986410299884241,-1.5992720762835901,-3.1428712050067347
-0.8238146940814417,-2.601650063191549,-1.2744839827166956,-0.7980411688434046,-1.5991523901568812,-3.1427395979510706
-0.8238504568683069,-2.601146999989645,-1.2757085005389612,-0.7973344961749476,-1.59924823442568,-3.14276367822756
-0.8238385359393519,-2.6005833784686487,-1.2769439856158655,-0.7966025511371058,-1.5992000738727015,-3.142691675816671
-0.8238866964923304,-2.5995290915118616,-1.2793915907489222,-0.7951162497149866,-1.5992963949786585,-3.142679754887716
-0.8238866964923304,-2.5989659468280237,-1.280651871358053,-0.7944319883929651,-1.599140469227926,-3.1426199118243616
-0.8238866964923304,-2.5984748045550745,-1.2819116751300257,-0.7936890761004847,-1.5992963949786585,-3.1427038351642054
-0.8238986174212855,-2.5979235808001917,-1.283135716115133,-0.7929576078998011,-1.599140469227926,-3.1426077524768274
-0.8239463011371058,-2.596869770680563,-1.2856910864459437,-0.7915666739093226,-1.5992720762835901,-3.142655674611227
-0.8239463011371058,-2.59634238878359,-1.2869389692889612,-0.7909072081195276,-1.5990803877459925,-3.142524067555563
-0.8239701429950159,-2.595766846333639,-1.288187328969137,-0.7901161352740687,-1.5993321577655237,-3.1425958315478724
-0.8240063826190394,-2.5952275435077112,-1.2894232908831995,-0.7894328276263636,-1.599128548298971,-3.142571989689962
-0.8239944616900843,-2.5941017309771937,-1.2919791380511683,-0.7880056540118616,-1.5991762320147913,-3.142571989689962
-0.8240063826190394,-2.5935261885272425,-1.2932146231280726,-0.7872980276690882,-1.5991523901568812,-3.142463986073629
-0.8240421454059046,-2.592963520680563,-1.2945225874530237,-0.7865307966815394,-1.5992243925677698,-3.1424999872790735
-0.8240903059588831,-2.592424217854635,-1.2957704702960413,-0.7858951727496546,-1.5990327040301722,-3.142547909413473
-0.8240903059588831,-2.591405693684713,-1.2983620802508753,-0.7844446341144007,-1.599140469227926,-3.142547909413473
-0.8241499106036585,-2.590890709553854,-1.2996099630938929,-0.7837489287005823,-1.5991643110858362,-3.1424761454211634
-0.8241379896747034,-2.590351406727926,-1.3008940855609339,-0.7830174604998987,-1.5991762320147913,-3.142440144215719
-0.8241742292987269,-2.5898240248309534,-1.3021662870990198,-0.7823460737811487,-1.5990803877459925,-3.1424761454211634
-0.8241379896747034,-2.5887582937823694,-1.3047211805926722,-0.7809198538409632,-1.5990083853351038,-3.1424041430102747
-0.8241861502276819,-2.5882070700274866,-1.3059452215777796,-0.7801879088031214,-1.5991523901568812,-3.142463986073629
-0.824198071156637,-2.587667767201559,-1.3072055021869105,-0.7794087568866175,-1.5991643110858362,-3.14234429994692
-0.8241861502276819,-2.587116066609518,-1.308441464100973,-0.778785530720846,-1.5990803877459925,-3.142427984868185
-0.8242581526385706,-2.586109463368551,-1.310937229787008,-0.7773702780352991,-1.5990565458880823,-3.1422727743731897
-0.8242819944964808,-2.5855706373797815,-1.3121369520770472,-0.7765911261187952,-1.5991762320147913,-3.142332140599386
-0.8242099920855921,-2.585019890462057,-1.3133962790118616,-0.7758591810809534,-1.5991042296039026,-3.1422606150256556
-0.8243296782123011,-2.584480587636129,-1.3146446386920374,-0.775128189717428,-1.5990446249591272,-3.142296377812521
-0.8243058363543909,-2.58334190050234,-1.3171518484698694,-0.7736290136920374,-1.5990083853351038,-3.142200771962301
-0.8242939154254358,-2.5827673117267054,-1.318376366292135,-0.7728021780597132,-1.599116627370016,-3.142296377812521
-0.8243296782123011,-2.582191769276754,-1.3196361700641077,-0.7721784750567835,-1.5990327040301722,-3.1422367731677454
-0.824317757283346,-2.581592861806051,-1.3209202925311487,-0.7713988463031214,-1.5989845434771937,-3.1422486940967005
-0.8243420759784144,-2.5804908911334437,-1.3234394232379358,-0.7699244658099573,-1.5989845434771937,-3.142188851033346
-0.8243778387652796,-2.579939667378561,-1.3246997038470667,-0.7691686789142054,-1.5990565458880823,-3.1422486940967005
-0.8243659178363245,-2.5794242064105433,-1.3260071913348597,-0.7684739271747034,-1.5990565458880823,-3.142188851033346
-0.8244016806231897,-2.5788849035846155,-1.3272550741778772,-0.7677424589740198,-1.5988886992083948,-3.1421049276935022
-0.8244136015521448,-2.577771011983053,-1.3297508398639124,-0.7663152853595179,-1.5989487806903284,-3.1421287695514124
-0.8244259993182581,-2.5772317091571253,-1.3310468832599085,-0.7655599753009241,-1.5989487806903284,-3.1421287695514124
-0.8244498411761683,-2.5766685644732874,-1.332294766102926,-0.7649243513690394,-1.5990803877459925,-3.142212692891256
-0.8244736830340784,-2.5761411825763147,-1.3335908094989222,-0.7641571203814905,-1.59890062013735,-3.1421409288989466
-0.8245094458209437,-2.5750272909747522,-1.3361700216876429,-0.7627185026751917,-1.5989487806903284,-3.1421409288989466
-0.8244617621051233,-2.5744884649859827,-1.3373339811908167,-0.7619870344745081,-1.598912541066305,-3.1420450846301478
-0.8244617621051233,-2.573973004017965,-1.3385699431048792,-0.7612913290606897,-1.5990327040301722,-3.142080847417013
-0.8245456854449671,-2.5734217802630823,-1.3398178259478968,-0.7605841795550745,-1.598912541066305,-3.1420329252826136
-0.8245695273028772,-2.572367493306295,-1.342313591633932,-0.7592175642596644,-1.59892446199526,-3.1420329252826136
-0.8245933691607874,-2.5718520323382776,-1.3435609976397913,-0.7584856192218226,-1.59892446199526,-3.141961161290304
-0.8245933691607874,-2.57131272951235,-1.3448212782489222,-0.7578380743609827,-1.5990203062640589,-3.141961161290304
-0.8246052900897425,-2.5707619825946253,-1.3460691610919397,-0.7570832411395472,-1.5988767782794397,-3.1419969240771692
-0.8246415297137659,-2.5696476141559046,-1.3486126104937952,-0.7557161490069788,-1.5988767782794397,-3.141961161290304
-0.8246176878558558,-2.569096390401022,-1.349872891102926,-0.7550085226642054,-1.59890062013735,-3.1419132391559046
-0.8246415297137659,-2.568533245717184,-1.351072136555807,-0.7543252150165003,-1.5989726225482386,-3.141757313405172
-0.8247130552874964,-2.567993942891256,-1.3523204962359827,-0.7535460630999964,-1.5988410154925745,-3.141841236745016
-0.8247368971454065,-2.5669401327716272,-1.3548758665667933,-0.7521069685565394,-1.5988767782794397,-3.141733471547262
-0.8247130552874964,-2.5664127508746546,-1.356135670338766,-0.7513755003558558,-1.5988410154925745,-3.1417933146106165
-0.8247249762164515,-2.5659216086017054,-1.3574917952166956,-0.7506559530841272,-1.5989726225482386,-3.1416738669024866
-0.8247488180743616,-2.5653942267047327,-1.3587754408465784,-0.7499368826495569,-1.598804775868551,-3.141721312199728
-0.82477313676943,-2.56425649324526,-1.3612950483905237,-0.7485697905169886,-1.5988648573504847,-3.1416497866259974
-0.82477313676943,-2.5637648741351526,-1.362603012715475,-0.7478144804583948,-1.5988166967975062,-3.141721312199728
-0.82477313676943,-2.5632017294513147,-1.363802735005514,-0.7471430937396448,-1.5989607016192835,-3.1416619459735315
-0.8247969786273401,-2.562674347554342,-1.365086857472555,-0.7464354673968714,-1.5987804571734827,-3.1416619459735315
-0.8248327414142054,-2.56165582338442,-1.3675583044635218,-0.7448886076556605,-1.5988648573504847,-3.1416497866259974
-0.8248689810382288,-2.5610931555377405,-1.36890155473818,-0.7442897001849573,-1.5988286177264612,-3.1416619459735315
-0.8248809019671839,-2.560565773640768,-1.3701499144183558,-0.74347430864443,-1.59892446199526,-3.141721312199728
-0.8249166647540491,-2.5600627104388636,-1.37136155763735,-0.7427662054644983,-1.598804775868551,-3.141625944768087
-0.8249529043780726,-2.5590441862689417,-1.3738692442523401,-0.7413519064532679,-1.5988529364215296,-3.1416378656970423
-0.8248809019671839,-2.558469597493307,-1.3751052061664026,-0.7406204382525843,-1.5987685362445276,-3.141614023839132
-0.824904743825094,-2.557906452809469,-1.376352612172262,-0.7398889700519007,-1.5988648573504847,-3.1416497866259974
-0.8249767462359827,-2.557330910359518,-1.3775528112994593,-0.7391694227801722,-1.5987923781024378,-3.1415420214282435
-0.8249767462359827,-2.5561683813678187,-1.3800128141986292,-0.7377308050738733,-1.5988767782794397,-3.1415658632861536
-0.825012509022848,-2.555605713521139,-1.3812721411334437,-0.7370112578021448,-1.598696533833639,-3.141517941151754
-0.825012509022848,-2.5551026503192347,-1.3825562636004847,-0.7362201849566858,-1.5988767782794397,-3.141601864491598
-0.8250725905047815,-2.554539505635397,-1.3838275114642542,-0.7355483214007776,-1.5987685362445276,-3.141494099293844
-0.8250363508807581,-2.5534489790545862,-1.3862875143634241,-0.734133545552389,-1.5988529364215296,-3.1415420214282435
-0.8250606695758265,-2.552922073994772,-1.387583080922262,-0.7333663145648401,-1.5986846129046839,-3.141362253819601
-0.8251202742206019,-2.552358929310934,-1.388879124318258,-0.7325871626483362,-1.5988166967975062,-3.141398255025045
-0.8251202742206019,-2.551819626485006,-1.3901622931109827,-0.7318914572345179,-1.5987685362445276,-3.141386095677511
-0.8250964323626917,-2.5507290999041956,-1.3926942984210413,-0.7304766813861292,-1.5988767782794397,-3.141350332890646
-0.8250845114337366,-2.550166432057516,-1.3939903418170374,-0.7297332922564905,-1.5987327734576624,-3.141266409550802
-0.8251326719867151,-2.549615208302633,-1.3953455130206507,-0.7290261427508753,-1.5988410154925745,-3.1413024107562464
-0.8251922766314905,-2.5490639845477503,-1.39665395418276,-0.7283065954791468,-1.598804775868551,-3.141278330479757
-0.825240437184469,-2.548009697590963,-1.3991735617267054,-0.7268555800067347,-1.5988529364215296,-3.141278330479757
-0.8252041975604456,-2.547506634389059,-1.4003971258746546,-0.7261841932879847,-1.598708454762594,-3.1411948839770716
-0.8252642790423792,-2.546919647847311,-1.4016450087176722,-0.7254770437823694,-1.5987804571734827,-3.1412068049060267
-0.825240437184469,-2.546380345021383,-1.4029167334186,-0.7247455755816858,-1.5988410154925745,-3.1411948839770716
-0.825228516255514,-2.5452540556537073,-1.4054601828204554,-0.7233546415912073,-1.5988529364215296,-3.141110960637228
-0.8252642790423792,-2.5446789900409144,-1.4066837469684046,-0.7226231733905237,-1.598696533833639,-3.141122881566183
-0.8252523581134241,-2.5441039244281214,-1.4079082647906702,-0.7219398657428187,-1.5987203756915491,-3.1410749594317835
-0.8253124395953577,-2.5435288588153284,-1.40920335451235,-0.7211483160602015,-1.5987446943866175,-3.1411588827716272
-0.8253720442401331,-2.5424745718585413,-1.411675278340475,-0.7197817007647913,-1.5987804571734827,-3.1410749594317835
-0.8253839651690882,-2.5419352690326136,-1.412886921559469,-0.7190020720111292,-1.598708454762594,-3.1410868803607386
-0.8254082838641565,-2.541408363972799,-1.4141352812396448,-0.7183306852923792,-1.5986245314227503,-3.1409552733050745
-0.8254202047931116,-2.5408929030047815,-1.415370289479391,-0.7175629774676722,-1.5987923781024378,-3.141038958226339
-0.8254321257220667,-2.539779011403219,-1.4178903738604944,-0.7162326017962855,-1.5987203756915491,-3.141003195439474
-0.8253839651690882,-2.5392516295062464,-1.4191740194903772,-0.7154653708087366,-1.5987685362445276,-3.1409791151629847
-0.8253958860980433,-2.538724724446432,-1.4204571882831019,-0.7147935072528284,-1.598564926777975,-3.1408713499652308
-0.8253958860980433,-2.5381973425494593,-1.4217537085162562,-0.7140262762652796,-1.5987923781024378,-3.1409671942340296
-0.825479809437887,-2.537143055592672,-1.42432147661318,-0.7125752607928675,-1.5986726919757288,-3.1408353487597864
-0.8255041281329554,-2.536628071461813,-1.4255808035479944,-0.7118080298053187,-1.5987327734576624,-3.1409910360919397
-0.8255398909198206,-2.53607684770693,-1.4268644491778772,-0.7110527197467249,-1.5986006895648401,-3.1408234278308313
-0.8255041281329554,-2.5355618635760706,-1.42812425294985,-0.7102974096881312,-1.598708454762594,-3.1408713499652308
-0.8255518118487757,-2.5345309416400355,-1.4306796232806605,-0.7088702360736292,-1.598588768635885,-3.140775505696432
-0.8255518118487757,-2.5339201132403772,-1.4319399038897913,-0.7081392447101038,-1.5987566153155726,-3.1408353487597864
-0.8255398909198206,-2.533393208180563,-1.4331992308246058,-0.7074201742755335,-1.5986006895648401,-3.140787426625387
-0.8255398909198206,-2.5328062216388147,-1.4344704786883753,-0.7066281477557581,-1.5986726919757288,-3.1407273451434534
-0.8256238142596644,-2.5317395369159144,-1.4369304815875452,-0.705261532460348,-1.59857684770693,-3.1407154242144983
-0.8256238142596644,-2.5311530272113245,-1.4381426016436976,-0.7045539061175745,-1.5987685362445276,-3.1407514254199427
-0.8256238142596644,-2.5305774847613733,-1.439390007649557,-0.7037747542010706,-1.5986488501178187,-3.140787426625387
-0.8256238142596644,-2.530062500630514,-1.4406498114215296,-0.7030795256244105,-1.5986726919757288,-3.140691582356588
-0.8256595770465296,-2.5290196577655237,-1.443193260823385,-0.7016404310809534,-1.5985530058490198,-3.1407035032855433
-0.825695816670553,-2.5284693876849573,-1.4444411436664026,-0.7009332815753382,-1.598696533833639,-3.140643898640768
-0.8257196585284632,-2.5279181639300745,-1.4457247892962855,-0.7001898924456995,-1.598588768635885,-3.140667502080099
-0.8257077375995081,-2.527378861104147,-1.4469965139972132,-0.6995061079608362,-1.5985530058490198,-3.140667502080099
-0.8257315794574183,-2.5263002554522913,-1.4494922796832483,-0.6981032530414026,-1.5985406080829065,-3.1407273451434534
-0.8257315794574183,-2.525761429463522,-1.450764004384176,-0.6974204222308558,-1.5986126104937952,-3.1405840555774134
-0.8258035818683069,-2.5252583662616175,-1.4520114103900355,-0.6966770331012171,-1.5986245314227503,-3.140536133443014
-0.8257554213153284,-2.524730984364645,-1.4533074537860315,-0.696029011403219,-1.5984810034381312,-3.1406078974353235
-0.8258274237262171,-2.5236647764789026,-1.455838982258932,-0.6946266333209437,-1.59857684770693,-3.140524212514059
-0.825815502797262,-2.523137871419088,-1.457146469746725,-0.6938951651202601,-1.5984929243670862,-3.1405721346484583
-0.8258035818683069,-2.5226224104510706,-1.4584420363055628,-0.6931636969195765,-1.5986726919757288,-3.140428129826681
-0.8258393446551722,-2.5220592657672327,-1.4596660772906702,-0.6925166288958948,-1.5984810034381312,-3.140524212514059
-0.8258755842791956,-2.5209692160235804,-1.462149445210592,-0.6910293737994593,-1.598564926777975,-3.1403682867633265
-0.8258755842791956,-2.5203822294818323,-1.4633610884295862,-0.690310303364889,-1.598469082509176,-3.1404641310321253
-0.8259113470660608,-2.519794766102926,-1.4645846525775355,-0.689554516469137,-1.5986364523517054,-3.140428129826681
-0.8259113470660608,-2.5192554632769983,-1.465844456349508,-0.6888955275165003,-1.5984929243670862,-3.1403923670398157
-0.8259475866900843,-2.5181172529803675,-1.4683402220355433,-0.6873725096331995,-1.59857684770693,-3.140332285557882
-0.8259475866900843,-2.517566506062643,-1.469611946736471,-0.6865933577166956,-1.5984209219561976,-3.1403444449054163
-0.8259833494769495,-2.51703912416567,-1.4708355108844202,-0.6859219709979456,-1.5986006895648401,-3.1403682867633265
-0.8260191122638147,-2.5165002981769007,-1.4720709959613245,-0.6852381865130823,-1.5985406080829065,-3.1402245203601282
-0.8259952704059046,-2.51540977159609,-1.47461444536318,-0.6837995688067835,-1.5986126104937952,-3.1402843634234827
-0.8260434309588831,-2.5148947874652308,-1.4758260885821741,-0.6830080191241663,-1.5984090010272425,-3.140176598225729
-0.8260553518878382,-2.5143078009234827,-1.4770625273333948,-0.6823728720294397,-1.5985286871539515,-3.1402483622180384
-0.826031510029928,-2.513744656239645,-1.4783456961261194,-0.6815813223468226,-1.5986006895648401,-3.140200440083639
-0.8260434309588831,-2.5126660505877894,-1.4809015432940882,-0.6801546255694788,-1.5985530058490198,-3.1402364412890833
-0.8260553518878382,-2.512103859578268,-1.4821608702289026,-0.6793749968158167,-1.5984929243670862,-3.1401405970202845
-0.8260911146747034,-2.5116360823260706,-1.4834325949298304,-0.67871600786318,-1.5984209219561976,-3.1401286760913294
-0.8260791937457483,-2.5110610167132776,-1.4845965544330042,-0.6779363791095179,-1.598588768635885,-3.140176598225729
-0.8261635939227503,-2.5100186506854456,-1.4872477690326136,-0.6765096823321741,-1.5985167662249964,-3.140092674885885
-0.8261516729937952,-2.5095036665545862,-1.4885314146624964,-0.675814453755514,-1.5985406080829065,-3.140116516743795
-0.8261392752276819,-2.508916680012838,-1.4898150602923792,-0.6751306692706507,-1.5983970800982874,-3.1399970690356653
-0.8261755148517054,-2.5083892981158655,-1.4910629431353968,-0.6743271986590784,-1.59857684770693,-3.1401286760913294
-0.8262108008014124,-2.5072510878192347,-1.4936183134662073,-0.6729486624347132,-1.5984209219561976,-3.1400211493121546
-0.8261874357806605,-2.5066402594195765,-1.4949143568622034,-0.6721933523761194,-1.5985530058490198,-3.140057150517599
-0.8262108008014124,-2.506112877522604,-1.4961255232440394,-0.6715338865863245,-1.5983851591693323,-3.1399133841144007
-0.826270882283346,-2.5055859724627894,-1.4973858038531702,-0.6707423369037073,-1.5984090010272425,-3.1400092283831995
-0.8262947241412562,-2.5045674482928675,-1.4998686949359339,-0.6692674795733851,-1.5983250776873987,-3.1399012247668665
-0.8263071219073694,-2.504028622304098,-1.5010808149920862,-0.6685722509967249,-1.5985048452960413,-3.139949146901266
-0.8263071219073694,-2.503477398549215,-1.502364460621969,-0.6679366270648401,-1.5983851591693323,-3.1398173014270228
-0.8263548056231897,-2.5029504934894007,-1.5035880247699183,-0.667121712361471,-1.5984209219561976,-3.1398053804980677
-0.8263548056231897,-2.50185996690859,-1.5061314741717737,-0.6657431761371058,-1.5983250776873987,-3.1396976153003138
-0.8263786474810999,-2.5013211409198206,-1.5073431173907679,-0.6650593916522425,-1.598469082509176,-3.1397934595691126
-0.8263786474810999,-2.500769917164938,-1.5085423628436487,-0.664351765309469,-1.5984328428851526,-3.13963753381838
-0.8263786474810999,-2.500242535267965,-1.5098384062396448,-0.663668457661764,-1.5983250776873987,-3.1396976153003138
-0.8264387289630335,-2.4992602507220667,-1.5123098532306116,-0.6622179190265101,-1.5983250776873987,-3.139590088521139
-0.8264387289630335,-2.4986608664142054,-1.5136292616473597,-0.6615584532367151,-1.5983250776873987,-3.1396496931659144
-0.8264625708209437,-2.4981702009784144,-1.5148652235614222,-0.660766903554098,-1.5984566847430628,-3.139590088521139
-0.8264988104449671,-2.4976428190814417,-1.5162089506732386,-0.6600592772113245,-1.5983131567584437,-3.1395660082446497
-0.8264988104449671,-2.4965766111956995,-1.5188000837909144,-0.6586206595050257,-1.5984209219561976,-3.139506165181295
-0.8265226523028772,-2.496037308369772,-1.5201075712787073,-0.657961670552389,-1.5982893149005335,-3.139578167592184
-0.8265107313739222,-2.495450798665182,-1.5213912169085901,-0.6571581999408167,-1.5984209219561976,-3.139578167592184
-0.8265345732318323,-2.494887653981344,-1.5226386229144495,-0.6565101782428187,-1.5983489195453089,-3.13949424425234
-0.8265345732318323,-2.4937971274005335,-1.5251463095294397,-0.6550233999835413,-1.598469082509176,-3.1395180861102503
-0.826606575642721,-2.493282143269674,-1.5263460318194788,-0.6543644110309046,-1.5983250776873987,-3.1395180861102503
-0.8266304175006312,-2.4927433172809046,-1.527569595967428,-0.6535609404193323,-1.5983970800982874,-3.1395660082446497
-0.8266184965716761,-2.4921796957599085,-1.5288532415973108,-0.6529133955584925,-1.5984209219561976,-3.1394463221179407
-0.8266304175006312,-2.4911254088031214,-1.5313246885882776,-0.6514270941363733,-1.5983970800982874,-3.1394344011889856
-0.8266785780536097,-2.4905741850482386,-1.5325482527362269,-0.6507194677935999,-1.5982893149005335,-3.139362398778097
-0.8266904989825647,-2.490035359059469,-1.5337594191180628,-0.6499517599688929,-1.5983012358294886,-3.139470163975851
-0.8266666571246546,-2.4894846121417444,-1.5350077787982386,-0.6492207686053675,-1.5983732382403772,-3.1393025557147425
-0.8266666571246546,-2.488382164631979,-1.5374787489520472,-0.6477459112750452,-1.5983851591693323,-3.139350477849142
-0.8267143408404749,-2.487830940877096,-1.5387385527240198,-0.6470149199115198,-1.598360840474264,-3.1393263975726526
-0.82672626176943,-2.4872563521014612,-1.5399745146380823,-0.6462472120868128,-1.5982173124896448,-3.1393263975726526
-0.8267625013934534,-2.4867170492755335,-1.5411856810199183,-0.6455276648150843,-1.5984090010272425,-3.1392903963672083
-0.8267982641803187,-2.485626522694723,-1.5437892119037073,-0.6440771261798304,-1.5982893149005335,-3.1393144766436976
-0.8268101851092737,-2.485063378010885,-1.5451329390155237,-0.6433580557452601,-1.5984209219561976,-3.1391945520984095
-0.8268101851092737,-2.4845245520221155,-1.5464165846454065,-0.6426261107074183,-1.598241154347555,-3.139254633580343
-0.8268583456622522,-2.4839733282672327,-1.5477479139911097,-0.6418827215777796,-1.5983851591693323,-3.139230553303854
-0.8268340269671839,-2.4827750364886683,-1.5502789656268519,-0.6405037085162562,-1.5982053915606897,-3.139254633580343
-0.8268583456622522,-2.4822357336627405,-1.5515387693988245,-0.6397488752948206,-1.5983489195453089,-3.1391227881061
-0.8268821875201624,-2.481649700795309,-1.5528462568866175,-0.639017407094137,-1.59825307527651,-3.139230553303854
-0.8268221060382288,-2.4811461607562464,-1.5541184584247034,-0.6382501761065882,-1.598241154347555,-3.1392186323748987
-0.8269060293780726,-2.4800317923175257,-1.5566018263446253,-0.6369193235980433,-1.5981691519366663,-3.139134709035055
-0.8269899527179163,-2.4795287291156214,-1.5579093138324183,-0.6361635367022913,-1.5983131567584437,-3.1390627066241663
-0.8269179503070276,-2.4789536635028284,-1.5591567198382776,-0.6354926268206995,-1.598241154347555,-3.1391106287585657
-0.8269780317889612,-2.4784863630877894,-1.5603802839862269,-0.6347368399249476,-1.5981934706317347,-3.1391707102404993
-0.8269661108600062,-2.477396313344137,-1.5628636519061487,-0.6334422270404261,-1.5981691519366663,-3.1391106287585657
-0.8269899527179163,-2.4768570105182093,-1.5640628973590296,-0.6326268354998987,-1.5981810728656214,-3.1390507856952112
-0.8270261923419397,-2.476330105458395,-1.5652864615069788,-0.6319673697101038,-1.5982893149005335,-3.1389673391925257
-0.8270261923419397,-2.475755039845602,-1.566486660634176,-0.6312239805804651,-1.5981453100787562,-3.1390867869006556
-0.8270500341998499,-2.474724594746725,-1.5690777937518519,-0.6298335234271448,-1.59825307527651,-3.1389551798449915
-0.8270500341998499,-2.4741857687579554,-1.5702889601336878,-0.6291258970843714,-1.5982292334186,-3.1390748659717005
-0.8270738760577601,-2.473682705556051,-1.5715964476214808,-0.6283820311175745,-1.5983250776873987,-3.1389194170581263
-0.8270977179156702,-2.4731553236590784,-1.572808567677633,-0.627639118825094,-1.598109547291891,-3.13900334039797
-0.8270857969867151,-2.4721367994891565,-1.5752671400653284,-0.6261761824237269,-1.5982173124896448,-3.138871494923727
-0.8271096388446253,-2.4715617338763636,-1.576599423085348,-0.6254571119891565,-1.5980733076678675,-3.1389551798449915
-0.827181641255514,-2.4709866682635706,-1.5778706709491175,-0.624737564717428,-1.5982769171344202,-3.1388354937182825
-0.8271577993976038,-2.470459763203756,-1.5791543165790003,-0.6239941755877894,-1.598133389149801,-3.138871494923727
-0.8271697203265589,-2.4693692366229456,-1.5817092100726526,-0.6226032415973108,-1.598241154347555,-3.1387515703784388
-0.827181641255514,-2.4687827269183558,-1.5830767790423792,-0.6218841711627405,-1.598109547291891,-3.1388593355761927
-0.8272178808795374,-2.4683030287372034,-1.5843609015094202,-0.6211288611041468,-1.598241154347555,-3.1388474146472376
-0.8272298018084925,-2.4678123633014124,-1.5856321493731897,-0.6204569975482386,-1.5981572310077112,-3.138763491307394
-0.8272655645953577,-2.466709915791647,-1.5881393591510218,-0.6189587751971644,-1.5982649962054651,-3.1387274901019495
-0.8273137251483362,-2.466158692036764,-1.5893991629229944,-0.6182511488543909,-1.5980971495257776,-3.1387155691729944
-0.8273018042193812,-2.4656675497638147,-1.590635124837057,-0.6174839178668421,-1.5982053915606897,-3.138775412236349
-0.8273018042193812,-2.46509296098818,-1.591882054005758,-0.6167762915240687,-1.5982173124896448,-3.13867956796755
-0.8273137251483362,-2.4640501181231897,-1.5944493452655237,-0.6152899901019495,-1.5982173124896448,-3.1387396494494837
-0.8273018042193812,-2.46351129213442,-1.5957210699664515,-0.6146181265460413,-1.598121468220846,-3.138571802769796
-0.8273614088641565,-2.4629600683795374,-1.5969207922564905,-0.6138628164874476,-1.598121468220846,-3.138667647038595
-0.8273733297931116,-2.462445084248678,-1.598180119191305,-0.6132395903216761,-1.5981934706317347,-3.1386316458331507
-0.8274095694171351,-2.461390797291891,-1.6006749312030237,-0.6117404142962855,-1.5981572310077112,-3.1386078039752405
-0.8274095694171351,-2.460803810750143,-1.6019709745990198,-0.6110213438617151,-1.598121468220846,-3.138547722493307
-0.8274095694171351,-2.460336510335104,-1.6032307783709925,-0.6103137175189417,-1.5980013052569788,-3.138559881840841
-0.8274095694171351,-2.4597256819354456,-1.6044777075396937,-0.6095946470843714,-1.598109547291891,-3.138559881840841
-0.82739764848818,-2.4585874716388147,-1.6069729963885706,-0.6081555525409144,-1.5980971495257776,-3.1386078039752405
-0.8274815718280237,-2.458048645650045,-1.6082685629474085,-0.607424561177389,-1.5981453100787562,-3.138535801564352
-0.8274691740619105,-2.457449261342184,-1.6095641295062464,-0.6066811720477503,-1.5979417006122034,-3.138428274785177
-0.8275054136859339,-2.4568985144244593,-1.6108477751361292,-0.605997387562887,-1.5981453100787562,-3.1384759585009974
-0.8275650183307093,-2.4557841459857386,-1.6132949034320276,-0.6045706907855433,-1.5980375448810022,-3.1383803526507776
-0.827529255543844,-2.455268685017721,-1.614542309437887,-0.603851620350973,-1.598133389149801,-3.1384759585009974
-0.827517334614889,-2.4546940962420862,-1.615838352833883,-0.6031320730792444,-1.5979655424701136,-3.138320509587423
-0.8275650183307093,-2.454167191182272,-1.6170857588397425,-0.6024726072894495,-1.598121468220846,-3.1383565107928675
-0.8276250998126429,-2.453040901814596,-1.6195929686175745,-0.6010220686541956,-1.5980013052569788,-3.1382725874530237
-0.8276012579547327,-2.4525254408465784,-1.6209238211261194,-0.6002662817584437,-1.598109547291891,-3.138308588658468
-0.8276012579547327,-2.4519265333758753,-1.6221841017352503,-0.5996072928058069,-1.5979655424701136,-3.1382725874530237
-0.827648941670553,-2.451399628316061,-1.6234191099749964,-0.5989473501788538,-1.5980375448810022,-3.1382246653186243
-0.8276613394366663,-2.4503453413592737,-1.6258304754840296,-0.5975330511676233,-1.5979178587542933,-3.13818866411318
-0.8276613394366663,-2.449782196675436,-1.627077881489889,-0.5967658201800745,-1.5980613867389124,-3.1382365862475794
-0.8277328650103968,-2.4492672125445765,-1.6282780806170862,-0.5961058775531214,-1.5979655424701136,-3.1382246653186243
-0.8277090231524866,-2.4487040678607386,-1.6295493284808558,-0.595374886189596,-1.5979417006122034,-3.1381288210498255
-0.8277447859393519,-2.4476617018329065,-1.6320679823504847,-0.5939243475543421,-1.5978577772723597,-3.1381047407733362
-0.8277328650103968,-2.4470866362201136,-1.6333397070514124,-0.5931566397296351,-1.5980013052569788,-3.1381407419787806
-0.8277090231524866,-2.446559731160299,-1.634610954915182,-0.5925334135638636,-1.5980013052569788,-3.1381407419787806
-0.8277810255633753,-2.4459965864764612,-1.6358349959002894,-0.5917781035052698,-1.597893540059225,-3.138068739567892
-0.8278048674212855,-2.444906536732809,-1.6382940451251429,-0.590362850819723,-1.5979417006122034,-3.1381047407733362
-0.8277929464923304,-2.4443076292621058,-1.639613453541891,-0.5896318594561976,-1.5980013052569788,-3.1379969755755823
-0.8278525511371058,-2.443780247365133,-1.6408847014056605,-0.5889242331134241,-1.5979536215411585,-3.138092819844381
-0.8278048674212855,-2.4432414213763636,-1.6421926657306116,-0.5881570021258753,-1.5979178587542933,-3.1380208174334925
-0.8278763929950159,-2.4421990553485315,-1.6447714010821741,-0.586670223866598,-1.5978458563434046,-3.1380088965045374
-0.8279002348529261,-2.4417079130755823,-1.6461146513568323,-0.5859149138080042,-1.5979893843280237,-3.1379130522357386
-0.8279126326190394,-2.4411566893206995,-1.647374455128805,-0.585219685231344,-1.5979297796832483,-3.1379368940936487
-0.827888313923971,-2.440617386494772,-1.6486457029925745,-0.5844162146197718,-1.5978816191302698,-3.1379011313067835
-0.8279126326190394,-2.439587418233053,-1.6511767546283167,-0.5829651991473597,-1.5978458563434046,-3.1379368940936487
-0.8279603163348597,-2.4389761129962366,-1.6522324720965784,-0.5822823683368128,-1.5979536215411585,-3.1377816835986536
-0.8279483954059046,-2.438437287007467,-1.65358812013735,-0.5815752188311976,-1.5978816191302698,-3.137817446385519
-0.8279722372638147,-2.4379218260394495,-1.654811207448141,-0.5808313528644007,-1.5978339354144495,-3.137829605733053
-0.8279960791217249,-2.4368441740619105,-1.6573904196368616,-0.5793207327472132,-1.5978096167193812,-3.137853447590963
-0.8280323187457483,-2.4363530317889612,-1.6585782209979456,-0.578625504170553,-1.5979536215411585,-3.1377816835986536
-0.8280442396747034,-2.4358137289630335,-1.65983754793276,-0.5779660383807581,-1.5978577772723597,-3.1377816835986536
-0.8280680815326136,-2.4352625052081507,-1.6610730330096644,-0.5771744886981409,-1.5978096167193812,-3.137829605733053
-0.8280800024615687,-2.4341843763934534,-1.6634963194476526,-0.5757001082049769,-1.5978339354144495,-3.1377695242511194
-0.8280561606036585,-2.4336097876178187,-1.6647074858294886,-0.5750044027911585,-1.5979178587542933,-3.13772160211672
-0.8280800024615687,-2.4330342451678675,-1.6660149733172815,-0.5743091742144983,-1.5978339354144495,-3.137733761464254
-0.8280924002276819,-2.432471577321188,-1.6673110167132776,-0.5735896269427698,-1.5978577772723597,-3.1377936045276087
-0.8281400839435022,-2.431333367024557,-1.6698773542987269,-0.572151009236471,-1.597797695790426,-3.1376736799823206
-0.8281882444964808,-2.4308422247516077,-1.6711133162127894,-0.5715277830706995,-1.5979536215411585,-3.1376736799823206
-0.8281639258014124,-2.4303272406207483,-1.6724560896502894,-0.5707719961749476,-1.597785774861471,-3.1375659147845667
-0.8282120863543909,-2.4297636190997522,-1.6736920515643519,-0.5700772444354456,-1.5978577772723597,-3.1376856009112757
-0.8282120863543909,-2.428674046193258,-1.676258389149801,-0.568674389516012,-1.5977500120746058,-3.1375418345080774
-0.8282478491412562,-2.4281466642962855,-1.6774705092059534,-0.5679786841021937,-1.5979536215411585,-3.137589756642477
-0.8282840887652796,-2.427595917378561,-1.678753677998678,-0.5671990553485315,-1.5977619330035608,-3.1375179926501673
-0.8282597700702112,-2.427044693623678,-1.6800010840045374,-0.5664919058429163,-1.5978096167193812,-3.137577835713522
-0.8282721678363245,-2.4259308020221155,-1.6826279799090784,-0.5650408903705042,-1.5977619330035608,-3.137470070515768
-0.8282840887652796,-2.425403420125143,-1.6838997046100062,-0.5643461386310022,-1.5979297796832483,-3.1375179926501673
-0.8282960096942347,-2.4248526732074183,-1.6851709524737757,-0.5635307470904749,-1.5977256933795374,-3.1374221483813685
-0.8283317724810999,-2.424265209828512,-1.6864784399615687,-0.5627873579608362,-1.5978339354144495,-3.1374221483813685
-0.828343693410055,-2.4231393972979944,-1.6889851729022425,-0.561312500630514,-1.597666088734762,-3.1373863855945032
-0.8283556143390101,-2.4225762526141565,-1.6902688185321253,-0.5606172720538538,-1.5978215376483362,-3.1374340693103235
-0.8283556143390101,-2.422037426625387,-1.6916006247149866,-0.5598495642291468,-1.597654167805807,-3.1374099890338343
-0.828343693410055,-2.4214499632464808,-1.6928594748126429,-0.5591185728656214,-1.597773853932516,-3.1373027006732386
-0.8284037748919886,-2.420300308858053,-1.6955106894122522,-0.5576437155352991,-1.5977500120746058,-3.1373027006732386
-0.8284276167498987,-2.4196770826922815,-1.6968901793109339,-0.5568402449237269,-1.5978458563434046,-3.1373146216021937
-0.8284519354449671,-2.419102493916647,-1.6981852690326136,-0.5561330954181116,-1.597666088734762,-3.137338463460104
-0.8284519354449671,-2.4185150305377405,-1.699540917073385,-0.5552938620196741,-1.5978339354144495,-3.1371946970569056
-0.8284638563739222,-2.4173296133624476,-1.7022278944598597,-0.5537470022784632,-1.5977619330035608,-3.1372666994677942
-0.8284757773028772,-2.4167779127704065,-1.703583065663473,-0.5529559294330042,-1.597773853932516,-3.1371946970569056
-0.8284876982318323,-2.416227165852682,-1.705010239277975,-0.5522244612323206,-1.597678009663717,-3.1372666994677942
-0.8285477797137659,-2.4156277815448206,-1.7063897291766565,-0.5514333883868616,-1.5978339354144495,-3.1371586958514612
-0.828559700642721,-2.414490048085348,-1.7091005484210413,-0.5498626867877405,-1.597785774861471,-3.137242619191305
-0.8285716215716761,-2.41392690340151,-1.7105162779437464,-0.5491793791400355,-1.5977256933795374,-3.137110773717062
-0.8286073843585413,-2.4133761564837855,-1.7118352095233362,-0.5483759085284632,-1.5977137724505823,-3.137134853993551
-0.8285835425006312,-2.4128010908709925,-1.7131546179400843,-0.5475848356830042,-1.5978339354144495,-3.1371708551989954
-0.8286555449115198,-2.4116509596454065,-1.7158177534686487,-0.5460379759417933,-1.597785774861471,-3.137122933064596
-0.8286436239825647,-2.4110758940326136,-1.7172330061541956,-0.5451987425433558,-1.5975821653949183,-3.1370988527881067
-0.8286917845355433,-2.4105246702777308,-1.7186358610736292,-0.5444071928607386,-1.597678009663717,-3.1370390097247522
-0.8286674658404749,-2.409961525593893,-1.7199433485614222,-0.5437243620501917,-1.5977018515216272,-3.137134853993551
-0.8287037054644983,-2.408788029347555,-1.7226064840899866,-0.5422013441668909,-1.597773853932516,-3.136991087590353
-0.8286917845355433,-2.4081767241107386,-1.7238534132586878,-0.5413859526263636,-1.5975940863238733,-3.1370747725116175
-0.8287156263934534,-2.40754205385317,-1.7252209822284144,-0.5406425634967249,-1.5977018515216272,-3.136919085179464
-0.8287518660174769,-2.4069908300982874,-1.7265523115741175,-0.5399230162249964,-1.597666088734762,-3.1369310061084192
-0.8287637869464319,-2.4058049360858362,-1.729215447102682,-0.5383885542498987,-1.5977500120746058,-3.13688308397402
-0.8287876288043421,-2.4052537123309534,-1.7305105368243616,-0.5375617186175745,-1.5975821653949183,-3.1369550863849085
-0.8287876288043421,-2.4046667257892054,-1.7318781057940882,-0.5369022528277796,-1.5977619330035608,-3.1369431654559534
-0.8288114706622522,-2.404151741658346,-1.7331975142108362,-0.5361464659320276,-1.5976179281817835,-3.136895243321554
-0.8288596312152308,-2.402989689503805,-1.7358716169940394,-0.5346840063678187,-1.5976179281817835,-3.1368115584002894
-0.8288596312152308,-2.4024627844439905,-1.7372153441058558,-0.5339167753802698,-1.5976060072528284,-3.1368592421161097
-0.8288834730731409,-2.4018996397601526,-1.7385109106646937,-0.5332329908954065,-1.5977018515216272,-3.1368711630450647
-0.8288834730731409,-2.4013245741473597,-1.7398541609393519,-0.5323942343341272,-1.5975340048419397,-3.13676363626589
-0.8289316336261194,-2.4002226034747522,-1.7425044218646448,-0.530919377003805,-1.5975940863238733,-3.136787716542379
-0.8289435545550745,-2.3996833006488245,-1.7437999884234827,-0.5302355925189417,-1.5975702444659632,-3.1367157141314905
-0.8289673964129847,-2.39915639558901,-1.7451313177691858,-0.5294445196734827,-1.597666088734762,-3.1368351618396204
-0.8289554754840296,-2.3986409346209925,-1.7464030424701136,-0.528701130543844,-1.5975101629840296,-3.1367037932025355
-0.8289793173419397,-2.3975394407855433,-1.7489936987506312,-0.5272744337665003,-1.597558323537008,-3.13673979440798
-0.8290274778949183,-2.396951977406637,-1.7502530256854456,-0.5265429655658167,-1.5975702444659632,-3.1366198698626917
-0.8290274778949183,-2.3964131514178675,-1.751500431691305,-0.5257638136493128,-1.597666088734762,-3.1367037932025355
-0.8290274778949183,-2.3958261648761194,-1.7527836004840296,-0.5250685850726526,-1.5974863211261194,-3.136643711720602
-0.8290513197528284,-2.3946521917926233,-1.7552550474749964,-0.5235579649554651,-1.5975459257708948,-3.136667791997091
-0.8289912382708948,-2.3941009680377405,-1.7565138975726526,-0.5228145758258265,-1.5975459257708948,-3.1365719477282923
-0.8290751616107386,-2.393550221120016,-1.757761303578512,-0.5220230261432093,-1.5975821653949183,-3.1366079489337366
-0.8290990034686487,-2.392998997365133,-1.7590087095843714,-0.5213397184955042,-1.5974143187152308,-3.136631790791647
-0.829111401234762,-2.391932789479391,-1.7614434401141565,-0.5199249426471155,-1.5974744001971644,-3.136547867451803
-0.8291352430926722,-2.3913939634906214,-1.7627270857440394,-0.5192058722125452,-1.5974863211261194,-3.136512104664938
-0.8291953245746058,-2.3908427397357386,-1.7639382521258753,-0.5185225645648401,-1.5975340048419397,-3.136452023183004
-0.8291710058795374,-2.390327278767721,-1.7652094999896448,-0.5177791754352015,-1.5974023977862757,-3.1365957895862024
-0.8291590849505823,-2.389273468648092,-1.7677400747882288,-0.516400162373678,-1.5974143187152308,-3.136452023183004
-0.8292072455035608,-2.388710323964254,-1.7689874807940882,-0.5157049337970179,-1.597558323537008,-3.136512104664938
-0.8292191664325159,-2.388219181691305,-1.7701752821551722,-0.5149977842914026,-1.5974863211261194,-3.1363680998431605
-0.829231087361471,-2.3877161184894007,-1.7713740507708948,-0.5143378416644495,-1.597438160573141,-3.136452023183004
-0.8292668501483362,-2.3867338339435022,-1.773796860371725,-0.5130193869220179,-1.5974262396441858,-3.1363444964038294
-0.8293269316302698,-2.386218849812643,-1.7749484221087855,-0.5123360792743128,-1.5975340048419397,-3.13641602197756
-0.8292787710772913,-2.3857277075396937,-1.7760642210589808,-0.511688534413473,-1.597450081502096,-3.13629657426943
-0.8292911688434046,-2.3852246443377894,-1.7772029081927698,-0.5110653082477015,-1.5974863211261194,-3.1363325754748743
-0.8292911688434046,-2.3841827551471155,-1.779529873524801,-0.509686295186178,-1.597438160573141,-3.1362486521350306
-0.8293269316302698,-2.383679215108053,-1.7806814352618616,-0.5090869108783167,-1.5975459257708948,-3.1363561789142054
-0.82935077348818,-2.3832243124591272,-1.7817729155169886,-0.5084031263934534,-1.5974262396441858,-3.1362248102771204
-0.8293388525592249,-2.3826730887042444,-1.782900635396139,-0.5078161398517054,-1.597462002431051,-3.136200730000631
-0.8293870131122034,-2.3817384878741663,-1.784999195729391,-0.5065091292010706,-1.5973661581622522,-3.1361528078662317
-0.8294108549701136,-2.3812716642962855,-1.786102596913473,-0.5059216658221644,-1.5975220839129847,-3.136176888142721
-0.8293989340411585,-2.3808162848102015,-1.7871702353106897,-0.5052979628192347,-1.5973785559283655,-3.136045042668478
-0.8293989340411585,-2.3803609053241175,-1.7882736364947718,-0.5046866575824183,-1.597462002431051,-3.136045042668478
-0.8294466177569788,-2.3794387022601526,-1.7904680410968226,-0.5034397284137171,-1.5974262396441858,-3.135937039052145
-0.8294346968280237,-2.379019085560934,-1.7914875189410608,-0.5028641859637659,-1.5974863211261194,-3.1361048857318323
-0.829470459614889,-2.3785880247699183,-1.792591396962301,-0.5023248831378382,-1.5973542372332972,-3.1359251181231897
-0.829470459614889,-2.3781212011920374,-1.7936103979693812,-0.501617733632223,-1.5975220839129847,-3.1359849611865442
-0.829470459614889,-2.3772581259356897,-1.7957332769977015,-0.5004904905902308,-1.5974982420550745,-3.1359012762652796
-0.8294943014727991,-2.376815144215719,-1.796753231679098,-0.4998672644244593,-1.5974262396441858,-3.135973040257589
-0.8295424620257776,-2.37634784380068,-1.7977479139911097,-0.4992917219745081,-1.5973904768573206,-3.13585335413088
-0.8295543829547327,-2.3759644667254847,-1.7988155523883265,-0.4987404982196253,-1.5975101629840296,-3.1359131971942347
-0.829590145741598,-2.3751023451434534,-1.8008301893817347,-0.4976008574115198,-1.5974982420550745,-3.1358051935779017
-0.8295424620257776,-2.374706570302145,-1.8018258253680628,-0.4970138708697718,-1.597342316304342,-3.1358771959887903
-0.8295424620257776,-2.374263588582174,-1.8028577009784144,-0.49641400972475225,-1.597462002431051,-3.1358051935779017
-0.8296139875995081,-2.3738563696490687,-1.8038166205035608,-0.49589854875673467,-1.5974262396441858,-3.1357813517199915
-0.8296139875995081,-2.3729942480670374,-1.805915657673971,-0.49467593828310186,-1.597462002431051,-3.1357458273517054
-0.8296139875995081,-2.372598473225729,-1.8069470564471644,-0.49411231676210576,-1.5972946325885218,-3.1358652750598353
-0.8296979109393519,-2.3720715681659144,-1.8080385367022913,-0.49350101152528936,-1.5974143187152308,-3.1357696692096155
-0.8296621481524866,-2.3716042677508753,-1.8090222517596644,-0.4929135481463831,-1.5973661581622522,-3.1357458273517054
-0.8296502272235315,-2.3707297484027308,-1.8110726515399378,-0.49165469804872686,-1.5973904768573206,-3.135733668004171
-0.8296859900103968,-2.3702624479876917,-1.8120082060443323,-0.4910190741168421,-1.597198788319723,-3.1357696692096155
-0.8296621481524866,-2.3697593847857874,-1.813075367604391,-0.49047977129091436,-1.5973785559283655,-3.1357577482806605
-0.8296979109393519,-2.3692925612079065,-1.8141549269305628,-0.4897959868060511,-1.5973065535174769,-3.1356499830829065
-0.8297222296344202,-2.3683698813067835,-1.8163135687457483,-0.4886215368853968,-1.5974262396441858,-3.1356738249408167
-0.8297460714923304,-2.367974583302633,-1.8174050490008753,-0.48791343370546514,-1.5972583929644983,-3.135685745869772
-0.8297341505633753,-2.3674472014056605,-1.8185084501849573,-0.48735028902162725,-1.5973785559283655,-3.135697905217306
-0.8297579924212855,-2.3669684568988245,-1.819671932850973,-0.48672706285585576,-1.5972703138934534,-3.135577980672018
-0.8297818342791956,-2.365998093281881,-1.8219025770770472,-0.48539621034731084,-1.5973904768573206,-3.135602060948507
-0.8297937552081507,-2.365506951008932,-1.822982136403219,-0.4847491423236292,-1.597222630177633,-3.1356259028064173
-0.8297937552081507,-2.365039650593893,-1.8241456190692347,-0.4840653578387659,-1.5973904768573206,-3.1356619040118616
-0.8298657576190394,-2.3645485083209437,-1.8252247015582483,-0.48347789445985967,-1.597222630177633,-3.135577980672018
-0.8298419157611292,-2.3635428587542933,-1.8275511900531214,-0.482063118611471,-1.597342316304342,-3.135589901600973
-0.8298419157611292,-2.363063160573141,-1.8287509123431605,-0.48147565523256475,-1.5971744696246546,-3.135602060948507
-0.8298776785479944,-2.362595860158102,-1.8299019972430628,-0.48079234758485967,-1.5973904768573206,-3.1356738249408167
-0.829925839100973,-2.362117115651266,-1.8310769240008753,-0.4802048842059534,-1.5972345511065882,-3.1355181376086634
-0.8298776785479944,-2.361110512410299,-1.8333442846881312,-0.47889787355531865,-1.5972946325885218,-3.135566059743063
-0.8299019972430628,-2.360631767903463,-1.8345430533038538,-0.47828656831850225,-1.5972703138934534,-3.135566059743063
-0.8299019972430628,-2.3601282278644007,-1.835635010396139,-0.4776271025287073,-1.5972946325885218,-3.135589901600973
-0.8299139181720179,-2.3596375624286097,-1.836761776600973,-0.4769676367389124,-1.597210709248678,-3.135505978261129
-0.8299616018878382,-2.358619515095846,-1.838968578969137,-0.47572118440736944,-1.5972345511065882,-3.1355419794665735
-0.8299616018878382,-2.3580921331988733,-1.8401320616351526,-0.47509700456728154,-1.5972946325885218,-3.1355539003955286
-0.8300097624408167,-2.357588593159811,-1.8412230650531214,-0.4745100180255335,-1.5973065535174769,-3.135577980672018
-0.8299859205829065,-2.3570860067950647,-1.8423264662372034,-0.4738267103778284,-1.597210709248678,-3.13545805612673
-0.8300336042987269,-2.3561633268939417,-1.8445094267474573,-0.4726036230670374,-1.597222630177633,-3.135494057332174
-0.8300455252276819,-2.355708424245016,-1.845576588307516,-0.47201663652528936,-1.5972822348224085,-3.135470215474264
-0.8300455252276819,-2.355253044758932,-1.8466203848468226,-0.4714286963092249,-1.5972822348224085,-3.1355419794665735
-0.8300693670855921,-2.3548100630389612,-1.8476274649249476,-0.4708293120013636,-1.5971387068377894,-3.13538629213442
-0.8300455252276819,-2.3539112249957483,-1.849762264882223,-0.46960622469057256,-1.5971744696246546,-3.1354342142688196
-0.830057446156637,-2.3534439245807093,-1.8507216612445276,-0.4689829985248011,-1.5972345511065882,-3.135362211857931
-0.8300936857806605,-2.3530009428607386,-1.8517769018756312,-0.46837169328798467,-1.5972703138934534,-3.1354101339923304
-0.8300936857806605,-2.3525102774249476,-1.8528083006488245,-0.4678080717669886,-1.5971744696246546,-3.1353142897235315
-0.8301294485675257,-2.3516114393817347,-1.8549431006061,-0.4665492216693323,-1.597210709248678,-3.1353142897235315
-0.8301175276385706,-2.351168457661764,-1.855974022542135,-0.46603328386415654,-1.597210709248678,-3.135266367589132
-0.8301776091205042,-2.350748840962545,-1.8570054213153284,-0.4653862158404749,-1.5973065535174769,-3.135338370000021
-0.8301776091205042,-2.350353542958395,-1.858060661946432,-0.4648349920855921,-1.5971267859088343,-3.1352904478656214
-0.8302014509784144,-2.3494914213763636,-1.8601840178119105,-0.4636476675616663,-1.597198788319723,-3.135362211857931
-0.8301895300494593,-2.3491080443011683,-1.8611791769610804,-0.4630244413958948,-1.597210709248678,-3.1352184454547327
-0.8302252928363245,-2.3486884276019495,-1.8621981779681605,-0.46244889894594365,-1.5972822348224085,-3.135242525731222
-0.8302133719073694,-2.3482211271869105,-1.8632538954364222,-0.4618495146380823,-1.5971267859088343,-3.135266367589132
-0.8302853743182581,-2.347347084675924,-1.8652804533587855,-0.4606865088092249,-1.5971744696246546,-3.135230366383688
-0.8302372137652796,-2.346855942402975,-1.8662999312030237,-0.46005088487734014,-1.5971387068377894,-3.1351710001574915
-0.830261532460348,-2.3464725653277796,-1.8673432509051722,-0.4594996611224573,-1.5972703138934534,-3.1351469198810022
-0.8302491346942347,-2.3460052649127405,-1.8683140913592737,-0.45893603960146123,-1.597102467213766,-3.1351948420154017
-0.8303211371051233,-2.345142666493551,-1.8703292051898401,-0.45780927339662725,-1.5971267859088343,-3.1350629965411585
-0.8302972952472132,-2.344699207936422,-1.8712165991412562,-0.4572699705706995,-1.5971863905536097,-3.1351469198810022
-0.8303330580340784,-2.3442567030536097,-1.8722122351275843,-0.45669442812074834,-1.5972583929644983,-3.1350870768176478
-0.8303454558001917,-2.3438852469073694,-1.873183552418844,-0.4561427275287073,-1.5970667044269007,-3.1350870768176478
-0.8303454558001917,-2.3431065718280237,-1.8750184218036097,-0.4550278822528284,-1.5971148649798792,-3.134991232548849
-0.830393139516012,-2.34267503419985,-1.8759897390948694,-0.45450002351869756,-1.5971744696246546,-3.135134998952047
-0.8303573767291468,-2.3422797361956995,-1.8768890539752405,-0.45405656496156865,-1.5971863905536097,-3.1350391546832483
-0.8303692976581019,-2.3419087568866175,-1.8778122107135218,-0.4534814993487757,-1.5970667044269007,-3.1350749174701136
-0.830393139516012,-2.3411181608783167,-1.8796475569354456,-0.45243817964662725,-1.597102467213766,-3.1349552313434046
-0.8304050604449671,-2.3407467047320765,-1.8805230299579065,-0.4518988768206995,-1.597210709248678,-3.135015074406759
-0.8304289023028772,-2.340351406727926,-1.8814581076251429,-0.4513352552997034,-1.5971267859088343,-3.1349671522723597
-0.8304889837848108,-2.339979950581686,-1.8823455015765589,-0.45087939897646123,-1.5970905462848108,-3.134907309209005
-0.8304651419269007,-2.339213196431295,-1.8840726057635706,-0.4498966375934046,-1.5970905462848108,-3.134895149861471
-0.8304651419269007,-2.33887750307192,-1.884911839162008,-0.449381176625387,-1.5971863905536097,-3.134907309209005
-0.8304651419269007,-2.3385070005999964,-1.8857153097735804,-0.448949162160055,-1.5971267859088343,-3.1349433104144495
-0.8305009047137659,-2.3381713072406214,-1.8865669409381312,-0.4484456221209925,-1.5970428625689905,-3.1348472277270716
-0.8305252234088343,-2.3374765555011194,-1.8882101217852991,-0.4475348631488245,-1.5970309416400355,-3.134883228932516
-0.8305252234088343,-2.3371170202838343,-1.8890851179706019,-0.4470790068255823,-1.5971387068377894,-3.1348114649402063
-0.8305490652667444,-2.336745564137594,-1.8899005095111292,-0.44661170641054326,-1.5971625486956995,-3.1349552313434046
-0.8304889837848108,-2.3364222685443323,-1.8907516638385218,-0.4461558500873011,-1.597006622944967,-3.1348472277270716
-0.8305252234088343,-2.335775677357809,-1.8923471609698694,-0.4452927748309534,-1.5970786253558558,-3.134871308003561
-0.8305609861956995,-2.335416618977682,-1.8931143919574183,-0.4448493162738245,-1.596994702016012,-3.1347394625293177
-0.8305371443377894,-2.335092846547262,-1.8939302603351038,-0.4444173018084925,-1.5971625486956995,-3.134775463734762
-0.8305490652667444,-2.334757153187887,-1.8946617285357874,-0.44403392473329717,-1.5969708601581019,-3.1348114649402063
-0.8305848280536097,-2.3340986410724085,-1.8961127440081995,-0.4432309309588831,-1.5971267859088343,-3.134787384663717
-0.8306086699115198,-2.333799187337057,-1.8968084494220179,-0.44275123277773076,-1.5969470183001917,-3.1347275416003626
-0.8305848280536097,-2.333439652119772,-1.8975637594806116,-0.4423792997943323,-1.5971267859088343,-3.1346920172320765
-0.8306086699115198,-2.33314019838442,-1.8982232252704065,-0.4420073668109339,-1.5970190207110804,-3.1347513834582728
-0.8306210676776331,-2.332529369984762,-1.8996146360980433,-0.44114476839174444,-1.5971506277667444,-3.1347275416003626
-0.8306210676776331,-2.3322299162494105,-1.9002373854266565,-0.4407847563373011,-1.596982781087057,-3.1346798578845423
-0.8306329886065882,-2.3319905439959925,-1.900825325642721,-0.44047290483583623,-1.5971387068377894,-3.134643856679098
-0.8306086699115198,-2.3316786924945276,-1.901496712361471,-0.44012529054750615,-1.5970309416400355,-3.134667936955587
-0.8306329886065882,-2.3311756292926233,-1.9027083555804651,-0.4393823782550257,-1.5971148649798792,-3.134643856679098
-0.8306568304644983,-2.33090049425234,-1.9033077398883265,-0.4390223662005823,-1.5969470183001917,-3.1345959345446985
-0.8306806723224085,-2.330672566090719,-1.9038952032672327,-0.43873435655702764,-1.5971506277667444,-3.134548012410299
-0.8306449095355433,-2.3304689566241663,-1.9045184294330042,-0.43838674226869756,-1.5970667044269007,-3.1346080938922327
-0.8306806723224085,-2.329989735280172,-1.9055984655963343,-0.4377039114581507,-1.5970905462848108,-3.1345720926867884
-0.8306086699115198,-2.329738442097799,-1.906125847493307,-0.4374039808856409,-1.5969589392291468,-3.1345840136157435
-0.8307045141803187,-2.3295229117022913,-1.9066413084613245,-0.4371283690081995,-1.597102467213766,-3.1344640890704554
-0.8306687513934534,-2.32929498354067,-1.907144848500387,-0.4368999640094202,-1.597006622944967,-3.1345840136157435
-0.830728832875387,-2.3288877646075647,-1.9080804030047815,-0.43631297746767217,-1.5971267859088343,-3.1344881693469446
-0.830728832875387,-2.3287084738360804,-1.9085004965411585,-0.4360612074481409,-1.5969470183001917,-3.134536091481344
-0.8307407538043421,-2.3284805456744593,-1.9089677969561976,-0.4357379118548792,-1.5970905462848108,-3.134392325078146
-0.8307526747332972,-2.3282769362079065,-1.9093878904925745,-0.43553382555116826,-1.5970667044269007,-3.1344881693469446
-0.8307526747332972,-2.3279293219195765,-1.9102147261248987,-0.43504172960390264,-1.5970786253558558,-3.134404246007101
-0.830728832875387,-2.327737633381979,-1.9106105009662073,-0.4347780386554163,-1.5969589392291468,-3.134512249623434
-0.8307407538043421,-2.3275583426104944,-1.9109824339496058,-0.43453818956484014,-1.5970309416400355,-3.134440247212545
-0.830728832875387,-2.327390495930807,-1.9113181273089808,-0.4343465010272425,-1.5970786253558558,-3.1344521681415003
-0.830728832875387,-2.327127281819479,-1.911989990864889,-0.4340112845050257,-1.5971148649798792,-3.134392325078146
-0.8307765165912073,-2.3269951979266565,-1.912337605153219,-0.43385535875429326,-1.596994702016012,-3.1344762484179896
-0.8307765165912073,-2.3268874327289026,-1.9126375357257288,-0.4337113539325159,-1.5970786253558558,-3.134440247212545
-0.8308246771441858,-2.3267677466021937,-1.9129374662982386,-0.4335559050189417,-1.5970667044269007,-3.134440247212545
-0.8307645956622522,-2.326576058064596,-1.9134886900531214,-0.4332078138934534,-1.5971267859088343,-3.134404246007101
-0.8308127562152308,-2.326444451008932,-1.9137285391436976,-0.43312389055360967,-1.5969589392291468,-3.1345000902758997
-0.8307884375201624,-2.326336685811178,-1.9139445463763636,-0.4328959623919886,-1.5970667044269007,-3.1344521681415003
-0.8308127562152308,-2.326228920613424,-1.9141362349139612,-0.43278819719423467,-1.5970309416400355,-3.13442832628359
-0.8307765165912073,-2.326120678578512,-1.9145196119891565,-0.43262035051454717,-1.5971267859088343,-3.134416166936056
-0.8307884375201624,-2.326024834309713,-1.914687458668844,-0.4324286619769495,-1.5969226996051233,-3.1344881693469446
-0.8308127562152308,-2.326000992451803,-1.9148319403277796,-0.43241626421083623,-1.597006622944967,-3.1344521681415003
-0.8308008352862757,-2.325989071522848,-1.9149282614337366,-0.432380501423971,-1.5970428625689905,-3.134392325078146
-0.8307765165912073,-2.3259170691119593,-1.9151795546161097,-0.43228465715517217,-1.5971148649798792,-3.134392325078146
-0.8308246771441858,-2.325905148183004,-1.915203873311178,-0.43229657808412725,-1.5969708601581019,-3.1344521681415003
-0.8308127562152308,-2.325893227254049,-1.9152997175799769,-0.43229657808412725,-1.5970428625689905,-3.1344762484179896
